;FLAVOR:Marlin
;TIME:7169
;Filament used: 4.35981m
;Layer height: 0.2
;MINX:78
;MINY:76.5
;MINZ:0.2
;MAXX:142
;MAXY:143.5
;MAXZ:19
;Generated with Cura_SteamEngine 4.8.0
M140 S60
M105
M190 S60
M104 S200
M105
M109 S200
M82 ;absolute extrusion mode
; Ender 3 Custom Start G-code
G92 E0 ; Reset Extruder
G28 ; Home all axes
G1 Z2.0 F3000 ; Move Z Axis up little to prevent scratching of Heat Bed
G1 X0.1 Y20 Z0.3 F5000.0 ; Move to start position
G1 X0.1 Y200.0 Z0.3 F1500.0 E15 ; Draw the first line
G1 X0.4 Y200.0 Z0.3 F5000.0 ; Move to side a little
G1 X0.4 Y20 Z0.3 F1500.0 E30 ; Draw the second line
G92 E0 ; Reset Extruder
G1 Z2.0 F3000 ; Move Z Axis up little to prevent scratching of Heat Bed
G1 X5 Y20 Z0.3 F5000.0 ; Move over to prevent blob squish
G1 X0.4 Y20 Z0.3 F1500.0 E30 ; Draw the second line
G92 E0 ; Reset Extruder
G1 Z2.0 F3000 ; Move Z Axis up little to prevent scratching of Heat Bed
G1 X5 Y20 Z0.3 F5000.0 ; Move over to prevent blob squish
G92 E0
G92 E0
G1 F1500 E-6
;LAYER_COUNT:95
;LAYER:0
M107
G0 F6000 X81.198 Y79.764 Z0.2
;TYPE:SKIRT
G1 F1500 E0
G1 F1200 X81.886 Y79.127 E0.03119
G1 X82.626 Y78.551 E0.06237
G1 X83.412 Y78.039 E0.09357
G1 X84.239 Y77.597 E0.12476
G1 X85.101 Y77.227 E0.15596
G1 X85.991 Y76.931 E0.18716
G1 X86.903 Y76.713 E0.21835
G1 X87.83 Y76.572 E0.24953
G1 X88.701 Y76.513 E0.27857
G1 X89.022 Y76.504 E0.28925
G1 X89.33 Y76.5 E0.29949
G1 X130.293 Y76.5 E1.66193
G1 X131.149 Y76.511 E1.6904
G1 X132.085 Y76.565 E1.72159
G1 X133.013 Y76.697 E1.75276
G1 X133.927 Y76.909 E1.78397
G1 X134.819 Y77.198 E1.81515
G1 X135.684 Y77.561 E1.84636
G1 X136.514 Y77.997 E1.87754
G1 X137.305 Y78.502 E1.90875
G1 X138.049 Y79.073 E1.93995
G1 X138.742 Y79.705 E1.97114
G1 X139.379 Y80.393 E2.00233
G1 X139.954 Y81.134 E2.03352
G1 X140.465 Y81.92 E2.0647
G1 X140.907 Y82.748 E2.09592
G1 X141.276 Y83.61 E2.12711
G1 X141.571 Y84.5 E2.15829
G1 X141.789 Y85.412 E2.18948
G1 X141.929 Y86.34 E2.22069
G1 X141.987 Y87.201 E2.2494
G1 X141.996 Y87.521 E2.26004
G1 X142 Y87.83 E2.27032
G1 X141.999 Y131.9 E3.7361
G1 X141.99 Y132.627 E3.76028
G1 X141.939 Y133.564 E3.79149
G1 X141.807 Y134.492 E3.82266
G1 X141.598 Y135.406 E3.85385
G1 X141.311 Y136.299 E3.88505
G1 X140.949 Y137.165 E3.91627
G1 X140.515 Y137.996 E3.94745
G1 X140.011 Y138.787 E3.97864
G1 X139.442 Y139.532 E4.00982
G1 X138.811 Y140.227 E4.04104
G1 X138.124 Y140.865 E4.07223
G1 X137.385 Y141.442 E4.10341
G1 X136.599 Y141.954 E4.13461
G1 X135.773 Y142.397 E4.16578
G1 X134.911 Y142.769 E4.19701
G1 X134.022 Y143.065 E4.22817
G1 X133.11 Y143.285 E4.25938
G1 X132.183 Y143.426 E4.29057
G1 X131.299 Y143.487 E4.32004
G1 X130.978 Y143.496 E4.33072
G1 X130.67 Y143.5 E4.34096
G1 X89.565 Y143.499 E5.70812
G1 X88.867 Y143.49 E5.73134
G1 X87.931 Y143.438 E5.76252
G1 X87.002 Y143.306 E5.79373
G1 X86.088 Y143.096 E5.82492
G1 X85.195 Y142.809 E5.85612
G1 X84.33 Y142.446 E5.88732
G1 X83.499 Y142.012 E5.9185
G1 X82.708 Y141.508 E5.94969
G1 X81.963 Y140.938 E5.98089
G1 X81.269 Y140.307 E6.01209
G1 X80.632 Y139.62 E6.04325
G1 X80.055 Y138.88 E6.07446
G1 X79.543 Y138.094 E6.10566
G1 X79.1 Y137.267 E6.13686
G1 X78.729 Y136.406 E6.16805
G1 X78.433 Y135.516 E6.19924
G1 X78.214 Y134.604 E6.23044
G1 X78.073 Y133.677 E6.26162
G1 X78.013 Y132.788 E6.29126
G1 X78.004 Y132.455 E6.30234
G1 X78 Y132.158 E6.31222
G1 X78.001 Y88.025 E7.78009
G1 X78.01 Y87.36 E7.80221
G1 X78.063 Y86.424 E7.83339
G1 X78.195 Y85.495 E7.8646
G1 X78.406 Y84.581 E7.8958
G1 X78.694 Y83.689 E7.92697
G1 X79.057 Y82.824 E7.95818
G1 X79.492 Y81.993 E7.98937
G1 X79.996 Y81.203 E8.02054
G1 X80.566 Y80.458 E8.05174
G1 X81.198 Y79.764 E8.08296
G0 F6000 X81.589 Y79.939
G1 F1200 X82.274 Y79.323 E8.1136
G1 X83.01 Y78.77 E8.14422
G1 X83.791 Y78.282 E8.17485
G1 X84.611 Y77.864 E8.20546
G1 X85.465 Y77.519 E8.2361
G1 X86.345 Y77.249 E8.26671
G1 X87.245 Y77.057 E8.29732
G1 X88.159 Y76.943 E8.32795
G1 X88.712 Y76.913 E8.34637
G1 X89.033 Y76.904 E8.35705
G1 X89.33 Y76.9 E8.36693
G1 X130.293 Y76.9 E9.72937
G1 X131.143 Y76.911 E9.75764
G1 X132.062 Y76.964 E9.78826
G1 X132.973 Y77.097 E9.81888
G1 X133.869 Y77.308 E9.8495
G1 X134.743 Y77.596 E9.8801
G1 X135.59 Y77.959 E9.91075
G1 X136.401 Y78.394 E9.94136
G1 X137.171 Y78.898 E9.97197
G1 X137.895 Y79.467 E10.0026
G1 X138.567 Y80.097 E10.03323
G1 X139.182 Y80.782 E10.06385
G1 X139.735 Y81.518 E10.09447
G1 X140.222 Y82.299 E10.12508
G1 X140.639 Y83.12 E10.15571
G1 X140.984 Y83.974 E10.18635
G1 X141.253 Y84.854 E10.21695
G1 X141.445 Y85.755 E10.24759
G1 X141.558 Y86.668 E10.27819
G1 X141.587 Y87.212 E10.29631
G1 X141.596 Y87.532 E10.30696
G1 X141.6 Y87.83 E10.31687
G1 X141.599 Y131.895 E11.78248
G1 X141.59 Y132.622 E11.80666
G1 X141.539 Y133.541 E11.83727
G1 X141.408 Y134.453 E11.86792
G1 X141.198 Y135.349 E11.89853
G1 X140.912 Y136.224 E11.92914
G1 X140.551 Y137.071 E11.95977
G1 X140.117 Y137.883 E11.99039
G1 X139.615 Y138.655 E12.02102
G1 X139.047 Y139.38 E12.05165
G1 X138.419 Y140.053 E12.08227
G1 X137.735 Y140.669 E12.11288
G1 X137 Y141.223 E12.14349
G1 X136.22 Y141.712 E12.17411
G1 X135.4 Y142.131 E12.20474
G1 X134.547 Y142.477 E12.23536
G1 X133.667 Y142.748 E12.26598
G1 X132.767 Y142.941 E12.2966
G1 X131.853 Y143.056 E12.32724
G1 X131.288 Y143.087 E12.34606
G1 X130.967 Y143.096 E12.35674
G1 X130.67 Y143.1 E12.36662
G1 X89.57 Y143.099 E13.73361
G1 X88.872 Y143.09 E13.75683
G1 X87.953 Y143.038 E13.78744
G1 X87.042 Y142.907 E13.81805
G1 X86.146 Y142.697 E13.84866
G1 X85.271 Y142.41 E13.87929
G1 X84.424 Y142.048 E13.90993
G1 X83.612 Y141.614 E13.94055
G1 X82.841 Y141.112 E13.97115
G1 X82.116 Y140.544 E14.00178
G1 X81.443 Y139.915 E14.03242
G1 X80.828 Y139.231 E14.06301
G1 X80.274 Y138.496 E14.09363
G1 X79.786 Y137.715 E14.12426
G1 X79.367 Y136.895 E14.15488
G1 X79.021 Y136.042 E14.1855
G1 X78.751 Y135.162 E14.21612
G1 X78.558 Y134.261 E14.24676
G1 X78.444 Y133.348 E14.27737
G1 X78.413 Y132.777 E14.29639
G1 X78.404 Y132.444 E14.30746
G1 X78.4 Y132.158 E14.31698
G1 X78.401 Y88.031 E15.78465
G1 X78.41 Y87.366 E15.80677
G1 X78.462 Y86.446 E15.83742
G1 X78.594 Y85.535 E15.86803
G1 X78.805 Y84.639 E15.89865
G1 X79.092 Y83.764 E15.92928
G1 X79.455 Y82.918 E15.9599
G1 X79.889 Y82.106 E15.99052
G1 X80.392 Y81.335 E16.02114
G1 X80.961 Y80.611 E16.05176
G1 X81.589 Y79.939 E16.08236
G0 F6000 X81.981 Y80.117
G1 F1200 X82.662 Y79.524 E16.11239
G1 X83.394 Y78.994 E16.14245
G1 X84.169 Y78.531 E16.17247
G1 X84.982 Y78.138 E16.20251
G1 X85.827 Y77.818 E16.23256
G1 X86.696 Y77.575 E16.26257
G1 X87.584 Y77.409 E16.29262
G1 X88.723 Y77.313 E16.33064
G1 X89.044 Y77.304 E16.34132
G1 X89.33 Y77.3 E16.35083
G1 X130.293 Y77.3 E17.71327
G1 X131.137 Y77.311 E17.74134
G1 X132.039 Y77.364 E17.77139
G1 X132.932 Y77.496 E17.80142
G1 X133.81 Y77.707 E17.83145
G1 X134.666 Y77.995 E17.86149
G1 X135.493 Y78.357 E17.89151
G1 X136.285 Y78.792 E17.92157
G1 X137.036 Y79.294 E17.95161
G1 X137.739 Y79.861 E17.98165
G1 X138.389 Y80.488 E18.01169
G1 X138.981 Y81.17 E18.04173
G1 X139.511 Y81.901 E18.07176
G1 X139.973 Y82.677 E18.1018
G1 X140.366 Y83.49 E18.13183
G1 X140.684 Y84.335 E18.16186
G1 X140.927 Y85.205 E18.1919
G1 X141.092 Y86.093 E18.22194
G1 X141.187 Y87.223 E18.25966
G1 X141.196 Y87.543 E18.27031
G1 X141.2 Y87.83 E18.27985
G1 X141.199 Y131.89 E19.7453
G1 X141.19 Y132.617 E19.76948
G1 X141.139 Y133.519 E19.79953
G1 X141.008 Y134.413 E19.82958
G1 X140.799 Y135.291 E19.8596
G1 X140.513 Y136.148 E19.88965
G1 X140.152 Y136.976 E19.91969
G1 X139.72 Y137.768 E19.9497
G1 X139.219 Y138.52 E19.97975
G1 X138.653 Y139.224 E20.00979
G1 X138.028 Y139.875 E20.03981
G1 X137.347 Y140.469 E20.06987
G1 X136.616 Y141 E20.09992
G1 X135.842 Y141.464 E20.12993
G1 X135.029 Y141.858 E20.15998
G1 X134.185 Y142.178 E20.19
G1 X133.315 Y142.423 E20.22006
G1 X132.428 Y142.589 E20.25008
G1 X131.277 Y142.687 E20.2885
G1 X130.956 Y142.696 E20.29918
G1 X130.67 Y142.7 E20.30869
G1 X89.575 Y142.699 E21.67552
G1 X88.877 Y142.69 E21.69873
G1 X87.976 Y142.639 E21.72875
G1 X87.082 Y142.507 E21.75881
G1 X86.204 Y142.298 E21.78883
G1 X85.347 Y142.011 E21.81888
G1 X84.52 Y141.65 E21.8489
G1 X83.727 Y141.217 E21.87895
G1 X82.976 Y140.716 E21.90897
G1 X82.272 Y140.15 E21.93902
G1 X81.621 Y139.524 E21.96906
G1 X81.028 Y138.843 E21.99909
G1 X80.498 Y138.112 E22.02912
G1 X80.034 Y137.337 E22.05917
G1 X79.64 Y136.524 E22.08921
G1 X79.32 Y135.68 E22.11924
G1 X79.076 Y134.81 E22.14929
G1 X78.91 Y133.922 E22.17934
G1 X78.813 Y132.767 E22.21789
G1 X78.804 Y132.434 E22.22897
G1 X78.8 Y132.158 E22.23815
G1 X78.801 Y88.036 E23.70565
G1 X78.81 Y87.371 E23.72777
G1 X78.862 Y86.469 E23.75782
G1 X78.994 Y85.576 E23.78785
G1 X79.204 Y84.698 E23.81787
G1 X79.491 Y83.841 E23.84793
G1 X79.853 Y83.014 E23.87796
G1 X80.286 Y82.222 E23.90798
G1 X80.788 Y81.471 E23.93802
G1 X81.355 Y80.767 E23.96809
G1 X81.981 Y80.117 E23.9981
G0 F6000 X94.441 Y92.871
G1 F1200 X94.492 Y92.86 E23.99984
G1 X94.617 Y92.922 E24.00448
G1 X94.628 Y93.053 E24.00885
G1 X94.539 Y93.135 E24.01288
G1 X94.412 Y93.109 E24.01719
G1 X94.361 Y92.98 E24.0218
G1 X94.441 Y92.871 E24.0263
G0 F6000 X94.389 Y92.47
G1 F1200 X94.473 Y92.459 E24.02912
G1 X94.747 Y92.518 E24.03844
G1 X94.949 Y92.697 E24.04742
G1 X95.039 Y92.949 E24.05632
G1 X94.995 Y93.218 E24.06538
G1 X94.829 Y93.43 E24.07434
G1 X94.571 Y93.537 E24.08363
G1 X94.297 Y93.502 E24.09281
G1 X94.076 Y93.337 E24.10199
G1 X93.967 Y93.094 E24.11085
G1 X93.989 Y92.822 E24.11992
G1 X94.143 Y92.592 E24.12913
G1 X94.389 Y92.47 E24.13826
G0 F6000 X94.01 Y92.193
G1 F1200 X94.297 Y92.079 E24.14853
G1 X94.46 Y92.058 E24.154
G1 X94.77 Y92.097 E24.16439
G1 X95.061 Y92.242 E24.1752
G1 X95.283 Y92.473 E24.18586
G1 X95.414 Y92.77 E24.19666
G1 X95.44 Y93.075 E24.20684
G1 X95.36 Y93.384 E24.21745
G1 X95.179 Y93.654 E24.22827
G1 X94.927 Y93.841 E24.2387
G1 X94.621 Y93.936 E24.24936
G1 X94.311 Y93.924 E24.25968
G1 X94.009 Y93.806 E24.27046
G1 X93.763 Y93.587 E24.28142
G1 X93.611 Y93.317 E24.29172
G1 X93.557 Y93.002 E24.30235
G1 X93.611 Y92.687 E24.31298
G1 X93.767 Y92.407 E24.32364
G1 X94.01 Y92.193 E24.33441
G0 F6000 X93.8 Y91.851
G1 F1200 X94.217 Y91.686 E24.34933
G1 X94.436 Y91.657 E24.35668
G1 X94.89 Y91.714 E24.37189
G1 X95.297 Y91.916 E24.38701
G1 X95.614 Y92.247 E24.40225
G1 X95.802 Y92.667 E24.41755
G1 X95.84 Y93.106 E24.43221
G1 X95.728 Y93.546 E24.44731
G1 X95.474 Y93.928 E24.46257
G1 X95.11 Y94.198 E24.47764
G1 X94.671 Y94.334 E24.49293
G1 X94.227 Y94.317 E24.50771
G1 X93.796 Y94.146 E24.52313
G1 X93.451 Y93.84 E24.53847
G1 X93.232 Y93.447 E24.55343
G1 X93.155 Y93 E24.56852
G1 X93.232 Y92.553 E24.5836
G1 X93.453 Y92.157 E24.59869
G1 X93.8 Y91.851 E24.61407
G0 F6000 X93.84 Y91.382
G1 F1200 X94.132 Y91.293 E24.62423
G1 X94.417 Y91.256 E24.63379
G1 X94.718 Y91.267 E24.6438
G1 X95.005 Y91.33 E24.65358
G1 X95.286 Y91.442 E24.66364
G1 X95.536 Y91.594 E24.67337
G1 X95.759 Y91.789 E24.68322
G1 X95.946 Y92.021 E24.69313
G1 X96.084 Y92.266 E24.70249
G1 X96.191 Y92.566 E24.71308
G1 X96.239 Y92.846 E24.72253
G1 X96.24 Y93.143 E24.73241
G1 X96.19 Y93.435 E24.74226
G1 X96.094 Y93.711 E24.75198
G1 X95.942 Y93.983 E24.76234
G1 X95.762 Y94.207 E24.7719
G1 X95.548 Y94.396 E24.7814
G1 X95.289 Y94.557 E24.79154
G1 X95.006 Y94.671 E24.80169
G1 X94.727 Y94.732 E24.81119
G1 X94.423 Y94.745 E24.82131
G1 X94.141 Y94.709 E24.83076
G1 X93.853 Y94.621 E24.84078
G1 X93.589 Y94.49 E24.85058
G1 X93.353 Y94.316 E24.86033
G1 X93.136 Y94.089 E24.87078
G1 X92.981 Y93.862 E24.87992
G1 X92.854 Y93.585 E24.89005
G1 X92.779 Y93.296 E24.89999
G1 X92.753 Y93.002 E24.9098
G1 X92.778 Y92.709 E24.91958
G1 X92.854 Y92.419 E24.92955
G1 X92.973 Y92.155 E24.93919
G1 X93.139 Y91.908 E24.94908
G1 X93.345 Y91.692 E24.95901
G1 X93.588 Y91.51 E24.96911
G1 X93.84 Y91.382 E24.97851
G0 F6000 X123.753 Y93.002
G1 F1200 X123.778 Y92.709 E24.98829
G1 X123.854 Y92.419 E24.99826
G1 X123.973 Y92.155 E25.00789
G1 X124.139 Y91.908 E25.01779
G1 X124.345 Y91.692 E25.02772
G1 X124.588 Y91.51 E25.03782
G1 X124.84 Y91.382 E25.04722
G1 X125.132 Y91.293 E25.05737
G1 X125.417 Y91.256 E25.06693
G1 X125.718 Y91.267 E25.07695
G1 X126.005 Y91.33 E25.08672
G1 X126.286 Y91.442 E25.09678
G1 X126.536 Y91.594 E25.10651
G1 X126.759 Y91.789 E25.11636
G1 X126.946 Y92.021 E25.12628
G1 X127.084 Y92.266 E25.13563
G1 X127.191 Y92.566 E25.14622
G1 X127.239 Y92.846 E25.15567
G1 X127.24 Y93.143 E25.16555
G1 X127.19 Y93.435 E25.1754
G1 X127.094 Y93.711 E25.18512
G1 X126.942 Y93.983 E25.19549
G1 X126.762 Y94.207 E25.20504
G1 X126.548 Y94.396 E25.21454
G1 X126.289 Y94.557 E25.22468
G1 X126.006 Y94.671 E25.23483
G1 X125.727 Y94.732 E25.24433
G1 X125.423 Y94.745 E25.25445
G1 X125.141 Y94.709 E25.2639
G1 X124.853 Y94.621 E25.27392
G1 X124.589 Y94.49 E25.28372
G1 X124.353 Y94.316 E25.29347
G1 X124.136 Y94.089 E25.30392
G1 X123.981 Y93.862 E25.31306
G1 X123.854 Y93.585 E25.3232
G1 X123.779 Y93.296 E25.33313
G1 X123.753 Y93.002 E25.34294
G0 F6000 X124.155 Y93
G1 F1200 X124.232 Y92.553 E25.35803
G1 X124.453 Y92.157 E25.37311
G1 X124.8 Y91.851 E25.3885
G1 X125.217 Y91.686 E25.40342
G1 X125.436 Y91.657 E25.41076
G1 X125.89 Y91.714 E25.42598
G1 X126.297 Y91.916 E25.4411
G1 X126.614 Y92.247 E25.45634
G1 X126.802 Y92.667 E25.47164
G1 X126.84 Y93.106 E25.4863
G1 X126.728 Y93.546 E25.5014
G1 X126.474 Y93.928 E25.51666
G1 X126.11 Y94.198 E25.53173
G1 X125.671 Y94.334 E25.54702
G1 X125.227 Y94.317 E25.5618
G1 X124.796 Y94.146 E25.57722
G1 X124.451 Y93.84 E25.59256
G1 X124.232 Y93.447 E25.60752
G1 X124.155 Y93 E25.62261
G0 F6000 X124.557 Y93.002
G1 F1200 X124.611 Y92.687 E25.63324
G1 X124.767 Y92.407 E25.6439
G1 X125.01 Y92.193 E25.65467
G1 X125.297 Y92.079 E25.66494
G1 X125.46 Y92.058 E25.6704
G1 X125.77 Y92.097 E25.6808
G1 X126.061 Y92.242 E25.69161
G1 X126.283 Y92.473 E25.70227
G1 X126.414 Y92.77 E25.71306
G1 X126.44 Y93.075 E25.72324
G1 X126.36 Y93.384 E25.73386
G1 X126.179 Y93.654 E25.74467
G1 X125.927 Y93.841 E25.75511
G1 X125.621 Y93.936 E25.76577
G1 X125.311 Y93.924 E25.77608
G1 X125.009 Y93.806 E25.78687
G1 X124.763 Y93.587 E25.79782
G1 X124.611 Y93.317 E25.80813
G1 X124.557 Y93.002 E25.81876
G0 F6000 X124.967 Y93.094
G1 F1200 X124.989 Y92.822 E25.82783
G1 X125.143 Y92.592 E25.83704
G1 X125.389 Y92.47 E25.84617
G1 X125.473 Y92.459 E25.84899
G1 X125.747 Y92.518 E25.85831
G1 X125.949 Y92.697 E25.86729
G1 X126.039 Y92.949 E25.87619
G1 X125.995 Y93.218 E25.88526
G1 X125.829 Y93.43 E25.89421
G1 X125.571 Y93.537 E25.9035
G1 X125.297 Y93.502 E25.91269
G1 X125.076 Y93.337 E25.92186
G1 X124.967 Y93.094 E25.93072
G0 F6000 X125.361 Y92.98
G1 F1200 X125.441 Y92.871 E25.93522
G1 X125.492 Y92.86 E25.93695
G1 X125.617 Y92.922 E25.94159
G1 X125.628 Y93.053 E25.94596
G1 X125.539 Y93.135 E25.94999
G1 X125.412 Y93.109 E25.9543
G1 X125.361 Y92.98 E25.95892
G1 F1500 E19.95892
;MESH:Body1.stl
G0 F6000 X124.759 Y94.942
G0 X124.444 Y95.98
G0 X125.364 Y96.35
;TYPE:WALL-INNER
G1 F1500 E25.95892
G1 F1200 X125.932 Y96.324 E25.97783
G1 X126.487 Y96.203 E25.99672
G1 X127.016 Y95.99 E26.01569
G1 X127.499 Y95.69 E26.0346
G1 X127.923 Y95.315 E26.05342
G1 X128.28 Y94.871 E26.07237
G1 X128.557 Y94.375 E26.09127
G1 X128.745 Y93.837 E26.11022
G1 X128.84 Y93.277 E26.12912
G1 X128.839 Y92.708 E26.14804
G1 X128.741 Y92.149 E26.16692
G1 X128.552 Y91.613 E26.18582
G1 X128.273 Y91.118 E26.20472
G1 X127.915 Y90.676 E26.22364
G1 X127.487 Y90.301 E26.24256
G1 X127.003 Y90.004 E26.26145
G1 X126.475 Y89.794 E26.28035
G1 X125.919 Y89.675 E26.29926
G1 X125.35 Y89.651 E26.3182
G1 X124.788 Y89.725 E26.33706
G1 X124.245 Y89.892 E26.35595
G1 X123.737 Y90.149 E26.37489
G1 X123.28 Y90.489 E26.39383
G1 X122.888 Y90.9 E26.41272
G1 X122.571 Y91.372 E26.43163
G1 X122.338 Y91.888 E26.45046
