;FLAVOR:Marlin
;TIME:966
;Filament used: 0.647662m
;Layer height: 0.2
;MINX:78.5
;MINY:76
;MINZ:0.2
;MAXX:141.5
;MAXY:144
;MAXZ:4
;Generated with Cura_SteamEngine 4.8.0
M140 S60
M105
M190 S60
M104 S200
M105
M109 S200
M82 ;absolute extrusion mode
; Ender 3 Custom Start G-code
G92 E0 ; Reset Extruder
G28 ; Home all axes
G1 Z2.0 F3000 ; Move Z Axis up little to prevent scratching of Heat Bed
G1 X0.1 Y20 Z0.3 F5000.0 ; Move to start position
G1 X0.1 Y200.0 Z0.3 F1500.0 E15 ; Draw the first line
G1 X0.4 Y200.0 Z0.3 F5000.0 ; Move to side a little
G1 X0.4 Y20 Z0.3 F1500.0 E30 ; Draw the second line
G92 E0 ; Reset Extruder
G1 Z2.0 F3000 ; Move Z Axis up little to prevent scratching of Heat Bed
G1 X5 Y20 Z0.3 F5000.0 ; Move over to prevent blob squish
G1 X0.4 Y20 Z0.3 F1500.0 E30 ; Draw the second line
G92 E0 ; Reset Extruder
G1 Z2.0 F3000 ; Move Z Axis up little to prevent scratching of Heat Bed
G1 X5 Y20 Z0.3 F5000.0 ; Move over to prevent blob squish
G92 E0
G92 E0
G1 F1500 E-6
;LAYER_COUNT:20
;LAYER:0
M107
G0 F6000 X81.698 Y79.264 Z0.2
;TYPE:SKIRT
G1 F1500 E0
G1 F1200 X82.386 Y78.627 E0.03119
G1 X83.126 Y78.051 E0.06237
G1 X83.912 Y77.539 E0.09357
G1 X84.739 Y77.097 E0.12476
G1 X85.601 Y76.727 E0.15596
G1 X86.491 Y76.431 E0.18716
G1 X87.403 Y76.213 E0.21835
G1 X88.33 Y76.072 E0.24953
G1 X89.201 Y76.013 E0.27857
G1 X89.522 Y76.004 E0.28925
G1 X89.83 Y76 E0.29949
G1 X124.793 Y76 E1.46237
G1 X125.649 Y76.011 E1.49084
G1 X126.586 Y76.065 E1.52206
G1 X127.514 Y76.197 E1.55323
G1 X128.428 Y76.409 E1.58444
G1 X129.32 Y76.698 E1.61563
G1 X130.185 Y77.061 E1.64683
G1 X131.015 Y77.497 E1.67801
G1 X131.805 Y78.002 E1.7092
G1 X132.55 Y78.573 E1.74042
G1 X133.243 Y79.205 E1.77161
G1 X133.88 Y79.893 E1.8028
G1 X134.455 Y80.634 E1.83399
G1 X134.966 Y81.42 E1.86517
G1 X135.408 Y82.248 E1.89639
G1 X135.777 Y83.109 E1.92755
G1 X136.072 Y84 E1.95876
G1 X136.208 Y84.527 E1.97687
G1 X136.373 Y85.241 E2.00124
G1 X136.988 Y87.74 E2.08684
G1 X137.667 Y90.196 E2.17159
G1 X138.397 Y92.579 E2.25448
G1 X139.213 Y94.989 E2.33911
G1 X140.066 Y97.296 E2.42092
G1 X140.314 Y97.911 E2.44297
G1 X140.75 Y99.038 E2.48316
G1 X141.051 Y99.926 E2.51435
G1 X141.274 Y100.837 E2.54554
G1 X141.42 Y101.763 E2.57672
G1 X141.485 Y102.667 E2.60687
G1 X141.495 Y102.993 E2.61772
G1 X141.5 Y103.33 E2.62893
G1 X141.499 Y116.464 E3.06576
G1 X141.488 Y117.171 E3.08928
G1 X141.433 Y118.107 E3.12047
G1 X141.299 Y119.036 E3.15169
G1 X141.086 Y119.949 E3.18287
G1 X140.704 Y121.082 E3.22264
G1 X140.533 Y121.51 E3.23797
G1 X139.604 Y123.924 E3.324
G1 X138.767 Y126.292 E3.40753
G1 X138.003 Y128.673 E3.4907
G1 X137.295 Y131.108 E3.57504
G1 X136.667 Y133.525 E3.6581
G1 X136.339 Y134.944 E3.70654
G1 X136.176 Y135.609 E3.72932
G1 X135.914 Y136.509 E3.76049
G1 X135.576 Y137.384 E3.79169
G1 X135.165 Y138.227 E3.82288
G1 X134.684 Y139.032 E3.85407
G1 X134.136 Y139.793 E3.88526
G1 X133.525 Y140.505 E3.91647
G1 X132.856 Y141.162 E3.94766
G1 X132.133 Y141.759 E3.97884
G1 X131.362 Y142.293 E4.01004
G1 X130.548 Y142.759 E4.04123
G1 X129.697 Y143.154 E4.07244
G1 X128.816 Y143.476 E4.10363
G1 X127.911 Y143.721 E4.13482
G1 X126.988 Y143.888 E4.16602
G1 X125.833 Y143.985 E4.20457
G1 X125.511 Y143.995 E4.21528
G1 X125.17 Y144 E4.22662
G1 X90.065 Y143.999 E5.39422
G1 X89.367 Y143.99 E5.41744
G1 X88.431 Y143.938 E5.44862
G1 X87.502 Y143.806 E5.47983
G1 X86.588 Y143.596 E5.51102
G1 X85.695 Y143.309 E5.54222
G1 X84.83 Y142.946 E5.57342
G1 X83.999 Y142.512 E5.6046
G1 X83.208 Y142.008 E5.63579
G1 X82.463 Y141.438 E5.66699
G1 X81.769 Y140.807 E5.69819
G1 X81.132 Y140.12 E5.72935
G1 X80.555 Y139.38 E5.76056
G1 X80.043 Y138.594 E5.79176
G1 X79.6 Y137.767 E5.82297
G1 X79.229 Y136.906 E5.85415
G1 X78.933 Y136.016 E5.88534
G1 X78.714 Y135.104 E5.91654
G1 X78.573 Y134.177 E5.94773
G1 X78.513 Y133.288 E5.97736
G1 X78.504 Y132.955 E5.98844
G1 X78.5 Y132.658 E5.99832
G1 X78.501 Y87.525 E7.49945
G1 X78.51 Y86.86 E7.52157
G1 X78.563 Y85.924 E7.55275
G1 X78.695 Y84.995 E7.58396
G1 X78.906 Y84.081 E7.61516
G1 X79.194 Y83.189 E7.64634
G1 X79.557 Y82.324 E7.67754
G1 X79.992 Y81.493 E7.70873
G1 X80.496 Y80.703 E7.7399
G1 X81.066 Y79.958 E7.7711
G1 X81.698 Y79.264 E7.80232
G0 F6000 X82.089 Y79.439
G1 F1200 X82.774 Y78.823 E7.83296
G1 X83.51 Y78.27 E7.86358
G1 X84.291 Y77.782 E7.89421
G1 X85.111 Y77.364 E7.92482
G1 X85.965 Y77.019 E7.95546
G1 X86.845 Y76.749 E7.98607
G1 X87.745 Y76.557 E8.01668
G1 X88.659 Y76.443 E8.04732
G1 X89.212 Y76.413 E8.06574
G1 X89.533 Y76.404 E8.07642
G1 X89.83 Y76.4 E8.08629
G1 X124.793 Y76.4 E9.24917
G1 X125.644 Y76.411 E9.27748
G1 X126.563 Y76.464 E9.30809
G1 X127.474 Y76.597 E9.33871
G1 X128.37 Y76.808 E9.36933
G1 X129.244 Y77.096 E9.39994
G1 X130.09 Y77.459 E9.43056
G1 X130.902 Y77.894 E9.46119
G1 X131.672 Y78.398 E9.4918
G1 X132.396 Y78.967 E9.52243
G1 X133.068 Y79.596 E9.55304
G1 X133.683 Y80.282 E9.58369
G1 X134.236 Y81.018 E9.61431
G1 X134.723 Y81.799 E9.64492
G1 X135.14 Y82.62 E9.67555
G1 X135.485 Y83.474 E9.70618
G1 X135.819 Y84.618 E9.74582
G1 X135.988 Y85.348 E9.77074
G1 X136.606 Y87.861 E9.85681
G1 X137.275 Y90.281 E9.94032
G1 X138.022 Y92.718 E10.0251
G1 X138.835 Y95.12 E10.10944
G1 X139.707 Y97.478 E10.19306
G1 X139.997 Y98.199 E10.21891
G1 X140.377 Y99.182 E10.25396
G1 X140.671 Y100.054 E10.28457
G1 X140.889 Y100.949 E10.31521
G1 X141.028 Y101.859 E10.34582
G1 X141.085 Y102.679 E10.37316
G1 X141.095 Y103.005 E10.38401
G1 X141.1 Y103.33 E10.39482
G1 X141.099 Y116.458 E10.83146
G1 X141.088 Y117.165 E10.85498
G1 X141.033 Y118.084 E10.8856
G1 X140.9 Y118.995 E10.91622
G1 X140.687 Y119.891 E10.94685
G1 X140.332 Y120.933 E10.98347
G1 X140.195 Y121.275 E10.99572
G1 X139.23 Y123.783 E11.0851
G1 X138.396 Y126.143 E11.16835
G1 X137.612 Y128.587 E11.25372
G1 X136.913 Y130.992 E11.33702
G1 X136.274 Y133.448 E11.42142
G1 X135.95 Y134.848 E11.46922
G1 X135.787 Y135.513 E11.49199
G1 X135.529 Y136.397 E11.52262
G1 X135.196 Y137.255 E11.55323
G1 X134.789 Y138.081 E11.58386
G1 X134.312 Y138.869 E11.61449
G1 X133.769 Y139.612 E11.6451
G1 X133.163 Y140.305 E11.67572
G1 X132.499 Y140.943 E11.70635
G1 X131.783 Y141.521 E11.73695
G1 X131.019 Y142.035 E11.76758
G1 X130.213 Y142.481 E11.79822
G1 X129.372 Y142.854 E11.82882
G1 X128.501 Y143.154 E11.85946
G1 X127.608 Y143.377 E11.89007
G1 X126.699 Y143.521 E11.92068
G1 X125.821 Y143.585 E11.94996
G1 X125.499 Y143.595 E11.96068
G1 X125.17 Y143.6 E11.97162
G1 X90.07 Y143.599 E13.13905
G1 X89.372 Y143.59 E13.16227
G1 X88.453 Y143.538 E13.19288
G1 X87.542 Y143.407 E13.2235
G1 X86.646 Y143.197 E13.2541
G1 X85.771 Y142.91 E13.28473
G1 X84.924 Y142.548 E13.31537
G1 X84.112 Y142.114 E13.34599
G1 X83.341 Y141.612 E13.37659
G1 X82.616 Y141.044 E13.40722
G1 X81.943 Y140.415 E13.43786
G1 X81.328 Y139.731 E13.46846
G1 X80.774 Y138.996 E13.49907
G1 X80.286 Y138.215 E13.5297
G1 X79.867 Y137.395 E13.56033
G1 X79.521 Y136.542 E13.59094
G1 X79.251 Y135.662 E13.62156
G1 X79.058 Y134.761 E13.65221
G1 X78.944 Y133.848 E13.68281
G1 X78.913 Y133.277 E13.70183
G1 X78.904 Y132.944 E13.71291
G1 X78.9 Y132.658 E13.72242
G1 X78.901 Y87.531 E15.22335
G1 X78.91 Y86.866 E15.24547
G1 X78.962 Y85.946 E15.27612
G1 X79.094 Y85.035 E15.30673
G1 X79.305 Y84.139 E15.33735
G1 X79.592 Y83.264 E15.36798
G1 X79.955 Y82.418 E15.3986
G1 X80.389 Y81.606 E15.42922
G1 X80.892 Y80.835 E15.45984
G1 X81.461 Y80.111 E15.49047
G1 X82.089 Y79.439 E15.52106
G0 F6000 X82.481 Y79.617
G1 F1200 X83.162 Y79.024 E15.55109
G1 X83.894 Y78.494 E15.58115
G1 X84.669 Y78.031 E15.61118
G1 X85.482 Y77.638 E15.64121
G1 X86.327 Y77.318 E15.67126
G1 X87.196 Y77.075 E15.70127
G1 X88.084 Y76.909 E15.73132
G1 X89.223 Y76.813 E15.76934
G1 X89.544 Y76.804 E15.78002
G1 X89.83 Y76.8 E15.78953
G1 X124.793 Y76.8 E16.95241
G1 X125.638 Y76.811 E16.98051
G1 X126.539 Y76.864 E17.01053
G1 X127.433 Y76.996 E17.04059
G1 X128.311 Y77.207 E17.07062
G1 X129.167 Y77.495 E17.10066
G1 X129.994 Y77.857 E17.13069
G1 X130.786 Y78.291 E17.16073
G1 X131.537 Y78.794 E17.19079
G1 X132.24 Y79.361 E17.22083
G1 X132.89 Y79.988 E17.25087
G1 X133.482 Y80.67 E17.2809
G1 X134.011 Y81.401 E17.31092
G1 X134.474 Y82.177 E17.34097
G1 X134.866 Y82.99 E17.37099
G1 X135.185 Y83.835 E17.40103
G1 X135.429 Y84.708 E17.43118
G1 X135.602 Y85.454 E17.45665
G1 X136.211 Y87.934 E17.54159
G1 X136.9 Y90.423 E17.62748
G1 X137.637 Y92.827 E17.71111
G1 X138.452 Y95.238 E17.79576
G1 X139.337 Y97.629 E17.88056
G1 X139.624 Y98.343 E17.90615
G1 X140.004 Y99.326 E17.94121
G1 X140.292 Y100.182 E17.97125
G1 X140.503 Y101.06 E18.00128
G1 X140.636 Y101.954 E18.03134
G1 X140.685 Y102.691 E18.05591
G1 X140.695 Y103.017 E18.06676
G1 X140.7 Y103.33 E18.07717
G1 X140.699 Y116.452 E18.51361
G1 X140.688 Y117.159 E18.53713
G1 X140.634 Y118.06 E18.56715
G1 X140.5 Y118.953 E18.59718
G1 X140.288 Y119.831 E18.62722
G1 X139.961 Y120.785 E18.66076
G1 X139.774 Y121.253 E18.67753
G1 X138.862 Y123.624 E18.76202
G1 X138.011 Y126.034 E18.84703
G1 X137.233 Y128.457 E18.93167
G1 X136.527 Y130.884 E19.01574
G1 X135.883 Y133.363 E19.10093
G1 X135.562 Y134.753 E19.14837
G1 X135.399 Y135.418 E19.17115
G1 X135.145 Y136.285 E19.2012
G1 X134.816 Y137.126 E19.23123
G1 X134.413 Y137.934 E19.26126
G1 X133.941 Y138.704 E19.2913
G1 X133.403 Y139.429 E19.32133
G1 X132.802 Y140.104 E19.35139
G1 X132.144 Y140.722 E19.38141
G1 X131.434 Y141.28 E19.41145
G1 X130.677 Y141.774 E19.44151
G1 X129.88 Y142.198 E19.47154
G1 X129.049 Y142.55 E19.50156
G1 X128.189 Y142.827 E19.53161
G1 X127.308 Y143.027 E19.56165
G1 X126.413 Y143.148 E19.59169
G1 X125.809 Y143.185 E19.61182
G1 X125.487 Y143.195 E19.62253
G1 X125.17 Y143.2 E19.63308
G1 X90.075 Y143.199 E20.80034
G1 X89.377 Y143.19 E20.82356
G1 X88.476 Y143.139 E20.85358
G1 X87.582 Y143.007 E20.88363
G1 X86.704 Y142.798 E20.91365
G1 X85.847 Y142.511 E20.94371
G1 X85.02 Y142.15 E20.97372
G1 X84.227 Y141.717 E21.00378
G1 X83.476 Y141.216 E21.0338
G1 X82.772 Y140.65 E21.06385
G1 X82.121 Y140.024 E21.09389
G1 X81.528 Y139.343 E21.12392
G1 X80.998 Y138.612 E21.15395
G1 X80.534 Y137.837 E21.18399
G1 X80.14 Y137.024 E21.21404
G1 X79.82 Y136.18 E21.24406
G1 X79.576 Y135.31 E21.27412
G1 X79.41 Y134.422 E21.30416
G1 X79.313 Y133.267 E21.34271
G1 X79.304 Y132.934 E21.35379
G1 X79.3 Y132.658 E21.36297
G1 X79.301 Y87.536 E22.86374
G1 X79.31 Y86.871 E22.88586
G1 X79.362 Y85.969 E22.91591
G1 X79.494 Y85.076 E22.94593
G1 X79.704 Y84.198 E22.97596
G1 X79.991 Y83.341 E23.00602
G1 X80.353 Y82.514 E23.03604
G1 X80.786 Y81.722 E23.06607
G1 X81.288 Y80.971 E23.09611
G1 X81.855 Y80.267 E23.12618
G1 X82.481 Y79.617 E23.15619
G1 F1500 E17.15619
;MESH:Body1.stl
G0 F6000 X90.71 Y86.335
G0 X90.71 Y88.21
G0 X91.072 Y131.428
G0 X124.1 Y131.6
;TYPE:WALL-INNER
G1 F1500 E23.15619
G1 F1200 X124.1 Y115.6 E23.68835
G1 X129.1 Y115.6 E23.85465
G1 X129.1 Y104.4 E24.22717
G1 X124.1 Y104.4 E24.39347
G1 X124.1 Y88.4 E24.92563
G1 X90.9 Y88.4 E26.02987
G1 X90.9 Y131.6 E27.4667
G1 X124.1 Y131.6 E28.57094
G0 F6000 X123.7 Y131.2
;TYPE:WALL-OUTER
G1 F1200 X123.7 Y115.2 E29.1031
G1 X128.7 Y115.2 E29.2694
G1 X128.7 Y104.8 E29.61531
G1 X123.7 Y104.8 E29.78161
G1 X123.7 Y88.8 E30.31377
G1 X91.3 Y88.8 E31.3914
G1 X91.3 Y131.2 E32.80163
G1 X123.7 Y131.2 E33.87926
G1 F1500 E27.87926
G0 F6000 X124 Y131.2
G0 X124.296 Y131.796
G0 X124.69 Y131.796
G0 X124.9 Y132.4
;TYPE:WALL-INNER
G1 F1500 E33.87926
G1 F1200 X90.1 Y132.4 E35.03671
G1 X90.1 Y87.6 E36.52677
G1 X124.9 Y87.6 E37.68422
G1 X124.9 Y103.6 E38.21638
G1 X129.9 Y103.6 E38.38268
G1 X129.9 Y116.4 E38.80841
G1 X124.9 Y116.4 E38.97471
G1 X124.9 Y132.4 E39.50687
G0 F6000 X125.3 Y132.8
;TYPE:WALL-OUTER
G1 F1200 X89.7 Y132.8 E40.69093
G1 X89.7 Y87.2 E42.2076
G1 X125.3 Y87.2 E43.39166
G1 X125.3 Y103.2 E43.92382
G1 X130.3 Y103.2 E44.09012
G1 X130.3 Y116.8 E44.54246
G1 X125.3 Y116.8 E44.70876
G1 X125.3 Y132.8 E45.24092
G0 F6000 X125.03 Y132.53
G0 X124.79 Y132.01
G0 X124.51 Y132.01
;TYPE:SKIN
G1 F1200 X90.49 Y132.01 E46.37243
G1 X90.49 Y87.99 E47.83654
G1 X124.51 Y87.99 E48.96805
G1 X124.51 Y103.99 E49.50021
G1 X129.51 Y103.99 E49.66651
G1 X129.51 Y116.01 E50.0663
G1 X124.51 Y116.01 E50.2326
G1 X124.51 Y132.01 E50.76476
G0 F6000 X124.49 Y131.99
G1 F1200 X124.49 Y115.99 E51.29693
G1 X129.49 Y115.99 E51.46323
G1 X129.49 Y104.01 E51.86168
G1 X124.49 Y104.01 E52.02798
G1 X124.49 Y88.01 E52.56015
G1 X90.51 Y88.01 E53.69033
G1 X90.51 Y131.99 E55.15311
G1 X124.49 Y131.99 E56.28329
G0 F6000 X124.49 Y132.2
;MESH:NONMESH
G0 F300 X124.49 Y132.2 Z0.4
G0 F6000 X124.1 Y131.6
;TIME_ELAPSED:93.019502
;LAYER:1
M106 S85
;TYPE:WALL-INNER
;MESH:Body1.stl
G1 F1350 X124.1 Y115.6 E56.81545
G1 X129.1 Y115.6 E56.98175
G1 X129.1 Y104.4 E57.35426
G1 X124.1 Y104.4 E57.52056
G1 X124.1 Y88.4 E58.05272
G1 X90.9 Y88.4 E59.15696
G1 X90.9 Y131.6 E60.5938
G1 X124.1 Y131.6 E61.69804
G0 F7500 X123.7 Y131.2
;TYPE:WALL-OUTER
G1 F1350 X123.7 Y115.2 E62.2302
G1 X128.7 Y115.2 E62.3965
G1 X128.7 Y104.8 E62.7424
G1 X123.7 Y104.8 E62.9087
G1 X123.7 Y88.8 E63.44087
G1 X91.3 Y88.8 E64.51849
G1 X91.3 Y131.2 E65.92872
G1 X123.7 Y131.2 E67.00635
G1 F1500 E61.00635
G0 F7500 X124 Y131.2
G0 X124.296 Y131.796
G0 X124.69 Y131.796
G0 X124.9 Y132.4
;TYPE:WALL-INNER
G1 F1500 E67.00635
G1 F1350 X90.1 Y132.4 E68.16381
G1 X90.1 Y87.6 E69.65386
G1 X124.9 Y87.6 E70.81131
G1 X124.9 Y103.6 E71.34347
G1 X129.9 Y103.6 E71.50978
G1 X129.9 Y116.4 E71.9355
G1 X124.9 Y116.4 E72.10181
G1 X124.9 Y132.4 E72.63397
G0 F7500 X125.3 Y132.8
;TYPE:WALL-OUTER
G1 F1350 X89.7 Y132.8 E73.81803
G1 X89.7 Y87.2 E75.33469
G1 X125.3 Y87.2 E76.51875
G1 X125.3 Y103.2 E77.05091
G1 X130.3 Y103.2 E77.21721
G1 X130.3 Y116.8 E77.66955
G1 X125.3 Y116.8 E77.83585
G1 X125.3 Y132.8 E78.36802
G0 F7500 X125.03 Y132.53
G0 X124.79 Y132.01
G0 X124.51 Y132.01
;TYPE:SKIN
G1 F1350 X90.49 Y132.01 E79.49952
G1 X90.49 Y87.99 E80.96364
G1 X124.51 Y87.99 E82.09515
G1 X124.51 Y103.99 E82.62731
G1 X129.51 Y103.99 E82.79361
G1 X129.51 Y116.01 E83.1934
G1 X124.51 Y116.01 E83.3597
G1 X124.51 Y132.01 E83.89186
G0 F7500 X124.49 Y131.99
G1 F1350 X124.49 Y115.99 E84.42402
G1 X129.49 Y115.99 E84.59032
G1 X129.49 Y104.01 E84.98878
G1 X124.49 Y104.01 E85.15508
G1 X124.49 Y88.01 E85.68724
G1 X90.51 Y88.01 E86.81742
G1 X90.51 Y131.99 E88.2802
G1 X124.49 Y131.99 E89.41038
G0 F7500 X124.49 Y132.2
;MESH:NONMESH
G0 F300 X124.49 Y132.2 Z0.6
G0 F7500 X124.1 Y131.6
;TIME_ELAPSED:139.382803
;LAYER:2
M106 S170
;TYPE:WALL-INNER
;MESH:Body1.stl
G1 F1500 X124.1 Y115.6 E89.94254
G1 X129.1 Y115.6 E90.10884
G1 X129.1 Y104.4 E90.48136
G1 X124.1 Y104.4 E90.64766
G1 X124.1 Y88.4 E91.17982
G1 X90.9 Y88.4 E92.28406
G1 X90.9 Y131.6 E93.72089
G1 X124.1 Y131.6 E94.82513
G0 F9000 X123.7 Y131.2
;TYPE:WALL-OUTER
G1 F1500 X123.7 Y115.2 E95.35729
G1 X128.7 Y115.2 E95.52359
G1 X128.7 Y104.8 E95.8695
G1 X123.7 Y104.8 E96.0358
G1 X123.7 Y88.8 E96.56796
G1 X91.3 Y88.8 E97.64559
G1 X91.3 Y131.2 E99.05582
G1 X123.7 Y131.2 E100.13345
G1 F1500 E94.13345
G0 F9000 X124 Y131.2
G0 X124.296 Y131.796
G0 X124.69 Y131.796
G0 X124.9 Y132.4
;TYPE:WALL-INNER
G1 F1500 E100.13345
G1 X90.1 Y132.4 E101.2909
G1 X90.1 Y87.6 E102.78095
G1 X124.9 Y87.6 E103.93841
G1 X124.9 Y103.6 E104.47057
G1 X129.9 Y103.6 E104.63687
G1 X129.9 Y116.4 E105.0626
G1 X124.9 Y116.4 E105.2289
G1 X124.9 Y132.4 E105.76106
G0 F9000 X125.3 Y132.8
;TYPE:WALL-OUTER
G1 F1500 X89.7 Y132.8 E106.94512
G1 X89.7 Y87.2 E108.46179
G1 X125.3 Y87.2 E109.64585
G1 X125.3 Y103.2 E110.17801
G1 X130.3 Y103.2 E110.34431
G1 X130.3 Y116.8 E110.79665
G1 X125.3 Y116.8 E110.96295
G1 X125.3 Y132.8 E111.49511
G0 F9000 X125.03 Y132.53
G0 X124.79 Y132.01
G0 X124.51 Y132.01
;TYPE:SKIN
G1 F1500 X90.49 Y132.01 E112.62662
G1 X90.49 Y87.99 E114.09073
