;FLAVOR:Marlin
;TIME:8265
;Filament used: 5.11349m
;Layer height: 0.2
;MINX:78
;MINY:74
;MINZ:0.2
;MAXX:142
;MAXY:146
;MAXZ:28
;Generated with Cura_SteamEngine 4.8.0
M140 S60
M105
M190 S60
M104 S200
M105
M109 S200
M82 ;absolute extrusion mode
; Ender 3 Custom Start G-code
G92 E0 ; Reset Extruder
G28 ; Home all axes
G1 Z2.0 F3000 ; Move Z Axis up little to prevent scratching of Heat Bed
G1 X0.1 Y20 Z0.3 F5000.0 ; Move to start position
G1 X0.1 Y200.0 Z0.3 F1500.0 E15 ; Draw the first line
G1 X0.4 Y200.0 Z0.3 F5000.0 ; Move to side a little
G1 X0.4 Y20 Z0.3 F1500.0 E30 ; Draw the second line
G92 E0 ; Reset Extruder
G1 Z2.0 F3000 ; Move Z Axis up little to prevent scratching of Heat Bed
G1 X5 Y20 Z0.3 F5000.0 ; Move over to prevent blob squish
G1 X0.4 Y20 Z0.3 F1500.0 E30 ; Draw the second line
G92 E0 ; Reset Extruder
G1 Z2.0 F3000 ; Move Z Axis up little to prevent scratching of Heat Bed
G1 X5 Y20 Z0.3 F5000.0 ; Move over to prevent blob squish
G92 E0
G92 E0
G1 F1500 E-6
;LAYER_COUNT:140
;LAYER:0
M107
G0 F6000 X81.197 Y77.379 Z0.2
;TYPE:SKIRT
G1 F1500 E0
G1 F1200 X81.308 Y77.267 E0.00524
G1 X81.996 Y76.629 E0.03645
G1 X82.736 Y76.053 E0.06764
G1 X83.522 Y75.542 E0.09882
G1 X84.349 Y75.099 E0.13003
G1 X85.211 Y74.729 E0.16123
G1 X86.101 Y74.433 E0.19242
G1 X87.013 Y74.214 E0.22362
G1 X87.94 Y74.074 E0.2548
G1 X88.752 Y74.016 E0.28188
G1 X89.136 Y74.006 E0.29465
G1 X89.679 Y74 E0.31271
G1 X130.137 Y74 E1.65835
G1 X130.996 Y74.011 E1.68693
G1 X131.932 Y74.064 E1.71811
G1 X132.86 Y74.197 E1.74929
G1 X133.774 Y74.409 E1.78049
G1 X134.667 Y74.697 E1.8117
G1 X135.531 Y75.061 E1.84288
G1 X136.362 Y75.497 E1.8741
G1 X137.152 Y76.002 E1.90528
G1 X137.896 Y76.572 E1.93646
G1 X138.589 Y77.204 E1.96765
G1 X139.31 Y77.993 E2.0032
G1 X139.45 Y78.162 E2.0105
G1 X140.017 Y78.909 E2.04169
G1 X140.518 Y79.701 E2.07286
G1 X140.95 Y80.534 E2.10407
G1 X141.31 Y81.4 E2.13526
G1 X141.594 Y82.294 E2.16646
G1 X141.801 Y83.209 E2.19766
G1 X141.884 Y83.737 E2.21544
G1 X141.9 Y83.858 E2.2195
G1 X141.994 Y85.161 E2.26295
G1 X142 Y85.705 E2.28105
G1 X141.999 Y87.872 E2.35312
G1 X142 Y134.264 E3.89612
G1 X141.989 Y135.142 E3.92533
G1 X141.936 Y136.079 E3.95654
G1 X141.804 Y137.007 E3.98772
G1 X141.593 Y137.921 E4.01892
G1 X141.304 Y138.813 E4.05011
G1 X140.941 Y139.678 E4.08131
G1 X140.506 Y140.509 E4.1125
G1 X140.001 Y141.299 E4.14369
G1 X139.431 Y142.044 E4.17489
G1 X138.8 Y142.738 E4.20609
G1 X138.111 Y143.375 E4.23729
G1 X137.371 Y143.951 E4.26848
G1 X136.585 Y144.462 E4.29967
G1 X135.758 Y144.904 E4.33085
G1 X134.896 Y145.274 E4.36205
G1 X134.006 Y145.569 E4.39324
G1 X133.094 Y145.788 E4.42443
G1 X132.167 Y145.928 E4.45562
G1 X131.299 Y145.987 E4.48455
G1 X130.979 Y145.996 E4.4952
G1 X130.67 Y146 E4.50548
G1 X89.565 Y145.999 E5.87264
G1 X88.867 Y145.99 E5.89585
G1 X87.931 Y145.938 E5.92703
G1 X87.002 Y145.806 E5.95824
G1 X86.088 Y145.596 E5.98943
G1 X85.195 Y145.309 E6.02063
G1 X84.33 Y144.946 E6.05183
G1 X83.499 Y144.512 E6.08301
G1 X82.708 Y144.008 E6.11421
G1 X81.963 Y143.438 E6.14541
G1 X81.269 Y142.807 E6.17661
G1 X80.632 Y142.12 E6.20777
G1 X80.055 Y141.38 E6.23898
G1 X79.543 Y140.594 E6.27018
G1 X79.1 Y139.767 E6.30138
G1 X78.729 Y138.906 E6.33256
G1 X78.433 Y138.016 E6.36376
G1 X78.214 Y137.104 E6.39495
G1 X78.073 Y136.177 E6.42614
G1 X78.013 Y135.288 E6.45578
G1 X78.004 Y134.955 E6.46686
G1 X78 Y134.658 E6.47674
G1 X78.001 Y85.643 E8.10698
G1 X78.011 Y84.961 E8.12967
G1 X78.065 Y84.024 E8.16088
G1 X78.198 Y83.096 E8.19206
G1 X78.41 Y82.182 E8.22327
G1 X78.699 Y81.29 E8.25446
G1 X79.063 Y80.426 E8.28564
G1 X79.499 Y79.596 E8.31682
G1 X80.004 Y78.805 E8.34804
G1 X80.575 Y78.061 E8.37923
G1 X81.197 Y77.379 E8.40993
G0 F6000 X81.481 Y77.66
G1 F1200 X81.592 Y77.548 E8.41517
G1 X82.268 Y76.923 E8.4458
G1 X82.996 Y76.359 E8.47643
G1 X83.769 Y75.86 E8.50703
G1 X84.583 Y75.43 E8.53765
G1 X85.432 Y75.073 E8.56828
G1 X86.308 Y74.79 E8.5989
G1 X87.205 Y74.585 E8.6295
G1 X88.117 Y74.458 E8.66013
G1 X88.765 Y74.416 E8.68172
G1 X89.14 Y74.406 E8.6942
G1 X89.679 Y74.4 E8.71213
G1 X130.137 Y74.4 E10.05777
G1 X130.99 Y74.411 E10.08614
G1 X131.909 Y74.464 E10.11676
G1 X132.82 Y74.597 E10.14738
G1 X133.716 Y74.808 E10.178
G1 X134.591 Y75.096 E10.20863
G1 X135.437 Y75.459 E10.23925
G1 X136.248 Y75.894 E10.26986
G1 X137.019 Y76.398 E10.3005
G1 X137.743 Y76.966 E10.33111
G1 X138.415 Y77.596 E10.36174
G1 X139.002 Y78.248 E10.39092
G1 X139.142 Y78.417 E10.39822
G1 X139.698 Y79.151 E10.42885
G1 X140.188 Y79.93 E10.45946
G1 X140.609 Y80.749 E10.49009
G1 X140.957 Y81.601 E10.5207
G1 X141.23 Y82.48 E10.55131
G1 X141.488 Y83.789 E10.59568
G1 X141.504 Y83.91 E10.59974
G1 X141.594 Y85.166 E10.64163
G1 X141.6 Y85.705 E10.65955
G1 X141.599 Y87.877 E10.73179
G1 X141.6 Y134.264 E12.27463
G1 X141.589 Y135.137 E12.30367
G1 X141.536 Y136.056 E12.33429
G1 X141.404 Y136.967 E12.3649
G1 X141.193 Y137.863 E12.39552
G1 X140.906 Y138.738 E12.42615
G1 X140.543 Y139.584 E12.45677
G1 X140.109 Y140.396 E12.48739
G1 X139.605 Y141.167 E12.51803
G1 X139.037 Y141.891 E12.54863
G1 X138.408 Y142.563 E12.57925
G1 X137.723 Y143.178 E12.60987
G1 X136.987 Y143.731 E12.64049
G1 X136.206 Y144.219 E12.67112
G1 X135.386 Y144.637 E12.70173
G1 X134.532 Y144.982 E12.73236
G1 X133.652 Y145.251 E12.76297
G1 X132.751 Y145.444 E12.79362
G1 X131.838 Y145.557 E12.82421
G1 X131.288 Y145.587 E12.84253
G1 X130.968 Y145.596 E12.85318
G1 X130.67 Y145.6 E12.86309
G1 X89.57 Y145.599 E14.23008
G1 X88.872 Y145.59 E14.2533
G1 X87.953 Y145.538 E14.28392
G1 X87.042 Y145.407 E14.31453
G1 X86.146 Y145.197 E14.34514
G1 X85.271 Y144.91 E14.37577
G1 X84.424 Y144.548 E14.4064
G1 X83.612 Y144.114 E14.43702
G1 X82.841 Y143.612 E14.46763
G1 X82.116 Y143.044 E14.49826
G1 X81.443 Y142.415 E14.5289
G1 X80.828 Y141.731 E14.55949
G1 X80.274 Y140.996 E14.5901
G1 X79.786 Y140.215 E14.62073
G1 X79.367 Y139.395 E14.65136
G1 X79.021 Y138.542 E14.68198
G1 X78.751 Y137.662 E14.71259
G1 X78.558 Y136.761 E14.74324
G1 X78.444 Y135.848 E14.77384
G1 X78.413 Y135.277 E14.79286
G1 X78.404 Y134.944 E14.80394
G1 X78.4 Y134.658 E14.81345
G1 X78.401 Y85.649 E16.4435
G1 X78.411 Y84.967 E16.46619
G1 X78.465 Y84.047 E16.49684
G1 X78.598 Y83.137 E16.52743
G1 X78.809 Y82.24 E16.55807
G1 X79.098 Y81.366 E16.58869
G1 X79.461 Y80.52 E16.61931
G1 X79.896 Y79.709 E16.64992
G1 X80.4 Y78.939 E16.68053
G1 X80.969 Y78.215 E16.71116
G1 X81.481 Y77.66 E16.73627
G0 F6000 X81.765 Y77.942
G1 F1200 X81.876 Y77.83 E16.74152
G1 X82.54 Y77.217 E16.77157
G1 X83.255 Y76.666 E16.8016
G1 X84.016 Y76.179 E16.83165
G1 X84.817 Y75.763 E16.86167
G1 X85.652 Y75.418 E16.89171
G1 X86.514 Y75.149 E16.92175
G1 X87.396 Y74.957 E16.95177
G1 X88.292 Y74.844 E16.98181
G1 X88.779 Y74.816 E16.99803
G1 X89.145 Y74.806 E17.01021
G1 X89.679 Y74.8 E17.02797
G1 X130.137 Y74.8 E18.37361
G1 X130.984 Y74.811 E18.40178
G1 X131.886 Y74.864 E18.43184
G1 X132.779 Y74.996 E18.46186
G1 X133.657 Y75.207 E18.4919
G1 X134.513 Y75.495 E18.52193
G1 X135.341 Y75.857 E18.55199
G1 X136.133 Y76.291 E18.58203
G1 X136.883 Y76.794 E18.61206
G1 X137.586 Y77.36 E18.64208
G1 X138.236 Y77.987 E18.67212
G1 X138.694 Y78.503 E18.69507
G1 X138.834 Y78.672 E18.70237
G1 X139.379 Y79.392 E18.7324
G1 X139.858 Y80.158 E18.76245
G1 X140.267 Y80.963 E18.79248
G1 X140.603 Y81.801 E18.82251
G1 X140.864 Y82.666 E18.85256
G1 X141.091 Y83.842 E18.8924
G1 X141.107 Y83.963 E18.89646
G1 X141.194 Y85.171 E18.93674
G1 X141.2 Y85.705 E18.9545
G1 X141.199 Y87.881 E19.02688
G1 X141.2 Y134.264 E20.56958
G1 X141.189 Y135.131 E20.59842
G1 X141.137 Y136.033 E20.62847
G1 X141.005 Y136.926 E20.65849
G1 X140.794 Y137.805 E20.68856
G1 X140.507 Y138.661 E20.71859
G1 X140.145 Y139.488 E20.74861
G1 X139.711 Y140.28 E20.77865
G1 X139.209 Y141.031 E20.8087
G1 X138.643 Y141.734 E20.83871
G1 X138.016 Y142.385 E20.86878
G1 X137.335 Y142.977 E20.89879
G1 X136.604 Y143.507 E20.92882
G1 X135.828 Y143.97 E20.95887
G1 X135.015 Y144.363 E20.98891
G1 X134.17 Y144.683 E21.01896
G1 X133.301 Y144.926 E21.04897
G1 X132.413 Y145.091 E21.07901
G1 X131.277 Y145.187 E21.11693
G1 X130.957 Y145.196 E21.12758
G1 X130.67 Y145.2 E21.13713
G1 X89.575 Y145.199 E22.50395
G1 X88.877 Y145.19 E22.52717
G1 X87.976 Y145.139 E22.55718
G1 X87.082 Y145.007 E22.58724
G1 X86.204 Y144.798 E22.61726
G1 X85.347 Y144.511 E22.64732
G1 X84.52 Y144.15 E22.67733
G1 X83.727 Y143.717 E22.70738
G1 X82.976 Y143.216 E22.73741
G1 X82.272 Y142.65 E22.76745
G1 X81.621 Y142.024 E22.79749
G1 X81.028 Y141.343 E22.82753
G1 X80.498 Y140.612 E22.85756
G1 X80.034 Y139.837 E22.8876
G1 X79.64 Y139.024 E22.91765
G1 X79.32 Y138.18 E22.94767
G1 X79.076 Y137.31 E22.97772
G1 X78.91 Y136.422 E23.00777
G1 X78.813 Y135.267 E23.04632
G1 X78.804 Y134.934 E23.0574
G1 X78.8 Y134.658 E23.06658
G1 X78.801 Y85.654 E24.69646
G1 X78.811 Y84.972 E24.71915
G1 X78.864 Y84.071 E24.74917
G1 X78.997 Y83.178 E24.7792
G1 X79.208 Y82.3 E24.80923
G1 X79.496 Y81.444 E24.83927
G1 X79.859 Y80.617 E24.86931
G1 X80.293 Y79.825 E24.89934
G1 X80.796 Y79.075 E24.92938
G1 X81.363 Y78.372 E24.95942
G1 X81.765 Y77.942 E24.979
G1 F1500 E18.979
G0 F6000 X127.084 Y84.343
G0 X127.382 Y85.325
G0 X127.856 Y87.628
G1 F1500 E24.979
G1 F1200 X128.626 Y87.11 E25.00986
G1 X128.916 Y86.867 E25.02245
G1 X128.968 Y86.8 E25.02527
G1 X129.199 Y86.8 E25.03295
G1 X129.199 Y87.031 E25.04064
G1 X129.149 Y87.069 E25.04272
G1 X128.892 Y87.371 E25.05591
G1 X128.375 Y88.139 E25.08671
G1 X128.278 Y88.026 E25.09166
G1 X127.997 Y87.743 E25.10492
G1 X127.856 Y87.628 E25.11098
G0 F6000 X127.713 Y88.025
G1 F1200 X127.451 Y87.817 E25.1221
G1 X127.258 Y87.729 E25.12916
G1 X127.408 Y87.474 E25.139
G1 X127.507 Y87.381 E25.14351
G1 X128.403 Y86.778 E25.17944
G1 X128.656 Y86.56 E25.19054
G1 X128.77 Y86.4 E25.19708
G1 X129.599 Y86.4 E25.22465
G1 X129.599 Y87.228 E25.25219
G1 X129.528 Y87.27 E25.25493
G1 X129.224 Y87.595 E25.26973
G1 X128.619 Y88.492 E25.30572
G1 X128.418 Y88.673 E25.31472
G1 X128.278 Y88.741 E25.31989
G1 X128.244 Y88.65 E25.32312
G1 X127.994 Y88.308 E25.33721
G1 X127.713 Y88.025 E25.35048
G0 F6000 X127.43 Y88.306
G1 F1200 X127.205 Y88.136 E25.35986
G1 X126.941 Y88.036 E25.36925
G1 X126.812 Y88.021 E25.37357
G1 X126.835 Y87.738 E25.38301
G1 X126.991 Y87.364 E25.39649
G1 X127.253 Y87.07 E25.40959
G1 X128.179 Y86.447 E25.44671
G1 X128.389 Y86.258 E25.4561
G1 X128.537 Y86.018 E25.46548
G1 X128.542 Y86 E25.4661
G1 X130 Y86 E25.5146
G1 X129.999 Y87.465 E25.56332
G1 X129.861 Y87.525 E25.56833
G1 X129.644 Y87.706 E25.57773
G1 X129.556 Y87.818 E25.58246
G1 X128.931 Y88.745 E25.61965
G1 X128.636 Y89.011 E25.63286
G1 X128.268 Y89.165 E25.64613
G1 X127.986 Y89.188 E25.65554
G1 X127.961 Y89.015 E25.66135
G1 X127.845 Y88.758 E25.67073
G1 X127.711 Y88.589 E25.67791
G1 X127.43 Y88.306 E25.69117
G0 F6000 X127.146 Y88.588
G1 F1200 X126.966 Y88.464 E25.69844
G1 X126.726 Y88.411 E25.70661
G1 X126.461 Y88.408 E25.71543
G1 X126.417 Y88.185 E25.72299
G1 X126.408 Y87.901 E25.73244
G1 X126.442 Y87.653 E25.74077
G1 X126.525 Y87.393 E25.74984
G1 X126.654 Y87.146 E25.75911
G1 X126.805 Y86.943 E25.76753
G1 X127.004 Y86.756 E25.77661
G1 X127.956 Y86.115 E25.81478
G1 X128.112 Y85.962 E25.82205
G1 X128.203 Y85.764 E25.8293
G1 X128.199 Y85.6 E25.83475
G1 X130.4 Y85.6 E25.90796
G1 X130.398 Y87.784 E25.9806
G1 X130.133 Y87.833 E25.98956
G1 X129.887 Y88.042 E26.0003
G1 X129.244 Y88.996 E26.03856
G1 X129.06 Y89.192 E26.0475
G1 X128.85 Y89.35 E26.05624
G1 X128.606 Y89.477 E26.06539
G1 X128.358 Y89.556 E26.07405
G1 X128.102 Y89.592 E26.08265
G1 X127.82 Y89.583 E26.09203
G1 X127.601 Y89.54 E26.09946
G1 X127.561 Y89.079 E26.11485
G1 X127.427 Y88.871 E26.12308
G1 X127.146 Y88.588 E26.13634
G0 F6000 X126.862 Y88.87
G1 F1200 X126.722 Y88.811 E26.14139
G1 X126.178 Y88.805 E26.15949
G1 X126.08 Y88.549 E26.16861
G1 X126.018 Y88.231 E26.17938
G1 X126.007 Y87.881 E26.19103
G1 X126.051 Y87.564 E26.20167
G1 X126.155 Y87.238 E26.21305
G1 X126.312 Y86.935 E26.2244
G1 X126.507 Y86.675 E26.23521
G1 X126.755 Y86.441 E26.24655
G1 X127.733 Y85.783 E26.28576
G1 X127.809 Y85.684 E26.28991
G1 X127.812 Y85.559 E26.29407
G1 X127.703 Y85.2 E26.30655
G1 X130.762 Y85.2 E26.40829
G1 X130.8 Y85.238 E26.41008
G1 X130.798 Y88.295 E26.51175
G1 X130.444 Y88.186 E26.52407
G1 X130.319 Y88.188 E26.52823
G1 X130.219 Y88.265 E26.53243
G1 X129.559 Y89.245 E26.57173
G1 X129.327 Y89.491 E26.58297
G1 X129.062 Y89.691 E26.59402
G1 X128.761 Y89.847 E26.60529
G1 X128.449 Y89.947 E26.61619
G1 X128.122 Y89.993 E26.62717
G1 X127.773 Y89.982 E26.63879
G1 X127.447 Y89.918 E26.64984
G1 X127.201 Y89.825 E26.65858
G1 X127.201 Y89.294 E26.67624
G1 X127.143 Y89.153 E26.68132
G1 X126.862 Y88.87 E26.69458
G1 F1500 E20.69458
G0 F6000 X127.453 Y85.557
G0 X127.084 Y84.343
G0 X92.918 Y84.343
G0 X92.545 Y85.556
G0 X93.993 Y87.878
G1 F1500 E26.69458
G1 F1200 X93.982 Y88.227 E26.70619
G1 X93.918 Y88.553 E26.71724
G1 X93.825 Y88.799 E26.72599
G1 X93.302 Y88.799 E26.74339
G1 X93.162 Y88.856 E26.74841
G1 X92.877 Y89.136 E26.7617
G1 X92.817 Y89.275 E26.76674
G1 X92.807 Y89.821 E26.7849
G1 X92.549 Y89.92 E26.79409
G1 X92.231 Y89.982 E26.80487
G1 X91.881 Y89.993 E26.81651
G1 X91.564 Y89.949 E26.82716
G1 X91.238 Y89.845 E26.83854
G1 X90.935 Y89.688 E26.84989
G1 X90.67 Y89.489 E26.86091
G1 X90.444 Y89.25 E26.87185
G1 X89.783 Y88.269 E26.9112
G1 X89.684 Y88.193 E26.91535
G1 X89.559 Y88.19 E26.91951
G1 X89.2 Y88.299 E26.93198
G1 X89.2 Y85.2 E27.03506
G1 X92.295 Y85.2 E27.138
G1 X92.186 Y85.556 E27.15038
G1 X92.188 Y85.681 E27.15454
G1 X92.265 Y85.781 E27.15874
G1 X93.245 Y86.441 E27.19803
G1 X93.491 Y86.673 E27.20928
G1 X93.691 Y86.938 E27.22032
G1 X93.847 Y87.239 E27.2316
G1 X93.947 Y87.551 E27.2425
G1 X93.993 Y87.878 E27.25348
G0 F6000 X93.592 Y87.898
G1 F1200 X93.583 Y88.18 E27.26286
G1 X93.54 Y88.399 E27.27029
G1 X93.087 Y88.439 E27.28541
G1 X92.882 Y88.571 E27.29352
G1 X92.597 Y88.851 E27.30681
G1 X92.471 Y89.03 E27.31409
G1 X92.417 Y89.268 E27.32221
G1 X92.412 Y89.539 E27.33122
G1 X92.185 Y89.583 E27.33891
G1 X91.901 Y89.592 E27.34836
G1 X91.653 Y89.558 E27.35669
G1 X91.393 Y89.475 E27.36577
G1 X91.149 Y89.348 E27.37492
G1 X90.939 Y89.191 E27.38364
G1 X90.756 Y88.997 E27.39251
G1 X90.115 Y88.046 E27.43065
G1 X89.962 Y87.89 E27.43792
G1 X89.763 Y87.799 E27.4452
G1 X89.6 Y87.803 E27.45062
G1 X89.6 Y85.6 E27.52389
G1 X91.784 Y85.6 E27.59653
G1 X91.832 Y85.867 E27.60556
G1 X92.042 Y86.113 E27.61631
G1 X92.996 Y86.756 E27.65458
G1 X93.192 Y86.94 E27.66352
G1 X93.35 Y87.15 E27.67226
G1 X93.477 Y87.394 E27.68141
G1 X93.556 Y87.642 E27.69007
G1 X93.592 Y87.898 E27.69867
G0 F6000 X93.188 Y88.015
G1 F1200 X93.023 Y88.039 E27.70421
G1 X92.766 Y88.155 E27.71359
G1 X92.601 Y88.286 E27.7206
G1 X92.316 Y88.566 E27.73388
G1 X92.145 Y88.79 E27.74326
G1 X92.043 Y89.053 E27.75264
G1 X92.026 Y89.188 E27.75717
G1 X91.738 Y89.165 E27.76678
G1 X91.363 Y89.009 E27.78028
G1 X91.067 Y88.743 E27.79352
G1 X90.446 Y87.822 E27.83047
G1 X90.257 Y87.613 E27.83984
G1 X90.017 Y87.464 E27.84923
G1 X90 Y87.459 E27.84982
G1 X90 Y86 E27.89835
G1 X91.465 Y86 E27.94708
G1 X91.525 Y86.139 E27.95211
G1 X91.705 Y86.356 E27.96149
G1 X91.818 Y86.444 E27.96625
G1 X92.745 Y87.069 E28.00344
G1 X93.011 Y87.364 E28.01665
G1 X93.165 Y87.732 E28.02992
G1 X93.188 Y88.015 E28.03936
G0 F6000 X92.742 Y87.724
G1 F1200 X92.658 Y87.756 E28.04235
G1 X92.321 Y88 E28.05619
G1 X92.036 Y88.28 E28.06948
G1 X91.827 Y88.541 E28.0806
G1 X91.733 Y88.743 E28.08801
G1 X91.477 Y88.595 E28.09784
G1 X91.383 Y88.496 E28.10238
G1 X90.778 Y87.598 E28.1384
G1 X90.559 Y87.346 E28.1495
G1 X90.4 Y87.233 E28.15599
G1 X90.4 Y86.4 E28.1837
G1 X91.227 Y86.4 E28.2112
G1 X91.27 Y86.472 E28.21399
