;FLAVOR:Marlin
;TIME:4118
;Filament used: 1.97532m
;Layer height: 0.2
;MINX:90.987
;MINY:85.013
;MINZ:0.2
;MAXX:160.777
;MAXY:134.988
;MAXZ:14
;Generated with Cura_SteamEngine 4.8.0
M140 S60
M105
M190 S60
M104 S200
M105
M109 S200
M82 ;absolute extrusion mode
; Ender 3 Custom Start G-code
G92 E0 ; Reset Extruder
G28 ; Home all axes
G1 Z2.0 F3000 ; Move Z Axis up little to prevent scratching of Heat Bed
G1 X0.1 Y20 Z0.3 F5000.0 ; Move to start position
G1 X0.1 Y200.0 Z0.3 F1500.0 E15 ; Draw the first line
G1 X0.4 Y200.0 Z0.3 F5000.0 ; Move to side a little
G1 X0.4 Y20 Z0.3 F1500.0 E30 ; Draw the second line
G92 E0 ; Reset Extruder
G1 Z2.0 F3000 ; Move Z Axis up little to prevent scratching of Heat Bed
G1 X5 Y20 Z0.3 F5000.0 ; Move over to prevent blob squish
G1 X0.4 Y20 Z0.3 F1500.0 E30 ; Draw the second line
G92 E0 ; Reset Extruder
G1 Z2.0 F3000 ; Move Z Axis up little to prevent scratching of Heat Bed
G1 X5 Y20 Z0.3 F5000.0 ; Move over to prevent blob squish
G92 E0
G92 E0
G1 F1500 E-6
;LAYER_COUNT:70
;LAYER:0
M107
G0 F6000 X96.526 Y96.353 Z0.2
;TYPE:SKIRT
G1 F1500 E0
G1 F1200 X96.649 Y96.233 E0.00572
G1 X96.98 Y95.924 E0.02078
G1 X97.334 Y95.606 E0.0366
G1 X97.643 Y95.339 E0.05019
G1 X97.913 Y95.114 E0.06188
G1 X98.658 Y94.544 E0.09307
G1 X99.45 Y94.041 E0.12428
G1 X100.311 Y93.592 E0.15658
G1 X100.873 Y93.332 E0.17717
G1 X102.471 Y92.617 E0.2354
G1 X102.959 Y92.386 E0.25336
G1 X103.67 Y92.06 E0.27937
G1 X104.539 Y91.706 E0.31058
G1 X105.434 Y91.427 E0.34176
G1 X106.092 Y91.274 E0.36423
G1 X106.476 Y91.197 E0.37726
G1 X107.285 Y91.066 E0.40452
G1 X108.506 Y90.915 E0.44544
G1 X111.096 Y90.556 E0.5324
G1 X113.598 Y90.137 E0.61678
G1 X116.055 Y89.654 E0.70006
G1 X118.466 Y89.108 E0.78228
G1 X120.935 Y88.477 E0.86704
G1 X123.399 Y87.771 E0.95229
G1 X125.748 Y87.026 E1.03426
G1 X127.18 Y86.53 E1.08466
G1 X128.338 Y86.15 E1.1252
G1 X128.747 Y86.024 E1.13943
G1 X129.138 Y85.914 E1.15294
G1 X129.826 Y85.735 E1.17659
G1 X130.161 Y85.654 E1.18805
G1 X130.302 Y85.622 E1.19286
G1 X130.637 Y85.551 E1.20425
G1 X131.429 Y85.397 E1.23108
G1 X131.805 Y85.331 E1.24378
G1 X132.25 Y85.265 E1.25874
G1 X132.91 Y85.18 E1.28088
G1 X133.252 Y85.141 E1.29232
G1 X133.458 Y85.121 E1.29921
G1 X133.776 Y85.095 E1.30982
G1 X134.439 Y85.05 E1.33192
G1 X134.803 Y85.032 E1.34404
G1 X135.034 Y85.024 E1.35173
G1 X135.344 Y85.017 E1.36205
G1 X135.964 Y85.013 E1.38267
G1 X136.336 Y85.017 E1.39504
G1 X136.482 Y85.021 E1.3999
G1 X136.794 Y85.034 E1.41028
G1 X137.582 Y85.078 E1.43653
G1 X137.97 Y85.107 E1.44947
G1 X138.156 Y85.124 E1.45569
G1 X138.464 Y85.156 E1.46599
G1 X139.048 Y85.226 E1.48555
G1 X139.368 Y85.269 E1.49629
G1 X139.555 Y85.297 E1.50258
G1 X139.913 Y85.357 E1.51465
G1 X140.67 Y85.496 E1.54025
G1 X141.028 Y85.568 E1.55239
G1 X141.248 Y85.616 E1.55988
G1 X141.548 Y85.686 E1.57013
G1 X142.101 Y85.823 E1.58908
G1 X142.433 Y85.91 E1.60049
G1 X142.65 Y85.971 E1.60799
G1 X142.98 Y86.07 E1.61945
G1 X143.605 Y86.267 E1.64125
G1 X143.914 Y86.369 E1.65207
G1 X144.095 Y86.432 E1.65844
G1 X144.402 Y86.544 E1.66931
G1 X145.028 Y86.783 E1.6916
G1 X145.389 Y86.929 E1.70455
G1 X145.564 Y87.003 E1.71087
G1 X145.871 Y87.138 E1.72203
G1 X146.498 Y87.426 E1.74497
G1 X146.747 Y87.544 E1.75414
G1 X146.947 Y87.642 E1.76155
G1 X147.3 Y87.823 E1.77474
G1 X147.862 Y88.124 E1.79594
G1 X148.146 Y88.281 E1.80674
G1 X148.308 Y88.374 E1.81295
G1 X148.613 Y88.556 E1.82476
G1 X149.207 Y88.923 E1.84799
G1 X149.57 Y89.156 E1.86233
G1 X149.901 Y89.381 E1.87565
G1 X150.508 Y89.81 E1.90037
G1 X150.812 Y90.033 E1.91291
G1 X150.97 Y90.153 E1.91951
G1 X151.215 Y90.344 E1.92984
G1 X151.697 Y90.732 E1.95042
G1 X151.972 Y90.961 E1.96232
G1 X152.165 Y91.127 E1.97079
G1 X152.406 Y91.341 E1.98151
G1 X152.885 Y91.778 E2.00307
G1 X153.115 Y91.994 E2.01357
G1 X153.234 Y92.109 E2.01907
G1 X153.503 Y92.378 E2.03173
G1 X154.009 Y92.902 E2.05595
G1 X154.229 Y93.137 E2.06666
G1 X154.341 Y93.26 E2.07219
G1 X154.591 Y93.544 E2.08478
G1 X155.037 Y94.069 E2.10769
G1 X155.283 Y94.367 E2.12054
G1 X155.546 Y94.704 E2.13476
G1 X155.968 Y95.266 E2.15813
G1 X156.206 Y95.595 E2.17164
G1 X156.338 Y95.785 E2.17933
G1 X156.504 Y96.031 E2.18921
G1 X156.875 Y96.597 E2.21171
G1 X157.028 Y96.837 E2.22118
G1 X157.132 Y97.005 E2.22775
G1 X157.343 Y97.36 E2.24149
G1 X157.651 Y97.902 E2.26222
G1 X157.899 Y98.359 E2.27952
G1 X158.073 Y98.698 E2.29219
G1 X158.36 Y99.282 E2.31383
G1 X158.509 Y99.598 E2.32545
G1 X158.595 Y99.788 E2.33239
G1 X158.738 Y100.117 E2.34432
G1 X158.993 Y100.733 E2.3665
G1 X159.106 Y101.017 E2.37666
G1 X159.177 Y101.203 E2.38328
G1 X159.299 Y101.54 E2.3952
G1 X159.518 Y102.175 E2.41754
G1 X159.628 Y102.511 E2.4293
G1 X159.688 Y102.705 E2.43606
G1 X159.779 Y103.017 E2.44687
G1 X159.95 Y103.634 E2.46816
G1 X160.033 Y103.949 E2.479
G1 X160.074 Y104.116 E2.48472
G1 X160.156 Y104.479 E2.49709
G1 X160.313 Y105.227 E2.52251
G1 X160.398 Y105.672 E2.53758
G1 X160.461 Y106.053 E2.55043
G1 X160.557 Y106.709 E2.57248
G1 X160.606 Y107.087 E2.58516
G1 X160.633 Y107.33 E2.59329
G1 X160.662 Y107.633 E2.60341
G1 X160.715 Y108.27 E2.62467
G1 X160.739 Y108.624 E2.63647
G1 X160.752 Y108.88 E2.645
G1 X160.763 Y109.188 E2.65525
G1 X160.775 Y109.716 E2.67281
G1 X160.777 Y110.091 E2.68529
G1 X160.774 Y110.354 E2.69404
G1 X160.767 Y110.658 E2.70415
G1 X160.742 Y111.299 E2.72549
G1 X160.725 Y111.618 E2.73611
G1 X160.71 Y111.838 E2.74344
G1 X160.679 Y112.198 E2.75546
G1 X160.614 Y112.84 E2.77692
G1 X160.571 Y113.201 E2.78902
G1 X160.505 Y113.662 E2.80451
G1 X160.372 Y114.469 E2.83171
G1 X160.301 Y114.852 E2.84466
G1 X160.209 Y115.291 E2.85958
G1 X160.057 Y115.95 E2.88208
G1 X159.968 Y116.307 E2.89431
G1 X159.902 Y116.555 E2.90285
G1 X159.817 Y116.856 E2.91325
G1 X159.66 Y117.385 E2.93161
G1 X159.567 Y117.684 E2.94202
G1 X159.505 Y117.873 E2.94864
G1 X159.382 Y118.228 E2.96113
G1 X159.116 Y118.954 E2.98685
G1 X158.947 Y119.387 E3.00231
G1 X158.805 Y119.724 E3.01447
G1 X158.522 Y120.366 E3.03781
G1 X158.385 Y120.665 E3.04875
G1 X158.271 Y120.904 E3.05755
G1 X158.132 Y121.185 E3.06798
G1 X157.886 Y121.665 E3.08592
G1 X157.7 Y122.013 E3.09904
G1 X157.6 Y122.192 E3.10586
G1 X157.443 Y122.463 E3.11628
G1 X157.051 Y123.12 E3.14173
G1 X156.894 Y123.376 E3.15171
G1 X156.783 Y123.551 E3.15861
G1 X156.566 Y123.879 E3.17169
G1 X156.217 Y124.388 E3.19221
G1 X156.015 Y124.673 E3.20383
G1 X155.894 Y124.838 E3.21064
G1 X155.692 Y125.106 E3.2218
G1 X155.256 Y125.664 E3.24535
G1 X154.959 Y126.029 E3.261
G1 X154.706 Y126.324 E3.27393
G1 X154.226 Y126.863 E3.29794
G1 X153.925 Y127.189 E3.31269
G1 X153.648 Y127.474 E3.32591
G1 X153.159 Y127.96 E3.34884
G1 X152.937 Y128.175 E3.35912
G1 X152.788 Y128.315 E3.36592
G1 X152.512 Y128.565 E3.37831
G1 X152.046 Y128.974 E3.39893
G1 X151.799 Y129.185 E3.40973
G1 X151.672 Y129.29 E3.41522
G1 X151.393 Y129.513 E3.42709
G1 X150.766 Y129.998 E3.45346
G1 X150.502 Y130.196 E3.46444
G1 X150.352 Y130.305 E3.4706
G1 X150.048 Y130.518 E3.48295
G1 X149.526 Y130.871 E3.50391
G1 X149.141 Y131.121 E3.51918
G1 X148.811 Y131.324 E3.53206
G1 X148.165 Y131.705 E3.55701
G1 X147.889 Y131.862 E3.56757
G1 X147.724 Y131.953 E3.57383
G1 X147.396 Y132.127 E3.58618
G1 X146.853 Y132.403 E3.60644
G1 X146.596 Y132.529 E3.61596
G1 X146.388 Y132.628 E3.62363
G1 X146.028 Y132.792 E3.63678
G1 X145.413 Y133.058 E3.65907
G1 X145.141 Y133.171 E3.66887
G1 X144.964 Y133.242 E3.67521
G1 X144.604 Y133.379 E3.68802
G1 X143.942 Y133.618 E3.71143
G1 X143.633 Y133.725 E3.72231
G1 X143.453 Y133.784 E3.72861
G1 X143.122 Y133.887 E3.74014
G1 X142.508 Y134.067 E3.76142
G1 X142.182 Y134.157 E3.77266
G1 X141.959 Y134.215 E3.78033
G1 X141.612 Y134.299 E3.7922
G1 X141.014 Y134.434 E3.81259
G1 X140.719 Y134.496 E3.82262
G1 X140.511 Y134.537 E3.82967
G1 X140.154 Y134.602 E3.84174
G1 X139.461 Y134.715 E3.86509
G1 X139.114 Y134.766 E3.87676
G1 X138.953 Y134.787 E3.88216
G1 X138.62 Y134.825 E3.89331
G1 X137.937 Y134.893 E3.91614
G1 X137.644 Y134.918 E3.92592
G1 X137.41 Y134.935 E3.93372
G1 X137.022 Y134.956 E3.94664
G1 X136.404 Y134.979 E3.96721
G1 X136.11 Y134.986 E3.97699
G1 X135.919 Y134.988 E3.98335
G1 X135.538 Y134.986 E3.99602
G1 X134.836 Y134.969 E4.01937
G1 X134.486 Y134.955 E4.03102
G1 X134.29 Y134.944 E4.03755
G1 X133.95 Y134.919 E4.04889
G1 X133.285 Y134.861 E4.07109
G1 X132.925 Y134.824 E4.08313
G1 X132.759 Y134.804 E4.08869
G1 X132.446 Y134.762 E4.0992
G1 X131.745 Y134.657 E4.12277
G1 X131.418 Y134.603 E4.1338
G1 X131.252 Y134.573 E4.13941
G1 X130.91 Y134.505 E4.151
G1 X130.189 Y134.351 E4.17552
G1 X129.792 Y134.259 E4.18908
G1 X129.606 Y134.212 E4.19546
G1 X129.314 Y134.134 E4.20551
G1 X128.715 Y133.965 E4.22621
G1 X128.418 Y133.876 E4.23653
G1 X128.223 Y133.815 E4.24332
G1 X127.874 Y133.7 E4.25554
G1 X127.129 Y133.439 E4.2818
G1 X124.661 Y132.615 E4.36834
G1 X122.255 Y131.887 E4.45195
G1 X119.805 Y131.22 E4.5364
G1 X117.4 Y130.638 E4.6187
G1 X114.886 Y130.104 E4.70418
G1 X112.482 Y129.667 E4.78545
G1 X108.682 Y129.108 E4.9132
G1 X107.514 Y128.961 E4.95235
G1 X107.112 Y128.902 E4.96586
G1 X106.471 Y128.797 E4.98747
G1 X105.553 Y128.606 E5.01865
G1 X104.654 Y128.338 E5.04986
G1 X103.728 Y127.97 E5.083
G1 X103.139 Y127.703 E5.10451
G1 X101.732 Y127.044 E5.15618
G1 X101.363 Y126.883 E5.16957
G1 X100.445 Y126.468 E5.20308
G1 X99.607 Y126.046 E5.23429
G1 X98.809 Y125.554 E5.26547
G1 X98.203 Y125.112 E5.29041
G1 X98.084 Y125.019 E5.29544
G1 X97.826 Y124.811 E5.30646
G1 X97.595 Y124.619 E5.31645
G1 X97.253 Y124.323 E5.33149
G1 X96.85 Y123.959 E5.34956
G1 X96.181 Y123.301 E5.38077
G1 X95.571 Y122.589 E5.41195
G1 X95.008 Y121.802 E5.44413
G1 X94.642 Y121.24 E5.46644
G1 X93.763 Y119.847 E5.52123
G1 X93.502 Y119.455 E5.53689
G1 X93.02 Y118.707 E5.56649
G1 X92.546 Y117.898 E5.59767
G1 X92.143 Y117.051 E5.62887
G1 X91.772 Y116.044 E5.66456
G1 X91.576 Y115.419 E5.68635
G1 X91.447 Y114.974 E5.70176
G1 X91.365 Y114.668 E5.7123
G1 X91.161 Y113.753 E5.74348
G1 X91.036 Y112.823 E5.77469
G1 X90.99 Y111.9 E5.80542
G1 X90.987 Y111.33 E5.82438
G1 X91 Y109.414 E5.88811
G1 X90.993 Y108.948 E5.90361
G1 X90.992 Y108.216 E5.92796
G1 X91.031 Y107.279 E5.95915
G1 X91.149 Y106.349 E5.99033
G1 X91.284 Y105.685 E6.01286
G1 X91.327 Y105.502 E6.01912
G1 X91.426 Y105.111 E6.03253
G1 X91.503 Y104.83 E6.04222
G1 X91.618 Y104.439 E6.05578
G1 X91.772 Y103.949 E6.07286
G1 X92.091 Y103.067 E6.10406
G1 X92.484 Y102.215 E6.13526
G1 X92.978 Y101.353 E6.16831
G1 X93.379 Y100.724 E6.19312
G1 X94.346 Y99.244 E6.25192
G1 X94.909 Y98.352 E6.287
G1 X95.443 Y97.581 E6.3182
G1 X96.041 Y96.858 E6.3494
G1 X96.526 Y96.353 E6.37269
G0 F6000 X96.806 Y96.64
G1 F1200 X96.929 Y96.52 E6.37841
G1 X97.247 Y96.221 E6.39292
G1 X97.601 Y95.903 E6.40875
G1 X97.899 Y95.646 E6.42184
G1 X98.169 Y95.421 E6.43353
G1 X98.901 Y94.863 E6.46414
G1 X99.679 Y94.37 E6.49478
G1 X100.48 Y93.955 E6.52478
G1 X101.036 Y93.697 E6.54517
G1 X102.659 Y92.971 E6.6043
G1 X103.126 Y92.75 E6.62149
G1 X103.837 Y92.424 E6.6475
G1 X104.69 Y92.077 E6.67813
G1 X105.569 Y91.805 E6.70874
G1 X106.171 Y91.666 E6.72929
G1 X106.555 Y91.589 E6.74231
G1 X107.334 Y91.463 E6.76856
G1 X108.543 Y91.313 E6.80908
G1 X111.18 Y90.948 E6.89762
G1 X113.635 Y90.537 E6.98041
G1 X116.148 Y90.043 E7.06559
G1 X118.582 Y89.491 E7.1486
G1 X121.048 Y88.861 E7.23326
G1 X123.483 Y88.164 E7.3175
G1 X125.896 Y87.399 E7.40169
G1 X127.305 Y86.91 E7.4513
G1 X128.463 Y86.53 E7.49183
G1 X128.862 Y86.407 E7.50572
G1 X129.239 Y86.302 E7.51874
G1 X129.927 Y86.123 E7.54238
G1 X130.25 Y86.044 E7.55344
G1 X130.391 Y86.012 E7.55825
G1 X130.714 Y85.944 E7.56923
G1 X131.506 Y85.79 E7.59606
G1 X131.867 Y85.726 E7.60826
G1 X132.301 Y85.662 E7.62285
G1 X132.961 Y85.577 E7.64498
G1 X133.291 Y85.54 E7.65603
G1 X133.497 Y85.52 E7.66291
G1 X133.803 Y85.494 E7.67313
G1 X134.466 Y85.449 E7.69523
G1 X134.817 Y85.431 E7.70692
G1 X135.048 Y85.423 E7.7146
G1 X135.347 Y85.417 E7.72455
G1 X135.967 Y85.413 E7.74517
G1 X136.325 Y85.417 E7.75708
G1 X136.772 Y85.433 E7.77196
G1 X137.56 Y85.477 E7.79821
G1 X137.934 Y85.505 E7.81068
G1 X138.12 Y85.522 E7.81689
G1 X138.417 Y85.553 E7.82683
G1 X139.001 Y85.623 E7.84639
G1 X139.309 Y85.665 E7.85673
G1 X139.496 Y85.693 E7.86302
G1 X139.84 Y85.75 E7.87461
G1 X140.597 Y85.889 E7.90021
G1 X140.943 Y85.959 E7.91195
G1 X141.163 Y86.007 E7.91944
G1 X141.452 Y86.074 E7.92931
G1 X142.005 Y86.211 E7.94826
G1 X142.325 Y86.296 E7.95927
G1 X142.542 Y86.357 E7.96677
G1 X142.86 Y86.451 E7.9778
G1 X143.485 Y86.648 E7.99959
G1 X143.782 Y86.747 E8.01001
G1 X143.963 Y86.81 E8.01638
G1 X144.26 Y86.918 E8.02689
G1 X144.886 Y87.157 E8.04918
G1 X145.233 Y87.297 E8.06162
G1 X145.408 Y87.371 E8.06794
G1 X145.704 Y87.502 E8.07871
G1 X146.331 Y87.79 E8.10166
G1 X146.571 Y87.903 E8.11048
G1 X146.771 Y88.001 E8.11789
G1 X147.112 Y88.176 E8.13064
G1 X147.674 Y88.477 E8.15184
G1 X147.946 Y88.628 E8.16219
G1 X148.108 Y88.721 E8.1684
G1 X148.403 Y88.896 E8.17981
G1 X148.997 Y89.263 E8.20303
G1 X149.351 Y89.491 E8.21704
G1 X149.67 Y89.708 E8.22987
G1 X150.277 Y90.137 E8.25459
G1 X150.57 Y90.352 E8.26668
G1 X150.728 Y90.472 E8.27328
G1 X150.964 Y90.656 E8.28323
G1 X151.446 Y91.044 E8.30381
G1 X151.711 Y91.265 E8.31529
G1 X151.904 Y91.431 E8.32376
G1 X152.136 Y91.636 E8.33405
G1 X152.615 Y92.073 E8.35562
G1 X152.956 Y92.397 E8.37126
G1 X153.215 Y92.656 E8.38345
G1 X153.721 Y93.18 E8.40767
G1 X153.934 Y93.406 E8.418
G1 X154.046 Y93.529 E8.42354
G1 X154.286 Y93.803 E8.43565
G1 X154.877 Y94.501 E8.46607
G1 X154.973 Y94.619 E8.47113
G1 X155.226 Y94.944 E8.48483
G1 X155.648 Y95.506 E8.5082
G1 X155.877 Y95.823 E8.52121
G1 X156.009 Y96.013 E8.52891
G1 X156.169 Y96.25 E8.53842
G1 X156.54 Y96.816 E8.56092
G1 X156.688 Y97.048 E8.57008
G1 X156.792 Y97.216 E8.57665
G1 X156.995 Y97.558 E8.58988
G1 X157.303 Y98.1 E8.61061
G1 X157.433 Y98.335 E8.61954
G1 X157.547 Y98.548 E8.62758
G1 X157.714 Y98.875 E8.63979
G1 X158.001 Y99.459 E8.66143
G1 X158.145 Y99.763 E8.67262
G1 X158.231 Y99.953 E8.67956
G1 X158.368 Y100.27 E8.69105
G1 X158.623 Y100.886 E8.71322
G1 X158.732 Y101.16 E8.72303
G1 X158.803 Y101.346 E8.72965
G1 X158.921 Y101.67 E8.74112
G1 X159.14 Y102.305 E8.76346
G1 X159.246 Y102.629 E8.7748
G1 X159.306 Y102.823 E8.78155
G1 X159.394 Y103.124 E8.79198
G1 X159.565 Y103.741 E8.81328
G1 X159.644 Y104.045 E8.82372
G1 X159.685 Y104.212 E8.82944
G1 X159.765 Y104.562 E8.84138
G1 X159.922 Y105.31 E8.8668
G1 X160.005 Y105.744 E8.8815
G1 X160.065 Y106.111 E8.89387
G1 X160.161 Y106.767 E8.91592
G1 X160.208 Y107.131 E8.92813
G1 X160.235 Y107.374 E8.93626
G1 X160.263 Y107.666 E8.94602
G1 X160.316 Y108.303 E8.96728
G1 X160.339 Y108.644 E8.97864
G1 X160.352 Y108.9 E8.98717
G1 X160.363 Y109.197 E8.99705
G1 X160.375 Y109.725 E9.01462
G1 X160.377 Y110.087 E9.02666
G1 X160.374 Y110.35 E9.03541
G1 X160.367 Y110.642 E9.04512
G1 X160.342 Y111.283 E9.06646
G1 X160.325 Y111.591 E9.07672
G1 X160.31 Y111.811 E9.08405
G1 X160.281 Y112.158 E9.09563
G1 X160.216 Y112.8 E9.1171
G1 X160.175 Y113.148 E9.12875
G1 X160.11 Y113.597 E9.14384
G1 X159.977 Y114.404 E9.17104
G1 X159.909 Y114.773 E9.18352
G1 X159.819 Y115.201 E9.19807
G1 X159.667 Y115.86 E9.22056
G1 X159.581 Y116.204 E9.23236
G1 X159.515 Y116.452 E9.24089
G1 X159.434 Y116.742 E9.25091
G1 X159.277 Y117.271 E9.26926
G1 X159.187 Y117.559 E9.2793
G1 X159.125 Y117.748 E9.28591
G1 X159.006 Y118.091 E9.29799
G1 X158.74 Y118.817 E9.3237
G1 X158.576 Y119.238 E9.33873
G1 X158.439 Y119.563 E9.35046
G1 X158.156 Y120.205 E9.3738
G1 X158.024 Y120.493 E9.38434
G1 X157.91 Y120.732 E9.39314
G1 X157.776 Y121.003 E9.4032
G1 X157.53 Y121.483 E9.42114
G1 X157.351 Y121.818 E9.43377
G1 X157.251 Y121.997 E9.44059
G1 X157.1 Y122.258 E9.45062
