;FLAVOR:Marlin
;TIME:4431
;Filament used: 1.87669m
;Layer height: 0.2
;MINX:68.555
;MINY:84.559
;MINZ:0.2
;MAXX:151.994
;MAXY:135.354
;MAXZ:10.2
;Generated with Cura_SteamEngine 4.8.0
M140 S60
M105
M190 S60
M104 S200
M105
M109 S200
M82 ;absolute extrusion mode
; Ender 3 Custom Start G-code
G92 E0 ; Reset Extruder
G28 ; Home all axes
G1 Z2.0 F3000 ; Move Z Axis up little to prevent scratching of Heat Bed
G1 X0.1 Y20 Z0.3 F5000.0 ; Move to start position
G1 X0.1 Y200.0 Z0.3 F1500.0 E15 ; Draw the first line
G1 X0.4 Y200.0 Z0.3 F5000.0 ; Move to side a little
G1 X0.4 Y20 Z0.3 F1500.0 E30 ; Draw the second line
G92 E0 ; Reset Extruder
G1 Z2.0 F3000 ; Move Z Axis up little to prevent scratching of Heat Bed
G1 X5 Y20 Z0.3 F5000.0 ; Move over to prevent blob squish
G1 X0.4 Y20 Z0.3 F1500.0 E30 ; Draw the second line
G92 E0 ; Reset Extruder
G1 Z2.0 F3000 ; Move Z Axis up little to prevent scratching of Heat Bed
G1 X5 Y20 Z0.3 F5000.0 ; Move over to prevent blob squish
G92 E0
G92 E0
G1 F1500 E-6
;LAYER_COUNT:51
;LAYER:0
M107
G0 F6000 X76.84 Y91.138 Z0.2
;TYPE:SKIRT
G1 F1500 E0
G1 F1200 X77.942 Y90.262 E0.04682
G1 X78.191 Y90.069 E0.0573
G1 X78.823 Y89.553 E0.08444
G1 X79.354 Y89.133 E0.10696
G1 X79.875 Y88.747 E0.12852
G1 X79.977 Y88.676 E0.13265
G1 X80.684 Y88.223 E0.16058
G1 X81.279 Y87.873 E0.18354
G1 X81.719 Y87.627 E0.20031
G1 X81.986 Y87.486 E0.21035
G1 X83.123 Y86.966 E0.25194
G1 X84.499 Y86.43 E0.30105
G1 X85.29 Y86.111 E0.32942
G1 X86.138 Y85.782 E0.35967
G1 X87.176 Y85.438 E0.39604
G1 X87.367 Y85.385 E0.40263
G1 X87.789 Y85.276 E0.41713
G1 X88.219 Y85.177 E0.43181
G1 X88.595 Y85.095 E0.44461
G1 X88.971 Y85.019 E0.45737
G1 X89.213 Y84.975 E0.46555
G1 X90.399 Y84.826 E0.5053
G1 X91.385 Y84.756 E0.53818
G1 X91.693 Y84.716 E0.54851
G1 X92.081 Y84.685 E0.56146
G1 X92.265 Y84.678 E0.56758
G1 X93.605 Y84.585 E0.61226
G1 X94.457 Y84.559 E0.64061
G1 X94.58 Y84.56 E0.6447
G1 X95.176 Y84.581 E0.66453
G1 X95.593 Y84.607 E0.67843
G1 X95.904 Y84.631 E0.6888
G1 X96.201 Y84.658 E0.69872
G1 X96.469 Y84.686 E0.70769
G1 X96.737 Y84.717 E0.71666
G1 X97.047 Y84.757 E0.72706
G1 X97.778 Y84.863 E0.75162
G1 X100.279 Y85.189 E0.83551
G1 X102.814 Y85.447 E0.92026
G1 X105.329 Y85.63 E1.00413
G1 X107.85 Y85.743 E1.08806
G1 X110.344 Y85.784 E1.17103
G1 X112.87 Y85.754 E1.25505
G1 X115.38 Y85.653 E1.3386
G1 X117.877 Y85.482 E1.42184
G1 X120.427 Y85.235 E1.50705
G1 X122.77 Y84.943 E1.58558
G1 X123.802 Y84.803 E1.62022
G1 X124.311 Y84.745 E1.63726
G1 X124.592 Y84.72 E1.64664
G1 X124.898 Y84.697 E1.65685
G1 X125.308 Y84.672 E1.67051
G1 X125.801 Y84.652 E1.68692
G1 X127.053 Y84.68 E1.72858
G1 X128.205 Y84.772 E1.76701
G1 X129.142 Y84.833 E1.79824
G1 X130.253 Y84.92 E1.83531
G1 X131.31 Y85.054 E1.87075
G1 X131.457 Y85.08 E1.87571
G1 X131.828 Y85.152 E1.88828
G1 X132.082 Y85.206 E1.89692
G1 X132.388 Y85.276 E1.90736
G1 X132.891 Y85.398 E1.92457
G1 X133.25 Y85.491 E1.93691
G1 X133.39 Y85.53 E1.94174
G1 X134.511 Y85.909 E1.9811
G1 X135.364 Y86.249 E2.01164
G1 X136.41 Y86.648 E2.04888
G1 X137.505 Y87.084 E2.08808
G1 X138.348 Y87.462 E2.11881
G1 X138.468 Y87.522 E2.12327
G1 X138.906 Y87.754 E2.13975
G1 X139.236 Y87.938 E2.15232
G1 X139.506 Y88.093 E2.16267
G1 X139.763 Y88.246 E2.17262
G1 X140.029 Y88.41 E2.18302
G1 X140.267 Y88.561 E2.19239
G1 X141.254 Y89.266 E2.23273
G1 X142.183 Y90.011 E2.27234
G1 X142.264 Y90.069 E2.27565
G1 X142.793 Y90.485 E2.29804
G1 X143.774 Y91.277 E2.33997
G1 X144.442 Y91.863 E2.36953
G1 X144.543 Y91.959 E2.37416
G1 X144.931 Y92.346 E2.39239
G1 X145.251 Y92.682 E2.40782
G1 X145.442 Y92.888 E2.41716
G1 X145.575 Y93.035 E2.42376
G1 X145.764 Y93.25 E2.43328
G1 X145.952 Y93.469 E2.44288
G1 X146.702 Y94.449 E2.48392
G1 X147.404 Y95.482 E2.52546
G1 X147.454 Y95.549 E2.52824
G1 X147.774 Y96.012 E2.54696
G1 X148.513 Y97.102 E2.59076
G1 X148.934 Y97.775 E2.61717
G1 X148.99 Y97.872 E2.62089
G1 X149.303 Y98.453 E2.64284
G1 X149.478 Y98.803 E2.65586
G1 X149.615 Y99.087 E2.66634
G1 X149.779 Y99.44 E2.67929
G1 X149.911 Y99.736 E2.69007
G1 X149.996 Y99.934 E2.69724
G1 X150.415 Y101.081 E2.73785
G1 X150.791 Y102.32 E2.78092
G1 X151.147 Y103.444 E2.82013
G1 X151.363 Y104.162 E2.84507
G1 X151.589 Y105.045 E2.87539
G1 X151.623 Y105.205 E2.88083
G1 X151.716 Y105.697 E2.89748
G1 X151.756 Y105.939 E2.90564
G1 X151.798 Y106.217 E2.91499
G1 X151.867 Y106.713 E2.93164
G1 X151.909 Y107.057 E2.94317
G1 X151.927 Y107.225 E2.94879
G1 X151.99 Y108.437 E2.98916
G1 X151.985 Y109.693 E3.03093
G1 X151.994 Y110.623 E3.06187
G1 X151.991 Y111.622 E3.09509
G1 X151.949 Y112.553 E3.12609
G1 X151.938 Y112.678 E3.13026
G1 X151.876 Y113.222 E3.14847
G1 X151.805 Y113.735 E3.1657
G1 X151.74 Y114.157 E3.1799
G1 X151.684 Y114.474 E3.19061
G1 X151.631 Y114.75 E3.19995
G1 X151.329 Y115.951 E3.24114
G1 X151.001 Y117.003 E3.27779
G1 X150.946 Y117.206 E3.28479
G1 X150.788 Y117.729 E3.30296
G1 X150.379 Y119.032 E3.34838
G1 X150.042 Y119.958 E3.38116
G1 X149.988 Y120.088 E3.38584
G1 X149.799 Y120.518 E3.40146
G1 X149.639 Y120.861 E3.41405
G1 X149.395 Y121.361 E3.43256
G1 X149.237 Y121.669 E3.44407
G1 X149.115 Y121.898 E3.4527
G1 X148.48 Y122.946 E3.49346
G1 X147.399 Y124.52 E3.55696
G1 X147.079 Y125.003 E3.57623
G1 X146.662 Y125.611 E3.60076
G1 X146.093 Y126.366 E3.6322
G1 X146.018 Y126.457 E3.63612
G1 X145.671 Y126.858 E3.65376
G1 X145.363 Y127.197 E3.66899
G1 X145.19 Y127.383 E3.67744
G1 X145.013 Y127.569 E3.68598
G1 X144.758 Y127.828 E3.69807
G1 X144.575 Y128.008 E3.70661
G1 X143.695 Y128.786 E3.74568
G1 X142.712 Y129.565 E3.78739
G1 X142.002 Y130.142 E3.81782
G1 X141.203 Y130.775 E3.85173
G1 X140.404 Y131.352 E3.88451
G1 X140.221 Y131.472 E3.89178
G1 X139.801 Y131.734 E3.90825
G1 X139.565 Y131.874 E3.91738
G1 X139.324 Y132.013 E3.92663
G1 X138.988 Y132.201 E3.93943
G1 X138.717 Y132.347 E3.94967
G1 X138.524 Y132.448 E3.95692
G1 X137.403 Y132.957 E3.99787
G1 X136.21 Y133.42 E4.04043
G1 X135.283 Y133.793 E4.07366
G1 X134.391 Y134.138 E4.10547
G1 X133.496 Y134.441 E4.1369
G1 X133.386 Y134.473 E4.14071
G1 X132.873 Y134.609 E4.15836
G1 X132.335 Y134.736 E4.17675
G1 X131.923 Y134.826 E4.19077
G1 X131.534 Y134.903 E4.20396
G1 X131.324 Y134.941 E4.21106
G1 X130.137 Y135.09 E4.25085
G1 X128.927 Y135.175 E4.2912
G1 X127.951 Y135.258 E4.32377
G1 X126.933 Y135.329 E4.35772
G1 X126.016 Y135.354 E4.38823
G1 X125.88 Y135.352 E4.39275
G1 X125.388 Y135.334 E4.40913
G1 X125.069 Y135.315 E4.41975
G1 X124.76 Y135.292 E4.43006
G1 X124.316 Y135.253 E4.44488
G1 X123.997 Y135.22 E4.45555
G1 X123.515 Y135.16 E4.47171
G1 X122.831 Y135.062 E4.49469
G1 X120.232 Y134.722 E4.58187
G1 X117.753 Y134.471 E4.66474
G1 X115.227 Y134.287 E4.74898
G1 X112.73 Y134.175 E4.83211
G1 X110.179 Y134.133 E4.91697
G1 X107.691 Y134.163 E4.99973
G1 X105.16 Y134.265 E5.08398
G1 X102.66 Y134.436 E5.16732
G1 X100.131 Y134.682 E5.25183
G1 X98.215 Y134.917 E5.31604
G1 X96.782 Y135.109 E5.36413
G1 X96.283 Y135.164 E5.38082
G1 X95.907 Y135.197 E5.39338
G1 X95.633 Y135.217 E5.40251
G1 X95.234 Y135.242 E5.41581
G1 X94.912 Y135.258 E5.42653
G1 X94.732 Y135.264 E5.43252
G1 X93.492 Y135.235 E5.47378
G1 X92.275 Y135.138 E5.51438
G1 X91.242 Y135.071 E5.54881
G1 X90.301 Y134.996 E5.58021
G1 X89.447 Y134.894 E5.60882
G1 X89.297 Y134.87 E5.61387
G1 X88.747 Y134.767 E5.63248
G1 X88.446 Y134.703 E5.64272
G1 X88.143 Y134.635 E5.65304
G1 X87.652 Y134.516 E5.66985
G1 X87.234 Y134.406 E5.68422
G1 X86.034 Y134.005 E5.72631
G1 X85.094 Y133.629 E5.75998
G1 X83.891 Y133.169 E5.80282
G1 X83.003 Y132.813 E5.83464
G1 X82.186 Y132.446 E5.86443
G1 X82.086 Y132.396 E5.86814
G1 X81.639 Y132.159 E5.88497
G1 X81.333 Y131.988 E5.89663
G1 X81.069 Y131.836 E5.90676
G1 X80.693 Y131.612 E5.92132
G1 X80.378 Y131.417 E5.93364
G1 X80.241 Y131.329 E5.93906
G1 X79.287 Y130.641 E5.97818
G1 X78.549 Y130.047 E6.00969
G1 X77.582 Y129.29 E6.05053
G1 X76.765 Y128.631 E6.08544
G1 X76.013 Y127.966 E6.11883
G1 X75.947 Y127.902 E6.12189
G1 X75.637 Y127.588 E6.13657
G1 X75.243 Y127.174 E6.15558
G1 X74.889 Y126.784 E6.17309
G1 X74.615 Y126.467 E6.18703
G1 X73.842 Y125.461 E6.22923
G1 X73.037 Y124.276 E6.27687
G1 X72.889 Y124.052 E6.2858
G1 X72.288 Y123.188 E6.32081
G1 X72.032 Y122.808 E6.33605
G1 X71.572 Y122.062 E6.3652
G1 X71.47 Y121.881 E6.37211
G1 X71.214 Y121.4 E6.39023
G1 X71.084 Y121.14 E6.3999
G1 X70.956 Y120.876 E6.40966
G1 X70.779 Y120.497 E6.42357
G1 X70.579 Y120.046 E6.43998
G1 X70.14 Y118.858 E6.4821
G1 X69.765 Y117.629 E6.52484
G1 X69.516 Y116.845 E6.5522
G1 X69.2 Y115.807 E6.58829
G1 X68.978 Y114.96 E6.61741
G1 X68.944 Y114.805 E6.62269
G1 X68.833 Y114.221 E6.64246
G1 X68.768 Y113.823 E6.65587
G1 X68.724 Y113.531 E6.6657
G1 X68.685 Y113.244 E6.67533
G1 X68.649 Y112.949 E6.68521
G1 X68.622 Y112.7 E6.69354
G1 X68.558 Y111.477 E6.73428
G1 X68.564 Y109.73 E6.79238
G1 X68.555 Y108.869 E6.82102
G1 X68.559 Y108.241 E6.84191
G1 X68.602 Y107.342 E6.87184
G1 X68.615 Y107.195 E6.87675
G1 X68.673 Y106.678 E6.89406
G1 X68.724 Y106.304 E6.90661
G1 X68.768 Y106.007 E6.9166
G1 X68.824 Y105.666 E6.92809
G1 X68.885 Y105.331 E6.93942
G1 X68.927 Y105.117 E6.94667
G1 X69.218 Y103.965 E6.98619
G1 X69.578 Y102.81 E7.02643
G1 X69.654 Y102.536 E7.03588
G1 X69.886 Y101.806 E7.06136
G1 X69.981 Y101.487 E7.07243
G1 X70.158 Y100.915 E7.09235
G1 X70.57 Y99.8 E7.13188
G1 X70.647 Y99.622 E7.13833
G1 X70.784 Y99.318 E7.14942
G1 X71.013 Y98.835 E7.1672
G1 X71.178 Y98.503 E7.17953
G1 X71.339 Y98.192 E7.19118
G1 X71.454 Y97.978 E7.19926
G1 X72.078 Y96.955 E7.23912
G1 X72.812 Y95.887 E7.28222
G1 X73.336 Y95.102 E7.31361
G1 X73.877 Y94.316 E7.34535
G1 X74.413 Y93.601 E7.37507
G1 X74.497 Y93.498 E7.37949
G1 X74.872 Y93.062 E7.39861
G1 X75.192 Y92.709 E7.41446
G1 X75.512 Y92.369 E7.42999
G1 X75.739 Y92.137 E7.44079
G1 X75.948 Y91.93 E7.45057
G1 X76.84 Y91.138 E7.49024
G0 F6000 X77.089 Y91.451
G1 F1200 X78.187 Y90.578 E7.5369
G1 X78.438 Y90.384 E7.54745
G1 X79.22 Y89.747 E7.581
G1 X79.601 Y89.447 E7.59713
G1 X80.103 Y89.075 E7.61791
G1 X80.205 Y89.004 E7.62204
G1 X80.887 Y88.567 E7.64898
G1 X81.482 Y88.217 E7.67194
G1 X81.906 Y87.981 E7.68808
G1 X82.173 Y87.84 E7.69813
G1 X83.268 Y87.339 E7.73818
G1 X84.657 Y86.798 E7.78775
G1 X85.435 Y86.484 E7.81566
G1 X86.283 Y86.155 E7.84591
G1 X87.283 Y85.823 E7.88096
G1 X87.474 Y85.77 E7.88755
G1 X87.88 Y85.666 E7.90149
G1 X88.304 Y85.567 E7.91597
G1 X88.68 Y85.485 E7.92877
G1 X89.043 Y85.413 E7.94108
G1 X89.285 Y85.369 E7.94926
G1 X90.427 Y85.225 E7.98754
G1 X91.321 Y85.161 E8.01736
G1 X91.725 Y85.115 E8.03088
G1 X92.113 Y85.084 E8.04383
G1 X92.317 Y85.076 E8.05062
G1 X93.633 Y84.985 E8.09449
G1 X94.454 Y84.959 E8.12181
G1 X94.577 Y84.96 E8.1259
G1 X95.151 Y84.981 E8.14501
G1 X95.568 Y85.007 E8.1589
G1 X95.868 Y85.03 E8.16891
G1 X96.423 Y85.083 E8.18745
G1 X96.691 Y85.114 E8.19643
G1 X96.989 Y85.153 E8.20642
G1 X97.664 Y85.251 E8.22911
G1 X100.254 Y85.589 E8.31598
G1 X102.781 Y85.845 E8.40046
G1 X105.318 Y86.031 E8.48507
G1 X107.789 Y86.141 E8.56734
G1 X110.377 Y86.184 E8.65342
G1 X112.854 Y86.154 E8.73582
G1 X115.424 Y86.051 E8.82136
G1 X117.909 Y85.88 E8.90421
G1 X120.475 Y85.632 E8.98995
G1 X122.793 Y85.344 E9.06764
G1 X123.856 Y85.199 E9.10333
G1 X124.347 Y85.144 E9.11976
G1 X124.628 Y85.119 E9.12914
G1 X124.922 Y85.097 E9.13895
G1 X125.332 Y85.072 E9.15261
G1 X125.612 Y85.058 E9.16193
G1 X125.815 Y85.051 E9.16869
G1 X127.021 Y85.078 E9.20881
G1 X128.213 Y85.173 E9.24858
G1 X129.111 Y85.231 E9.27851
G1 X130.222 Y85.318 E9.31558
G1 X131.24 Y85.448 E9.34971
G1 X131.387 Y85.474 E9.35468
G1 X131.745 Y85.544 E9.36681
G1 X131.999 Y85.598 E9.37545
G1 X132.294 Y85.665 E9.38551
G1 X132.797 Y85.787 E9.40272
G1 X133.143 Y85.877 E9.41461
G1 X133.283 Y85.916 E9.41945
G1 X134.362 Y86.28 E9.45732
G1 X135.257 Y86.637 E9.48937
G1 X136.267 Y87.022 E9.52532
G1 X137.357 Y87.456 E9.56434
G1 X138.169 Y87.82 E9.59394
G1 X138.289 Y87.88 E9.5984
G1 X138.711 Y88.103 E9.61428
G1 X139.041 Y88.287 E9.62684
G1 X139.301 Y88.437 E9.63683
G1 X139.558 Y88.59 E9.64678
G1 X139.815 Y88.747 E9.65679
G1 X140.053 Y88.898 E9.66617
G1 X141.004 Y89.578 E9.70505
G1 X141.926 Y90.317 E9.74435
G1 X142.017 Y90.384 E9.74811
G1 X142.542 Y90.796 E9.77031
G1 X143.523 Y91.588 E9.81224
G1 X144.167 Y92.153 E9.84074
G1 X144.268 Y92.249 E9.84537
G1 X144.641 Y92.622 E9.86292
G1 X144.961 Y92.958 E9.87835
G1 X145.145 Y93.156 E9.88734
G1 X145.278 Y93.303 E9.89393
G1 X145.461 Y93.511 E9.90315
G1 X145.649 Y93.73 E9.91275
G1 X146.372 Y94.674 E9.95229
G1 X147.039 Y95.657 E9.9918
G1 X147.125 Y95.776 E9.99669
G1 X147.443 Y96.237 E10.01532
G1 X148.182 Y97.327 E10.05912
G1 X148.588 Y97.975 E10.08455
G1 X148.644 Y98.072 E10.08827
G1 X148.945 Y98.632 E10.10942
G1 X149.12 Y98.982 E10.12243
G1 X149.252 Y99.256 E10.13255
G1 X149.416 Y99.609 E10.1455
G1 X149.543 Y99.894 E10.15587
G1 X149.628 Y100.092 E10.16304
G1 X150.032 Y101.197 E10.20217
G1 X150.42 Y102.475 E10.2466
G1 X150.764 Y103.559 E10.28442
G1 X150.98 Y104.277 E10.30936
G1 X151.197 Y105.128 E10.33857
G1 X151.231 Y105.288 E10.34401
G1 X151.321 Y105.762 E10.36006
G1 X151.361 Y106.004 E10.36821
G1 X151.402 Y106.272 E10.37723
G1 X151.471 Y106.768 E10.39389
G1 X151.512 Y107.1 E10.40501
G1 X151.53 Y107.268 E10.41063
G1 X151.59 Y108.436 E10.44953
G1 X151.585 Y109.694 E10.49137
G1 X151.594 Y110.622 E10.52224
G1 X151.591 Y111.621 E10.55547
G1 X151.55 Y112.518 E10.58533
G1 X151.539 Y112.643 E10.58951
G1 X151.48 Y113.167 E10.60705
G1 X151.409 Y113.68 E10.62427
G1 X151.345 Y114.094 E10.6382
G1 X151.291 Y114.399 E10.64851
G1 X151.238 Y114.675 E10.65785
G1 X150.947 Y115.832 E10.69753
G1 X150.591 Y116.973 E10.73729
G1 X150.563 Y117.091 E10.74132
G1 X150.406 Y117.61 E10.75936
G1 X149.997 Y118.913 E10.80478
G1 X149.673 Y119.804 E10.83631
G1 X149.619 Y119.934 E10.84099
G1 X149.436 Y120.349 E10.85608
G1 X149.276 Y120.692 E10.86867
G1 X149.036 Y121.184 E10.88688
G1 X148.884 Y121.481 E10.89797
G1 X148.762 Y121.71 E10.9066
G1 X148.15 Y122.719 E10.94585
G1 X147.052 Y124.319 E11.01039
G1 X146.641 Y124.937 E11.03508
G1 X146.333 Y125.384 E11.05313
G1 X145.784 Y126.112 E11.08346
G1 X145.709 Y126.203 E11.08738
G1 X145.374 Y126.589 E11.10438
G1 X145.066 Y126.928 E11.11962
G1 X144.9 Y127.107 E11.12774
G1 X144.723 Y127.293 E11.13628
G1 X144.477 Y127.543 E11.14794
G1 X144.294 Y127.723 E11.15648
G1 X143.446 Y128.472 E11.19411
G1 X142.506 Y129.217 E11.234
G1 X141.753 Y129.829 E11.26628
G1 X140.954 Y130.462 E11.30018
G1 X140.185 Y131.017 E11.33172
G1 X140.002 Y131.137 E11.339
G1 X139.597 Y131.39 E11.35488
G1 X139.361 Y131.53 E11.36401
G1 X139.129 Y131.663 E11.37291
G1 X138.793 Y131.851 E11.38571
G1 X138.532 Y131.993 E11.39559
G1 X138.339 Y132.094 E11.40284
G1 X137.258 Y132.584 E11.44231
G1 X136.063 Y133.047 E11.48494
G1 X135.139 Y133.42 E11.51808
G1 X134.247 Y133.765 E11.54989
G1 X133.384 Y134.057 E11.58019
G1 X133.274 Y134.089 E11.584
G1 X132.78 Y134.22 E11.601
G1 X132.249 Y134.345 E11.61915
G1 X131.837 Y134.435 E11.63317
G1 X131.462 Y134.51 E11.64589
G1 X131.252 Y134.548 E11.65299
G1 X130.109 Y134.691 E11.6913
G1 X128.864 Y134.779 E11.73281
G1 X127.749 Y134.872 E11.77003
G1 X126.906 Y134.93 E11.79813
G1 X126.022 Y134.954 E11.82755
G1 X125.886 Y134.952 E11.83207
G1 X125.412 Y134.934 E11.84785
G1 X125.093 Y134.915 E11.85847
G1 X124.795 Y134.893 E11.86841
G1 X124.351 Y134.854 E11.88324
G1 X124.044 Y134.823 E11.8935
G1 X123.848 Y134.8 E11.90006
G1 X123.572 Y134.764 E11.90932
G1 X122.862 Y134.662 E11.93318
G1 X120.291 Y134.326 E12.01942
G1 X117.786 Y134.073 E12.10316
G1 X115.238 Y133.887 E12.18813
G1 X112.754 Y133.775 E12.27083
G1 X110.181 Y133.733 E12.35642
G1 X107.671 Y133.763 E12.43991
G1 X105.153 Y133.865 E12.52373
G1 X102.63 Y134.037 E12.60784
