;FLAVOR:Marlin
;TIME:3263
;Filament used: 1.93873m
;Layer height: 0.2
;MINX:62.25
;MINY:89.5
;MINZ:0.2
;MAXX:157.75
;MAXY:130.5
;MAXZ:21
;Generated with Cura_SteamEngine 4.8.0
M140 S50
M105
M190 S50
M104 S200
M105
M109 S200
M82 ;absolute extrusion mode
; Ender 3 Custom Start G-code
G92 E0 ; Reset Extruder
G28 ; Home all axes
G1 Z2.0 F3000 ; Move Z Axis up little to prevent scratching of Heat Bed
G1 X0.1 Y20 Z0.3 F5000.0 ; Move to start position
G1 X0.1 Y200.0 Z0.3 F1500.0 E15 ; Draw the first line
G1 X0.4 Y200.0 Z0.3 F5000.0 ; Move to side a little
G1 X0.4 Y20 Z0.3 F1500.0 E30 ; Draw the second line
G92 E0 ; Reset Extruder
G1 Z2.0 F3000 ; Move Z Axis up little to prevent scratching of Heat Bed
G1 X5 Y20 Z0.3 F5000.0 ; Move over to prevent blob squish
G92 E0
G92 E0
G1 F2700 E-5
;LAYER_COUNT:105
;LAYER:0
M107
G0 F6000 X66.876 Y91.551 Z0.2
;TYPE:SKIRT
G1 F2700 E0
G1 F1200 X67.662 Y91.039 E0.0312
G1 X68.489 Y90.597 E0.06239
G1 X69.351 Y90.227 E0.09359
G1 X70.241 Y89.931 E0.12478
G1 X71.153 Y89.713 E0.15597
G1 X72.08 Y89.572 E0.18716
G1 X72.951 Y89.513 E0.21619
G1 X73.272 Y89.504 E0.22687
G1 X73.58 Y89.5 E0.23712
G1 X75.543 Y89.5 E0.30241
G1 X76.422 Y89.512 E0.33165
G1 X77.358 Y89.567 E0.36283
G1 X78.286 Y89.701 E0.39402
G1 X79.2 Y89.914 E0.42523
G1 X79.775 Y90.091 E0.44524
G1 X80.872 Y90.463 E0.48377
G1 X81.65 Y90.737 E0.5112
G1 X84.013 Y91.494 E0.59373
G1 X86.465 Y92.204 E0.67864
G1 X88.912 Y92.839 E0.76272
G1 X91.356 Y93.398 E0.84611
G1 X93.817 Y93.889 E0.92957
G1 X96.292 Y94.31 E1.01307
G1 X98.803 Y94.665 E1.09742
G1 X101.314 Y94.949 E1.18147
G1 X103.795 Y95.157 E1.26428
G1 X106.311 Y95.297 E1.34809
G1 X108.836 Y95.366 E1.4321
G1 X111.359 Y95.364 E1.51602
G1 X113.845 Y95.291 E1.59874
G1 X116.377 Y95.145 E1.68309
G1 X118.913 Y94.927 E1.76775
G1 X121.385 Y94.644 E1.85051
G1 X123.879 Y94.286 E1.93431
G1 X126.348 Y93.861 E2.01764
G1 X128.817 Y93.363 E2.10141
G1 X131.265 Y92.798 E2.18497
G1 X133.728 Y92.154 E2.26964
G1 X136.079 Y91.468 E2.3511
G1 X139.805 Y90.237 E2.48161
G1 X140.04 Y90.154 E2.4899
G1 X140.824 Y89.909 E2.51722
G1 X140.868 Y89.897 E2.51874
G1 X141.782 Y89.689 E2.54992
G1 X142.711 Y89.559 E2.58112
G1 X143.451 Y89.513 E2.60578
G1 X143.769 Y89.504 E2.61636
G1 X144.08 Y89.5 E2.6267
G1 X146.185 Y89.501 E2.69672
G1 X146.883 Y89.51 E2.71993
G1 X147.819 Y89.562 E2.75111
G1 X148.748 Y89.694 E2.78232
G1 X149.662 Y89.904 E2.81351
G1 X150.555 Y90.191 E2.84471
G1 X151.42 Y90.554 E2.87591
G1 X152.251 Y90.988 E2.90709
G1 X153.042 Y91.492 E2.93829
G1 X153.787 Y92.062 E2.96949
G1 X154.481 Y92.693 E3.00069
G1 X155.118 Y93.38 E3.03185
G1 X155.695 Y94.12 E3.06306
G1 X156.207 Y94.906 E3.09426
G1 X156.65 Y95.733 E3.12546
G1 X157.021 Y96.594 E3.15664
G1 X157.317 Y97.484 E3.18784
G1 X157.536 Y98.396 E3.21903
G1 X157.677 Y99.323 E3.25022
G1 X157.737 Y100.201 E3.27949
G1 X157.746 Y100.522 E3.29017
G1 X157.75 Y100.83 E3.30042
G1 X157.749 Y108.927 E3.56972
G1 X157.739 Y109.648 E3.59371
G1 X157.686 Y110.584 E3.62489
G1 X157.553 Y111.512 E3.65607
G1 X157.342 Y112.426 E3.68727
G1 X157.054 Y113.319 E3.71848
G1 X156.691 Y114.183 E3.74965
G1 X156.255 Y115.014 E3.78086
G1 X155.751 Y115.804 E3.81203
G1 X155.18 Y116.549 E3.84325
G1 X154.549 Y117.242 E3.87442
G1 X153.86 Y117.879 E3.90563
G1 X152.905 Y118.605 E3.94553
G1 X152.034 Y119.194 E3.9805
G1 X149.92 Y120.67 E4.06625
G1 X147.892 Y122.172 E4.15019
G1 X145.927 Y123.716 E4.23331
G1 X143.974 Y125.341 E4.31781
G1 X142.101 Y126.991 E4.40083
G1 X141.381 Y127.643 E4.43314
G1 X140.66 Y128.242 E4.46431
G1 X139.89 Y128.778 E4.49552
G1 X139.077 Y129.246 E4.52672
G1 X138.228 Y129.643 E4.55789
G1 X137.347 Y129.967 E4.58911
G1 X136.443 Y130.214 E4.62028
G1 X135.52 Y130.384 E4.6515
G1 X134.333 Y130.485 E4.69112
G1 X134.007 Y130.495 E4.70197
G1 X133.67 Y130.5 E4.71318
G1 X131.55 Y130.499 E4.78369
G1 X130.851 Y130.489 E4.80694
G1 X129.914 Y130.435 E4.83816
G1 X129.005 Y130.306 E4.86869
G1 X128.743 Y130.256 E4.87756
G1 X126.268 Y129.761 E4.96151
G1 X123.813 Y129.341 E5.04435
G1 X121.288 Y128.982 E5.12918
G1 X118.794 Y128.699 E5.21266
G1 X116.289 Y128.487 E5.29628
G1 X113.767 Y128.345 E5.38029
G1 X111.243 Y128.274 E5.46427
G1 X108.719 Y128.274 E5.54822
G1 X106.234 Y128.345 E5.63091
G1 X103.701 Y128.49 E5.71529
G1 X101.201 Y128.703 E5.79875
G1 X98.698 Y128.988 E5.88253
G1 X96.229 Y129.34 E5.96548
G1 X93.676 Y129.778 E6.05164
G1 X92.389 Y130.027 E6.09524
G1 X91.158 Y130.275 E6.137
G1 X90.231 Y130.421 E6.16821
G1 X89.299 Y130.487 E6.19929
G1 X88.98 Y130.496 E6.20991
G1 X88.67 Y130.5 E6.22022
G1 X86.551 Y130.499 E6.29069
G1 X85.848 Y130.489 E6.31408
G1 X84.911 Y130.436 E6.34529
G1 X83.983 Y130.303 E6.37647
G1 X83.069 Y130.091 E6.40768
G1 X82.177 Y129.803 E6.43886
G1 X81.312 Y129.439 E6.47007
G1 X80.482 Y129.003 E6.50125
G1 X79.691 Y128.498 E6.53247
G1 X78.735 Y127.746 E6.57292
G1 X78.377 Y127.429 E6.58883
G1 X76.895 Y126.089 E6.65528
G1 X74.948 Y124.426 E6.74044
G1 X73.013 Y122.864 E6.82315
G1 X71.01 Y121.342 E6.90682
G1 X68.95 Y119.865 E6.99113
G1 X67.285 Y118.738 E7.058
G1 X66.96 Y118.511 E7.07119
G1 X66.215 Y117.942 E7.10237
G1 X65.521 Y117.311 E7.13357
G1 X64.883 Y116.623 E7.16477
G1 X64.306 Y115.884 E7.19596
G1 X63.794 Y115.098 E7.22716
G1 X63.351 Y114.272 E7.25833
G1 X62.98 Y113.41 E7.28954
G1 X62.684 Y112.52 E7.32074
G1 X62.464 Y111.608 E7.35194
G1 X62.323 Y110.681 E7.38313
G1 X62.263 Y109.799 E7.41253
G1 X62.254 Y109.476 E7.42328
G1 X62.25 Y109.17 E7.43346
G1 X62.251 Y101.025 E7.70436
G1 X62.26 Y100.36 E7.72648
G1 X62.313 Y99.424 E7.75766
G1 X62.445 Y98.495 E7.78887
G1 X62.656 Y97.581 E7.82007
G1 X62.944 Y96.689 E7.85125
G1 X63.307 Y95.824 E7.88245
G1 X63.742 Y94.993 E7.91365
G1 X64.246 Y94.203 E7.94481
G1 X64.816 Y93.458 E7.97601
G1 X65.448 Y92.764 E8.00723
G1 X66.136 Y92.127 E8.03842
G1 X66.876 Y91.551 E8.06961
G0 F6000 X67.26 Y91.77
G1 F1200 X68.041 Y91.282 E8.10024
G1 X68.861 Y90.864 E8.13085
G1 X69.715 Y90.519 E8.16148
G1 X70.595 Y90.249 E8.1921
G1 X71.495 Y90.057 E8.22271
G1 X72.409 Y89.943 E8.25334
G1 X72.962 Y89.913 E8.27176
G1 X73.283 Y89.904 E8.28244
G1 X73.58 Y89.9 E8.29232
G1 X75.543 Y89.9 E8.35761
G1 X76.416 Y89.912 E8.38665
G1 X77.335 Y89.967 E8.41727
G1 X78.246 Y90.1 E8.44789
G1 X79.141 Y90.313 E8.47849
G1 X79.646 Y90.47 E8.49608
G1 X80.739 Y90.84 E8.53446
G1 X81.5 Y91.108 E8.5613
G1 X83.949 Y91.893 E8.64683
G1 X86.326 Y92.581 E8.72914
G1 X88.828 Y93.23 E8.81511
G1 X91.261 Y93.787 E8.89812
G1 X93.74 Y94.281 E8.9822
G1 X96.275 Y94.713 E9.06773
G1 X98.739 Y95.061 E9.15049
G1 X101.234 Y95.343 E9.234
G1 X103.775 Y95.556 E9.31882
G1 X106.313 Y95.697 E9.40336
G1 X108.826 Y95.766 E9.48697
G1 X111.371 Y95.764 E9.57162
G1 X113.88 Y95.69 E9.65511
G1 X116.398 Y95.545 E9.73899
G1 X118.926 Y95.328 E9.82339
G1 X121.451 Y95.039 E9.90792
G1 X123.932 Y94.682 E9.99128
G1 X126.423 Y94.253 E10.07535
G1 X128.915 Y93.751 E10.1599
G1 X131.351 Y93.189 E10.24305
G1 X133.836 Y92.539 E10.32849
G1 X136.199 Y91.85 E10.41035
G1 X139.938 Y90.615 E10.54132
G1 X140.174 Y90.531 E10.54965
G1 X140.929 Y90.295 E10.57596
G1 X140.973 Y90.283 E10.57748
G1 X141.871 Y90.079 E10.60811
G1 X142.783 Y89.954 E10.63872
G1 X143.462 Y89.913 E10.66135
G1 X143.78 Y89.904 E10.67193
G1 X144.08 Y89.9 E10.68191
G1 X146.18 Y89.901 E10.75175
G1 X146.878 Y89.91 E10.77497
G1 X147.797 Y89.962 E10.80559
G1 X148.708 Y90.093 E10.8362
G1 X149.604 Y90.303 E10.86681
G1 X150.479 Y90.59 E10.89744
G1 X151.326 Y90.952 E10.92807
G1 X152.138 Y91.386 E10.95869
G1 X152.909 Y91.888 E10.98929
G1 X153.634 Y92.456 E11.01993
G1 X154.307 Y93.085 E11.05057
G1 X154.922 Y93.769 E11.08116
G1 X155.476 Y94.504 E11.11177
G1 X155.964 Y95.285 E11.1424
G1 X156.383 Y96.105 E11.17303
G1 X156.729 Y96.958 E11.20365
G1 X156.999 Y97.838 E11.23426
G1 X157.192 Y98.739 E11.26491
G1 X157.306 Y99.652 E11.29551
G1 X157.337 Y100.212 E11.31417
G1 X157.346 Y100.533 E11.32485
G1 X157.35 Y100.83 E11.33473
G1 X157.349 Y108.921 E11.60383
G1 X157.339 Y109.642 E11.62782
G1 X157.286 Y110.561 E11.65843
G1 X157.154 Y111.472 E11.68905
G1 X156.943 Y112.368 E11.71967
G1 X156.655 Y113.243 E11.7503
G1 X156.293 Y114.089 E11.78091
G1 X155.858 Y114.901 E11.81155
G1 X155.355 Y115.672 E11.84217
G1 X154.786 Y116.396 E11.87279
G1 X154.157 Y117.068 E11.90341
G1 X153.472 Y117.683 E11.93403
G1 X152.681 Y118.274 E11.96687
G1 X151.787 Y118.879 E12.00277
G1 X149.699 Y120.337 E12.08747
G1 X147.653 Y121.852 E12.17215
G1 X145.648 Y123.427 E12.25695
G1 X143.738 Y125.017 E12.33961
G1 X141.777 Y126.744 E12.42652
G1 X141.112 Y127.346 E12.45635
G1 X140.404 Y127.934 E12.48696
G1 X139.647 Y128.458 E12.51758
G1 X138.847 Y128.915 E12.54823
G1 X138.011 Y129.3 E12.57884
G1 X137.145 Y129.611 E12.60944
G1 X136.255 Y129.847 E12.64007
G1 X135.348 Y130.003 E12.67068
G1 X134.321 Y130.085 E12.70495
G1 X133.995 Y130.095 E12.71579
G1 X133.67 Y130.1 E12.7266
G1 X131.555 Y130.099 E12.79695
G1 X130.856 Y130.089 E12.8202
G1 X129.937 Y130.036 E12.85082
G1 X129.078 Y129.913 E12.87968
G1 X128.821 Y129.864 E12.88838
G1 X126.342 Y129.368 E12.97247
G1 X123.864 Y128.944 E13.05608
G1 X121.318 Y128.582 E13.14162
G1 X118.837 Y128.301 E13.22466
G1 X116.309 Y128.086 E13.30905
G1 X113.802 Y127.945 E13.39256
G1 X111.254 Y127.874 E13.47734
G1 X108.743 Y127.874 E13.56086
G1 X106.199 Y127.947 E13.64551
G1 X103.684 Y128.09 E13.72929
G1 X101.151 Y128.306 E13.81384
G1 X98.632 Y128.593 E13.89817
G1 X96.176 Y128.944 E13.98069
G1 X93.584 Y129.388 E14.06815
G1 X92.347 Y129.628 E14.11006
G1 X91.079 Y129.883 E14.15308
G1 X90.169 Y130.025 E14.18371
G1 X89.288 Y130.087 E14.21309
G1 X88.969 Y130.096 E14.2237
G1 X88.67 Y130.1 E14.23365
G1 X86.556 Y130.099 E14.30396
G1 X85.853 Y130.089 E14.32734
G1 X84.934 Y130.036 E14.35796
G1 X84.023 Y129.903 E14.38858
G1 X83.127 Y129.692 E14.4192
G1 X82.253 Y129.404 E14.44981
G1 X81.406 Y129.041 E14.48045
G1 X80.595 Y128.606 E14.51106
G1 X79.824 Y128.102 E14.5417
G1 X78.999 Y127.446 E14.57676
G1 X78.645 Y127.133 E14.59247
G1 X77.139 Y125.772 E14.65999
G1 X75.214 Y124.127 E14.74421
G1 X73.244 Y122.537 E14.82841
G1 X71.24 Y121.014 E14.91212
G1 X69.202 Y119.553 E14.99553
G1 X67.65 Y118.504 E15.05783
G1 X67.189 Y118.183 E15.07652
G1 X66.458 Y117.624 E15.10712
G1 X65.778 Y117.003 E15.13775
G1 X65.155 Y116.325 E15.16838
G1 X64.593 Y115.596 E15.19899
G1 X64.096 Y114.821 E15.22961
G1 X63.668 Y114.006 E15.26023
G1 X63.312 Y113.157 E15.29085
G1 X63.032 Y112.28 E15.32147
G1 X62.829 Y111.382 E15.35209
G1 X62.704 Y110.47 E15.38271
G1 X62.663 Y109.788 E15.40543
G1 X62.654 Y109.465 E15.41618
G1 X62.65 Y109.17 E15.42599
G1 X62.651 Y101.031 E15.6967
G1 X62.66 Y100.366 E15.71882
G1 X62.712 Y99.446 E15.74947
G1 X62.844 Y98.535 E15.78008
G1 X63.055 Y97.639 E15.8107
G1 X63.342 Y96.764 E15.84133
G1 X63.705 Y95.918 E15.87195
G1 X64.139 Y95.106 E15.90257
G1 X64.642 Y94.335 E15.93319
G1 X65.211 Y93.611 E15.96381
G1 X65.839 Y92.939 E15.99441
G1 X66.524 Y92.323 E16.02505
G1 X67.26 Y91.77 E16.05567
G0 F6000 X67.644 Y91.994
G1 F1200 X68.419 Y91.531 E16.08569
G1 X69.232 Y91.138 E16.11573
G1 X70.077 Y90.818 E16.14578
G1 X70.946 Y90.575 E16.17579
G1 X71.834 Y90.409 E16.20584
G1 X72.973 Y90.313 E16.24385
G1 X73.294 Y90.304 E16.25454
G1 X73.58 Y90.3 E16.26405
G1 X75.543 Y90.3 E16.32934
G1 X76.409 Y90.312 E16.35814
G1 X77.311 Y90.366 E16.3882
G1 X78.204 Y90.5 E16.41823
G1 X79.082 Y90.712 E16.44827
G1 X79.518 Y90.848 E16.46346
G1 X80.606 Y91.217 E16.50168
G1 X81.382 Y91.49 E16.52904
G1 X83.821 Y92.272 E16.61423
G1 X86.262 Y92.978 E16.69874
G1 X88.677 Y93.605 E16.78173
G1 X91.232 Y94.19 E16.86891
G1 X93.663 Y94.674 E16.95135
G1 X96.189 Y95.104 E17.03657
G1 X98.67 Y95.456 E17.11992
G1 X101.23 Y95.744 E17.2056
G1 X103.753 Y95.956 E17.28981
G1 X106.28 Y96.097 E17.37399
G1 X108.816 Y96.166 E17.45837
G1 X111.348 Y96.164 E17.54258
G1 X113.914 Y96.089 E17.62797
G1 X116.422 Y95.944 E17.71152
G1 X118.966 Y95.726 E17.79645
G1 X121.516 Y95.433 E17.88182
G1 X123.991 Y95.078 E17.96498
G1 X126.498 Y94.646 E18.04959
G1 X129.012 Y94.139 E18.13489
G1 X131.446 Y93.578 E18.21797
G1 X133.935 Y92.927 E18.30354
G1 X136.327 Y92.23 E18.3864
G1 X140.057 Y90.997 E18.51707
G1 X140.308 Y90.908 E18.52592
G1 X141.034 Y90.68 E18.55123
G1 X141.078 Y90.668 E18.55275
G1 X141.959 Y90.47 E18.58278
G1 X142.854 Y90.349 E18.61282
G1 X143.473 Y90.313 E18.63344
G1 X143.791 Y90.304 E18.64403
G1 X144.08 Y90.3 E18.65364
G1 X146.175 Y90.301 E18.72332
G1 X146.873 Y90.31 E18.74654
G1 X147.774 Y90.361 E18.77655
G1 X148.668 Y90.493 E18.80661
G1 X149.546 Y90.702 E18.83663
G1 X150.403 Y90.989 E18.86669
G1 X151.23 Y91.35 E18.8967
G1 X152.023 Y91.783 E18.92675
G1 X152.774 Y92.284 E18.95678
G1 X153.478 Y92.85 E18.98682
G1 X154.129 Y93.476 E19.01686
G1 X154.722 Y94.157 E19.04689
G1 X155.252 Y94.888 E19.07692
G1 X155.716 Y95.663 E19.10697
G1 X156.11 Y96.476 E19.13702
G1 X156.43 Y97.32 E19.16704
G1 X156.674 Y98.19 E19.19709
G1 X156.84 Y99.078 E19.22714
G1 X156.937 Y100.223 E19.26536
G1 X156.946 Y100.544 E19.27604
G1 X156.95 Y100.83 E19.28555
G1 X156.949 Y108.915 E19.55446
G1 X156.939 Y109.636 E19.57844
G1 X156.887 Y110.538 E19.60849
G1 X156.754 Y111.431 E19.63852
G1 X156.544 Y112.31 E19.66858
G1 X156.257 Y113.166 E19.69861
G1 X155.895 Y113.993 E19.72863
G1 X155.461 Y114.785 E19.75867
G1 X154.959 Y115.536 E19.78872
G1 X154.392 Y116.239 E19.81876
G1 X153.766 Y116.89 E19.84879
G1 X153.084 Y117.482 E19.87883
G1 X152.457 Y117.942 E19.9047
G1 X151.587 Y118.531 E19.93964
G1 X149.454 Y120.02 E20.02616
G1 X147.413 Y121.531 E20.11062
G1 X145.412 Y123.103 E20.19526
G1 X143.463 Y124.726 E20.27961
G1 X141.562 Y126.4 E20.36386
G1 X140.844 Y127.05 E20.39608
G1 X140.148 Y127.626 E20.42612
G1 X139.405 Y128.138 E20.45614
G1 X138.618 Y128.583 E20.48621
G1 X137.796 Y128.956 E20.51623
G1 X136.944 Y129.255 E20.54626
G1 X136.069 Y129.477 E20.57629
G1 X135.177 Y129.621 E20.60634
G1 X134.309 Y129.685 E20.63529
G1 X133.983 Y129.695 E20.64613
G1 X133.67 Y129.7 E20.65655
G1 X131.561 Y129.699 E20.72669
G1 X130.862 Y129.689 E20.74994
G1 X129.961 Y129.636 E20.77996
G1 X129.151 Y129.519 E20.80718
G1 X128.9 Y129.472 E20.81568
G1 X126.417 Y128.975 E20.8999
G1 X123.922 Y128.549 E20.98408
G1 X121.382 Y128.188 E21.06941
G1 X118.882 Y127.904 E21.1531
G1 X116.329 Y127.687 E21.23832
G1 X113.799 Y127.545 E21.3226
G1 X111.265 Y127.474 E21.40691
G1 X108.731 Y127.474 E21.49119
G1 X106.167 Y127.547 E21.57651
G1 X103.661 Y127.69 E21.65999
G1 X101.108 Y127.908 E21.74521
G1 X98.597 Y128.194 E21.82927
G1 X96.094 Y128.551 E21.91336
G1 X93.573 Y128.984 E21.99844
G1 X92.198 Y129.25 E22.04502
G1 X91 Y129.491 E22.08566
G1 X90.108 Y129.629 E22.11569
G1 X89.277 Y129.687 E22.14339
G1 X88.958 Y129.696 E22.15401
G1 X88.67 Y129.7 E22.16359
G1 X86.562 Y129.699 E22.2337
G1 X85.859 Y129.689 E22.25708
G1 X84.957 Y129.636 E22.28713
G1 X84.064 Y129.504 E22.31716
G1 X83.186 Y129.293 E22.34719
G1 X82.33 Y129.005 E22.37723
G1 X81.503 Y128.643 E22.40726
G1 X80.711 Y128.209 E22.4373
G1 X79.96 Y127.707 E22.46734
G1 X79.264 Y127.145 E22.49709
G1 X78.913 Y126.836 E22.51265
G1 X77.404 Y125.472 E22.5803
G1 X75.479 Y123.827 E22.66452
G1 X73.47 Y122.206 E22.75038
G1 X71.493 Y120.703 E22.83298
G1 X69.413 Y119.212 E22.9181
G1 X67.743 Y118.082 E22.98516
G1 X67.418 Y117.855 E22.99835
G1 X66.702 Y117.306 E23.02836
G1 X66.036 Y116.695 E23.05842
G1 X65.427 Y116.028 E23.08846
G1 X64.88 Y115.31 E23.11848
G1 X64.398 Y114.546 E23.14853
G1 X63.986 Y113.742 E23.17857
G1 X63.647 Y112.905 E23.20861
G1 X63.383 Y112.042 E23.23863
G1 X63.196 Y111.158 E23.26868
G1 X63.088 Y110.262 E23.29869
G1 X63.063 Y109.777 E23.31485
G1 X63.054 Y109.454 E23.32559
G1 X63.05 Y109.17 E23.33504
G1 X63.051 Y101.036 E23.60558
G1 X63.06 Y100.371 E23.6277
G1 X63.112 Y99.469 E23.65775
