;FLAVOR:Marlin
;TIME:2530
;Filament used: 1.68237m
;Layer height: 0.2
;MINX:74
;MINY:78
;MINZ:0.2
;MAXX:146
;MAXY:142
;MAXZ:4
;Generated with Cura_SteamEngine 4.8.0
M140 S60
M105
M190 S60
M104 S200
M105
M109 S200
M82 ;absolute extrusion mode
; Ender 3 Custom Start G-code
G92 E0 ; Reset Extruder
G28 ; Home all axes
G1 Z2.0 F3000 ; Move Z Axis up little to prevent scratching of Heat Bed
G1 X0.1 Y20 Z0.3 F5000.0 ; Move to start position
G1 X0.1 Y200.0 Z0.3 F1500.0 E15 ; Draw the first line
G1 X0.4 Y200.0 Z0.3 F5000.0 ; Move to side a little
G1 X0.4 Y20 Z0.3 F1500.0 E30 ; Draw the second line
G92 E0 ; Reset Extruder
G1 Z2.0 F3000 ; Move Z Axis up little to prevent scratching of Heat Bed
G1 X5 Y20 Z0.3 F5000.0 ; Move over to prevent blob squish
G1 X0.4 Y20 Z0.3 F1500.0 E30 ; Draw the second line
G92 E0 ; Reset Extruder
G1 Z2.0 F3000 ; Move Z Axis up little to prevent scratching of Heat Bed
G1 X5 Y20 Z0.3 F5000.0 ; Move over to prevent blob squish
G92 E0
G92 E0
G1 F1500 E-6
;LAYER_COUNT:20
;LAYER:0
M107
G0 F6000 X77.198 Y81.264 Z0.2
;TYPE:SKIRT
G1 F1500 E0
G1 F1200 X77.886 Y80.627 E0.03119
G1 X78.626 Y80.051 E0.06237
G1 X79.412 Y79.539 E0.09357
G1 X80.239 Y79.097 E0.12476
G1 X81.101 Y78.727 E0.15596
G1 X81.991 Y78.431 E0.18716
G1 X82.903 Y78.213 E0.21835
G1 X83.83 Y78.072 E0.24953
G1 X84.701 Y78.013 E0.27857
G1 X85.022 Y78.004 E0.28925
G1 X85.33 Y78 E0.29949
G1 X134.293 Y78 E1.92801
G1 X135.149 Y78.011 E1.95648
G1 X136.085 Y78.065 E1.98767
G1 X137.013 Y78.197 E2.01884
G1 X137.927 Y78.409 E2.05005
G1 X138.819 Y78.698 E2.08124
G1 X139.684 Y79.061 E2.11244
G1 X140.514 Y79.497 E2.14362
G1 X141.305 Y80.002 E2.17483
G1 X142.049 Y80.573 E2.20603
G1 X142.742 Y81.205 E2.23722
G1 X143.379 Y81.893 E2.26841
G1 X143.954 Y82.634 E2.2996
G1 X144.465 Y83.42 E2.33078
G1 X144.907 Y84.248 E2.362
G1 X145.276 Y85.11 E2.39319
G1 X145.571 Y86 E2.42437
G1 X145.789 Y86.912 E2.45556
G1 X145.929 Y87.84 E2.48678
G1 X145.987 Y88.701 E2.51548
G1 X145.996 Y89.021 E2.52612
G1 X146 Y89.33 E2.5364
G1 X145.999 Y130.4 E3.9024
G1 X145.99 Y131.127 E3.92658
G1 X145.939 Y132.064 E3.95779
G1 X145.807 Y132.992 E3.98897
G1 X145.598 Y133.906 E4.02015
G1 X145.311 Y134.799 E4.05135
G1 X144.949 Y135.665 E4.08257
G1 X144.515 Y136.496 E4.11375
G1 X144.011 Y137.287 E4.14494
G1 X143.442 Y138.032 E4.17612
G1 X142.811 Y138.727 E4.20734
G1 X142.124 Y139.365 E4.23853
G1 X141.385 Y139.942 E4.26971
G1 X140.599 Y140.454 E4.30091
G1 X139.773 Y140.897 E4.33209
G1 X138.911 Y141.269 E4.36331
G1 X138.022 Y141.565 E4.39448
G1 X137.11 Y141.785 E4.42568
G1 X136.183 Y141.926 E4.45687
G1 X135.299 Y141.987 E4.48634
G1 X134.978 Y141.996 E4.49702
G1 X134.67 Y142 E4.50726
G1 X85.565 Y141.999 E6.1405
G1 X84.867 Y141.99 E6.16372
G1 X83.931 Y141.938 E6.1949
G1 X83.002 Y141.806 E6.22611
G1 X82.088 Y141.596 E6.2573
G1 X81.195 Y141.309 E6.2885
G1 X80.33 Y140.946 E6.3197
G1 X79.499 Y140.512 E6.35088
G1 X78.708 Y140.008 E6.38208
G1 X77.963 Y139.438 E6.41327
G1 X77.269 Y138.807 E6.44447
G1 X76.632 Y138.12 E6.47563
G1 X76.055 Y137.38 E6.50684
G1 X75.543 Y136.594 E6.53804
G1 X75.1 Y135.767 E6.56925
G1 X74.729 Y134.906 E6.60043
G1 X74.433 Y134.016 E6.63162
G1 X74.214 Y133.104 E6.66282
G1 X74.073 Y132.177 E6.69401
G1 X74.013 Y131.288 E6.72364
G1 X74.004 Y130.955 E6.73472
G1 X74 Y130.658 E6.7446
G1 X74.001 Y89.525 E8.11269
G1 X74.01 Y88.86 E8.13481
G1 X74.063 Y87.924 E8.16599
G1 X74.195 Y86.995 E8.1972
G1 X74.406 Y86.081 E8.2284
G1 X74.694 Y85.189 E8.25958
G1 X75.057 Y84.324 E8.29078
G1 X75.492 Y83.493 E8.32197
G1 X75.996 Y82.703 E8.35314
G1 X76.566 Y81.958 E8.38434
G1 X77.198 Y81.264 E8.41556
G0 F6000 X77.589 Y81.439
G1 F1200 X78.274 Y80.823 E8.4462
G1 X79.01 Y80.27 E8.47682
G1 X79.791 Y79.782 E8.50745
G1 X80.611 Y79.364 E8.53806
G1 X81.465 Y79.019 E8.5687
G1 X82.345 Y78.749 E8.59931
G1 X83.245 Y78.557 E8.62992
G1 X84.159 Y78.443 E8.66056
G1 X84.712 Y78.413 E8.67898
G1 X85.033 Y78.404 E8.68966
G1 X85.33 Y78.4 E8.69954
G1 X134.293 Y78.4 E10.32805
G1 X135.143 Y78.411 E10.35632
G1 X136.062 Y78.464 E10.38694
G1 X136.973 Y78.597 E10.41756
G1 X137.869 Y78.808 E10.44818
G1 X138.743 Y79.096 E10.47879
G1 X139.59 Y79.459 E10.50944
G1 X140.401 Y79.894 E10.54004
G1 X141.171 Y80.398 E10.57065
G1 X141.895 Y80.967 E10.60128
G1 X142.567 Y81.597 E10.63192
G1 X143.182 Y82.282 E10.66254
G1 X143.735 Y83.018 E10.69315
G1 X144.222 Y83.799 E10.72377
G1 X144.639 Y84.62 E10.75439
G1 X144.984 Y85.474 E10.78503
G1 X145.253 Y86.354 E10.81563
G1 X145.445 Y87.255 E10.84627
G1 X145.558 Y88.168 E10.87687
G1 X145.587 Y88.712 E10.89499
G1 X145.596 Y89.032 E10.90564
G1 X145.6 Y89.33 E10.91555
G1 X145.599 Y130.395 E12.28138
G1 X145.59 Y131.122 E12.30556
G1 X145.539 Y132.041 E12.33617
G1 X145.408 Y132.953 E12.36682
G1 X145.198 Y133.849 E12.39743
G1 X144.912 Y134.724 E12.42805
G1 X144.551 Y135.571 E12.45867
G1 X144.117 Y136.383 E12.48929
G1 X143.615 Y137.155 E12.51992
G1 X143.047 Y137.88 E12.55055
G1 X142.419 Y138.553 E12.58117
G1 X141.735 Y139.169 E12.61178
G1 X141 Y139.723 E12.6424
G1 X140.22 Y140.212 E12.67302
G1 X139.4 Y140.631 E12.70364
G1 X138.547 Y140.977 E12.73426
G1 X137.667 Y141.248 E12.76489
G1 X136.767 Y141.441 E12.7955
G1 X135.853 Y141.556 E12.82614
G1 X135.288 Y141.587 E12.84496
G1 X134.967 Y141.596 E12.85564
G1 X134.67 Y141.6 E12.86552
G1 X85.57 Y141.599 E14.49859
G1 X84.872 Y141.59 E14.52181
G1 X83.953 Y141.538 E14.55242
G1 X83.042 Y141.407 E14.58304
G1 X82.146 Y141.197 E14.61364
G1 X81.271 Y140.91 E14.64427
G1 X80.424 Y140.548 E14.67491
G1 X79.612 Y140.114 E14.70553
G1 X78.841 Y139.612 E14.73613
G1 X78.116 Y139.044 E14.76677
G1 X77.443 Y138.415 E14.7974
G1 X76.828 Y137.731 E14.828
G1 X76.274 Y136.996 E14.85861
G1 X75.786 Y136.215 E14.88924
G1 X75.367 Y135.395 E14.91987
G1 X75.021 Y134.542 E14.95048
G1 X74.751 Y133.662 E14.9811
G1 X74.558 Y132.761 E15.01175
G1 X74.444 Y131.848 E15.04235
G1 X74.413 Y131.277 E15.06137
G1 X74.404 Y130.944 E15.07245
G1 X74.4 Y130.658 E15.08196
G1 X74.401 Y89.531 E16.44985
G1 X74.41 Y88.866 E16.47197
G1 X74.462 Y87.946 E16.50262
G1 X74.594 Y87.035 E16.53324
G1 X74.805 Y86.139 E16.56385
G1 X75.092 Y85.264 E16.59448
G1 X75.455 Y84.418 E16.6251
G1 X75.889 Y83.606 E16.65572
G1 X76.392 Y82.835 E16.68634
G1 X76.961 Y82.111 E16.71697
G1 X77.589 Y81.439 E16.74756
G0 F6000 X77.981 Y81.617
G1 F1200 X78.662 Y81.024 E16.77759
G1 X79.394 Y80.494 E16.80765
G1 X80.169 Y80.031 E16.83768
G1 X80.982 Y79.638 E16.86771
G1 X81.827 Y79.318 E16.89776
G1 X82.696 Y79.075 E16.92778
G1 X83.584 Y78.909 E16.95782
G1 X84.723 Y78.813 E16.99584
G1 X85.044 Y78.804 E17.00652
G1 X85.33 Y78.8 E17.01603
G1 X134.293 Y78.8 E18.64455
G1 X135.137 Y78.811 E18.67262
G1 X136.039 Y78.864 E18.70268
G1 X136.932 Y78.996 E18.7327
G1 X137.81 Y79.207 E18.76273
G1 X138.666 Y79.495 E18.79277
G1 X139.493 Y79.857 E18.8228
G1 X140.285 Y80.292 E18.85285
G1 X141.036 Y80.794 E18.8829
G1 X141.739 Y81.361 E18.91294
G1 X142.389 Y81.988 E18.94297
G1 X142.981 Y82.67 E18.97301
G1 X143.511 Y83.401 E19.00304
G1 X143.973 Y84.177 E19.03308
G1 X144.366 Y84.99 E19.06311
G1 X144.684 Y85.835 E19.09314
G1 X144.927 Y86.705 E19.12319
G1 X145.092 Y87.593 E19.15323
G1 X145.187 Y88.723 E19.19094
G1 X145.196 Y89.043 E19.20159
G1 X145.2 Y89.33 E19.21114
G1 X145.199 Y130.39 E20.5768
G1 X145.19 Y131.117 E20.60098
G1 X145.139 Y132.019 E20.63103
G1 X145.008 Y132.913 E20.66108
G1 X144.799 Y133.791 E20.6911
G1 X144.513 Y134.648 E20.72115
G1 X144.152 Y135.476 E20.75119
G1 X143.72 Y136.268 E20.7812
G1 X143.219 Y137.02 E20.81125
G1 X142.653 Y137.724 E20.8413
G1 X142.028 Y138.375 E20.87131
G1 X141.347 Y138.969 E20.90137
G1 X140.616 Y139.5 E20.93142
G1 X139.842 Y139.964 E20.96143
G1 X139.029 Y140.358 E20.99148
G1 X138.185 Y140.678 E21.0215
G1 X137.315 Y140.923 E21.05157
G1 X136.428 Y141.089 E21.08158
G1 X135.277 Y141.187 E21.12
G1 X134.956 Y141.196 E21.13068
G1 X134.67 Y141.2 E21.1402
G1 X85.575 Y141.199 E22.7731
G1 X84.877 Y141.19 E22.79632
G1 X83.976 Y141.139 E22.82633
G1 X83.082 Y141.007 E22.85639
G1 X82.204 Y140.798 E22.88641
G1 X81.347 Y140.511 E22.91647
G1 X80.52 Y140.15 E22.94648
G1 X79.727 Y139.717 E22.97653
G1 X78.976 Y139.216 E23.00656
G1 X78.272 Y138.65 E23.0366
G1 X77.621 Y138.024 E23.06664
G1 X77.028 Y137.343 E23.09668
G1 X76.498 Y136.612 E23.12671
G1 X76.034 Y135.837 E23.15675
G1 X75.64 Y135.024 E23.1868
G1 X75.32 Y134.18 E23.21682
G1 X75.076 Y133.31 E23.24687
G1 X74.91 Y132.422 E23.27692
G1 X74.813 Y131.267 E23.31547
G1 X74.804 Y130.934 E23.32655
G1 X74.8 Y130.658 E23.33573
G1 X74.801 Y89.536 E24.70345
G1 X74.81 Y88.871 E24.72557
G1 X74.862 Y87.969 E24.75563
G1 X74.994 Y87.076 E24.78565
G1 X75.204 Y86.198 E24.81568
G1 X75.491 Y85.341 E24.84574
G1 X75.853 Y84.514 E24.87576
G1 X76.286 Y83.722 E24.90578
G1 X76.788 Y82.971 E24.93583
G1 X77.355 Y82.267 E24.96589
G1 X77.981 Y81.617 E24.99591
G1 F1500 E18.99591
;MESH:Body1.stl
G0 F6000 X84.588 Y88.589
G0 X85.414 Y89.414
G0 X85.804 Y91.33
G0 X86.265 Y92.873
G0 X86.519 Y93.255
G0 X86.841 Y93.559
G0 X87.231 Y93.783
G0 X87.476 Y93.855
G0 X88.604 Y94.016
;TYPE:WALL-INNER
G1 F1500 E24.99591
G1 F1200 X89.053 Y93.822 E25.01218
G1 X89.443 Y93.53 E25.02838
G1 X89.757 Y93.157 E25.0446
G1 X89.977 Y92.72 E25.06087
G1 X90.09 Y92.244 E25.07714
G1 X90.09 Y91.756 E25.09337
G1 X89.977 Y91.28 E25.10964
G1 X89.757 Y90.843 E25.12592
G1 X89.443 Y90.47 E25.14213
G1 X89.053 Y90.178 E25.15834
G1 X88.635 Y89.998 E25.17347
G1 X88.602 Y89.984 E25.17467
G1 X88.112 Y89.9 E25.1912
G1 X87.635 Y89.928 E25.20709
G1 X87.403 Y89.997 E25.21514
G1 X87.167 Y90.068 E25.22334
G1 X86.742 Y90.313 E25.23966
G1 X86.382 Y90.656 E25.2562
G1 X86.12 Y91.056 E25.2721
G1 X85.997 Y91.39 E25.28394
G1 X85.952 Y91.514 E25.28833
G1 X85.896 Y92 E25.3046
G1 X85.952 Y92.486 E25.32087
G1 X85.997 Y92.609 E25.32522
G1 X86.121 Y92.946 E25.33717
G1 X86.395 Y93.359 E25.35365
G1 X86.744 Y93.688 E25.36961
G1 X87.167 Y93.932 E25.38585
G1 X87.636 Y94.072 E25.40213
G1 X88.131 Y94.099 E25.41861
G1 X88.604 Y94.016 E25.43459
G0 F6000 X88.488 Y93.63
;TYPE:WALL-OUTER
G1 F1200 X88.851 Y93.473 E25.44774
G1 X89.167 Y93.237 E25.46086
G1 X89.421 Y92.935 E25.47398
G1 X89.599 Y92.582 E25.48713
G1 X89.69 Y92.197 E25.50029
G1 X89.69 Y91.803 E25.5134
G1 X89.599 Y91.418 E25.52655
G1 X89.421 Y91.065 E25.5397
G1 X89.167 Y90.763 E25.55283
G1 X88.851 Y90.527 E25.56595
G1 X88.487 Y90.37 E25.57913
G1 X88.09 Y90.302 E25.59253
G1 X87.705 Y90.325 E25.60535
G1 X87.326 Y90.438 E25.61851
G1 X86.983 Y90.636 E25.63168
G1 X86.691 Y90.914 E25.64509
G1 X86.48 Y91.237 E25.65792
G1 X86.344 Y91.607 E25.67103
G1 X86.299 Y92 E25.68419
G1 X86.344 Y92.393 E25.69735
G1 X86.48 Y92.764 E25.71049
G1 X86.703 Y93.1 E25.7239
G1 X86.984 Y93.365 E25.73675
G1 X87.326 Y93.562 E25.74988
G1 X87.705 Y93.675 E25.76303
G1 X88.107 Y93.697 E25.77642
G1 X88.488 Y93.63 E25.78929
G0 F6000 X88.614 Y94.051
G1 F1500 E19.78929
G0 F6000 X89.934 Y93.273
G0 X88.695 Y92.455
G0 X120.27 Y94.93
G0 X119.127 Y95.844
G0 X121 Y96.554
;TYPE:WALL-INNER
G1 F1500 E25.78929
G1 F1200 X121.491 Y96.498 E25.80572
G1 X121.956 Y96.336 E25.8221
G1 X122.374 Y96.073 E25.83853
G1 X122.723 Y95.724 E25.85494
G1 X122.986 Y95.306 E25.87137
G1 X123.148 Y94.841 E25.88775
G1 X123.204 Y94.35 E25.90418
G1 X123.148 Y93.859 E25.92062
G1 X122.986 Y93.394 E25.937
G1 X122.723 Y92.976 E25.95342
G1 X122.374 Y92.627 E25.96984
G1 X121.956 Y92.364 E25.98626
G1 X121.491 Y92.202 E26.00264
G1 X121 Y92.146 E26.01908
G1 X120.509 Y92.202 E26.03552
G1 X120.044 Y92.364 E26.05189
G1 X119.626 Y92.627 E26.06832
G1 X119.277 Y92.976 E26.08473
G1 X119.014 Y93.394 E26.10116
G1 X118.852 Y93.859 E26.11754
G1 X118.796 Y94.35 E26.13397
G1 X118.852 Y94.841 E26.15041
G1 X119.014 Y95.306 E26.16679
G1 X119.277 Y95.724 E26.18321
G1 X119.626 Y96.073 E26.19963
G1 X120.044 Y96.336 E26.21606
G1 X120.509 Y96.498 E26.23243
G1 X121 Y96.554 E26.24887
G0 F6000 X121 Y96.151
;TYPE:WALL-OUTER
G1 F1200 X121.401 Y96.106 E26.26229
G1 X121.781 Y95.973 E26.27568
G1 X122.123 Y95.758 E26.28912
G1 X122.408 Y95.473 E26.30252
G1 X122.623 Y95.131 E26.31596
G1 X122.756 Y94.751 E26.32935
G1 X122.801 Y94.35 E26.34277
G1 X122.756 Y93.949 E26.35619
G1 X122.623 Y93.569 E26.36958
G1 X122.408 Y93.227 E26.38302
G1 X122.123 Y92.942 E26.39642
G1 X121.781 Y92.727 E26.40986
G1 X121.401 Y92.594 E26.42325
G1 X121 Y92.549 E26.43667
G1 X120.599 Y92.594 E26.45009
G1 X120.219 Y92.727 E26.46348
G1 X119.877 Y92.942 E26.47692
G1 X119.592 Y93.227 E26.49033
G1 X119.377 Y93.569 E26.50376
G1 X119.244 Y93.949 E26.51715
G1 X119.199 Y94.35 E26.53057
G1 X119.244 Y94.751 E26.54399
G1 X119.377 Y95.131 E26.55738
G1 X119.592 Y95.473 E26.57082
G1 X119.877 Y95.758 E26.58423
G1 X120.219 Y95.973 E26.59766
G1 X120.599 Y96.106 E26.61105
G1 X121 Y96.151 E26.62447
G0 F6000 X121 Y96.591
G1 F1500 E20.62447
G0 F6000 X121.534 Y96.685
G0 X121.206 Y95.259
G0 X125.435 Y108.256
G0 X124.982 Y106.867
G0 X123.783 Y108.065
G0 X123.469 Y108.502
G0 X123.246 Y108.966
G0 X123.105 Y109.475
G0 X123.058 Y110
G0 X123.105 Y110.525
G0 X123.246 Y111.034
G0 X123.482 Y111.517
G0 X123.785 Y111.935
G0 X124.167 Y112.3
G0 X125.585 Y113.074
;TYPE:WALL-INNER
G1 F1500 E26.62447
G1 F1200 X126.151 Y113.098 E26.64332
G1 X126.69 Y113.025 E26.66141
G1 X127.22 Y112.853 E26.67994
G1 X127.709 Y112.589 E26.69842
G1 X128.144 Y112.242 E26.71693
G1 X128.512 Y111.822 E26.7355
G1 X128.799 Y111.335 E26.7543
G1 X128.991 Y110.825 E26.77243
G1 X129.09 Y110.278 E26.79092
G1 X129.09 Y109.722 E26.80941
G1 X128.991 Y109.173 E26.82797
G1 X128.789 Y108.644 E26.8468
G1 X128.51 Y108.177 E26.86489
G1 X128.145 Y107.758 E26.88337
G1 X127.709 Y107.411 E26.90191
G1 X127.22 Y107.147 E26.92039
G1 X126.688 Y106.975 E26.93899
G1 X126.127 Y106.901 E26.95781
G1 X125.583 Y106.926 E26.97592
G1 X125.041 Y107.049 E26.99441
G1 X124.53 Y107.268 E27.0129
G1 X124.066 Y107.574 E27.03138
G1 X123.662 Y107.959 E27.04994
G1 X123.331 Y108.42 E27.06882
G1 X123.095 Y108.91 E27.08691
G1 X122.947 Y109.446 E27.1054
G1 X122.897 Y110 E27.12391
G1 X122.947 Y110.554 E27.14241
G1 X123.095 Y111.091 E27.16093
G1 X123.344 Y111.601 E27.17981
G1 X123.663 Y112.041 E27.19789
G1 X124.066 Y112.426 E27.21642
G1 X124.53 Y112.732 E27.23491
G1 X125.041 Y112.951 E27.2534
G1 X125.585 Y113.074 E27.27195
G0 F6000 X125.638 Y112.676
;TYPE:WALL-OUTER
G1 F1200 X126.132 Y112.697 E27.2884
G1 X126.601 Y112.633 E27.30414
G1 X127.062 Y112.484 E27.32025
G1 X127.488 Y112.254 E27.33636
G1 X127.867 Y111.952 E27.35247
G1 X128.186 Y111.587 E27.3686
G1 X128.437 Y111.162 E27.38501
G1 X128.604 Y110.718 E27.40079
G1 X128.69 Y110.242 E27.41688
G1 X128.69 Y109.758 E27.43298
G1 X128.604 Y109.281 E27.4491
G1 X128.428 Y108.819 E27.46554
G1 X128.185 Y108.413 E27.48128
G1 X127.867 Y108.048 E27.49738
G1 X127.488 Y107.746 E27.5135
G1 X127.062 Y107.516 E27.5296
G1 X126.6 Y107.367 E27.54575
G1 X126.11 Y107.302 E27.56219
G1 X125.637 Y107.324 E27.57793
G1 X125.165 Y107.431 E27.59403
G1 X124.72 Y107.622 E27.61014
G1 X124.316 Y107.888 E27.62623
G1 X123.965 Y108.223 E27.64236
G1 X123.676 Y108.625 E27.65883
G1 X123.471 Y109.051 E27.67456
G1 X123.342 Y109.518 E27.69067
G1 X123.299 Y110 E27.70676
G1 X123.342 Y110.482 E27.72286
G1 X123.471 Y110.949 E27.73897
G1 X123.688 Y111.394 E27.75544
G1 X123.966 Y111.777 E27.77118
G1 X124.316 Y112.112 E27.7873
G1 X124.72 Y112.378 E27.80338
G1 X125.165 Y112.569 E27.81949
G1 X125.638 Y112.676 E27.83562
G0 F6000 X125.58 Y113.112
G1 F1500 E21.83562
G0 F6000 X124.982 Y113.133
G0 X125.434 Y111.743
G0 X121.206 Y124.741
G0 X121.534 Y123.315
G0 X122.596 Y124.377
G0 X122.84 Y124.765
G0 X122.99 Y125.196
G0 X123.042 Y125.65
G0 X122.99 Y126.104
G0 X122.84 Y126.535
G0 X122.596 Y126.923
G0 X122.273 Y127.246
G0 X121.885 Y127.49
G0 X121.642 Y127.574
