;FLAVOR:Marlin
;TIME:3492
;Filament used: 1.69551m
;Layer height: 0.2
;MINX:85.012
;MINY:85.013
;MINZ:0.2
;MAXX:134.988
;MAXY:134.987
;MAXZ:14
;Generated with Cura_SteamEngine 4.8.0
M140 S60
M105
M190 S60
M104 S200
M105
M109 S200
M82 ;absolute extrusion mode
; Ender 3 Custom Start G-code
G92 E0 ; Reset Extruder
G28 ; Home all axes
G1 Z2.0 F3000 ; Move Z Axis up little to prevent scratching of Heat Bed
G1 X0.1 Y20 Z0.3 F5000.0 ; Move to start position
G1 X0.1 Y200.0 Z0.3 F1500.0 E15 ; Draw the first line
G1 X0.4 Y200.0 Z0.3 F5000.0 ; Move to side a little
G1 X0.4 Y20 Z0.3 F1500.0 E30 ; Draw the second line
G92 E0 ; Reset Extruder
G1 Z2.0 F3000 ; Move Z Axis up little to prevent scratching of Heat Bed
G1 X5 Y20 Z0.3 F5000.0 ; Move over to prevent blob squish
G1 X0.4 Y20 Z0.3 F1500.0 E30 ; Draw the second line
G92 E0 ; Reset Extruder
G1 Z2.0 F3000 ; Move Z Axis up little to prevent scratching of Heat Bed
G1 X5 Y20 Z0.3 F5000.0 ; Move over to prevent blob squish
G92 E0
G92 E0
G1 F1500 E-6
;LAYER_COUNT:70
;LAYER:0
M107
G0 F6000 X92.563 Y92.104 Z0.2
;TYPE:SKIRT
G1 F1500 E0
G1 F1200 X92.776 Y91.897 E0.00988
G1 X92.947 Y91.735 E0.01771
G1 X93.242 Y91.465 E0.03101
G1 X93.703 Y91.059 E0.05145
G1 X93.943 Y90.853 E0.06197
G1 X94.079 Y90.74 E0.06785
G1 X94.33 Y90.538 E0.07856
G1 X94.9 Y90.092 E0.10263
G1 X95.222 Y89.85 E0.11603
G1 X95.622 Y89.564 E0.13239
G1 X96.082 Y89.248 E0.15095
G1 X96.36 Y89.063 E0.16206
G1 X96.587 Y88.917 E0.17103
G1 X96.883 Y88.734 E0.18261
G1 X97.437 Y88.402 E0.20409
G1 X97.718 Y88.239 E0.21489
G1 X97.902 Y88.136 E0.22191
G1 X98.19 Y87.98 E0.2328
G1 X98.731 Y87.698 E0.25309
G1 X99.08 Y87.524 E0.26606
G1 X99.52 Y87.318 E0.28222
G1 X100.163 Y87.032 E0.30563
G1 X100.46 Y86.905 E0.31637
G1 X100.66 Y86.823 E0.32356
G1 X101.005 Y86.689 E0.33587
G1 X101.568 Y86.48 E0.35584
G1 X101.858 Y86.377 E0.36608
G1 X102.067 Y86.306 E0.37342
G1 X102.421 Y86.192 E0.38579
G1 X103.089 Y85.99 E0.409
G1 X103.425 Y85.894 E0.42063
G1 X103.66 Y85.831 E0.42872
G1 X103.972 Y85.752 E0.43942
G1 X104.563 Y85.612 E0.45962
G1 X104.897 Y85.539 E0.47099
G1 X105.083 Y85.501 E0.47731
G1 X105.422 Y85.437 E0.48878
G1 X106.097 Y85.321 E0.51156
G1 X106.423 Y85.27 E0.52254
G1 X106.671 Y85.235 E0.53087
G1 X107.016 Y85.192 E0.54243
G1 X107.585 Y85.13 E0.56147
G1 X107.892 Y85.101 E0.57172
G1 X108.115 Y85.083 E0.57916
G1 X108.492 Y85.059 E0.59173
G1 X109.163 Y85.028 E0.61407
G1 X109.488 Y85.018 E0.62489
G1 X109.728 Y85.014 E0.63287
G1 X110.074 Y85.013 E0.64438
G1 X110.682 Y85.022 E0.6646
G1 X111.007 Y85.032 E0.67542
G1 X111.187 Y85.04 E0.68141
G1 X111.521 Y85.06 E0.69254
G1 X112.242 Y85.114 E0.71659
G1 X112.649 Y85.152 E0.73018
G1 X113.098 Y85.206 E0.74522
G1 X113.726 Y85.293 E0.76631
G1 X114.059 Y85.344 E0.77751
G1 X114.318 Y85.388 E0.78625
G1 X114.657 Y85.451 E0.79772
G1 X115.27 Y85.575 E0.81852
G1 X115.575 Y85.642 E0.82891
G1 X115.825 Y85.7 E0.83744
G1 X116.16 Y85.783 E0.84892
G1 X116.665 Y85.917 E0.8663
G1 X116.993 Y86.009 E0.87763
G1 X117.234 Y86.081 E0.886
G1 X117.549 Y86.181 E0.89699
G1 X118.191 Y86.394 E0.91949
G1 X118.517 Y86.508 E0.93097
G1 X118.705 Y86.577 E0.93763
G1 X119.012 Y86.695 E0.94857
G1 X119.6 Y86.931 E0.96965
G1 X119.94 Y87.073 E0.9819
G1 X120.092 Y87.14 E0.98743
G1 X120.38 Y87.272 E0.99796
G1 X121.057 Y87.594 E1.0229
G1 X121.375 Y87.752 E1.03471
G1 X121.532 Y87.833 E1.04058
G1 X121.831 Y87.993 E1.05186
G1 X122.452 Y88.338 E1.07549
G1 X122.769 Y88.522 E1.08768
G1 X122.969 Y88.642 E1.09544
G1 X123.232 Y88.804 E1.10571
G1 X123.7 Y89.103 E1.12418
G1 X124.094 Y89.365 E1.13992
G1 X124.419 Y89.593 E1.15313
G1 X124.994 Y90.012 E1.17679
G1 X125.262 Y90.214 E1.18795
G1 X125.432 Y90.346 E1.19511
G1 X125.709 Y90.568 E1.20692
G1 X126.184 Y90.962 E1.22744
G1 X126.454 Y91.193 E1.23926
G1 X126.62 Y91.34 E1.24664
G1 X126.841 Y91.542 E1.25659
G1 X127.29 Y91.962 E1.27704
G1 X127.554 Y92.217 E1.28925
G1 X127.738 Y92.401 E1.29791
G1 X127.957 Y92.626 E1.30835
G1 X128.4 Y93.095 E1.32981
G1 X128.648 Y93.367 E1.34205
G1 X128.784 Y93.521 E1.34888
G1 X128.978 Y93.746 E1.35876
G1 X129.381 Y94.228 E1.37966
G1 X129.606 Y94.506 E1.39156
G1 X129.721 Y94.653 E1.39776
G1 X129.922 Y94.918 E1.40883
G1 X130.354 Y95.506 E1.43309
G1 X130.614 Y95.876 E1.44813
G1 X130.808 Y96.168 E1.45979
G1 X131.214 Y96.799 E1.48475
G1 X131.417 Y97.127 E1.49758
G1 X131.533 Y97.322 E1.50513
G1 X131.682 Y97.581 E1.51507
G1 X131.963 Y98.084 E1.53423
G1 X132.134 Y98.403 E1.54627
G1 X132.229 Y98.587 E1.55315
G1 X132.373 Y98.875 E1.56386
G1 X132.67 Y99.494 E1.5867
G1 X132.836 Y99.857 E1.59997
G1 X133.022 Y100.291 E1.61568
G1 X133.264 Y100.884 E1.63698
G1 X133.384 Y101.192 E1.64798
G1 X133.471 Y101.425 E1.65625
G1 X133.594 Y101.772 E1.66849
G1 X133.781 Y102.329 E1.68804
G1 X133.881 Y102.644 E1.69903
G1 X133.927 Y102.796 E1.70431
G1 X134.02 Y103.119 E1.71549
G1 X134.22 Y103.861 E1.74105
G1 X134.32 Y104.264 E1.75486
G1 X134.417 Y104.7 E1.76972
G1 X134.554 Y105.373 E1.79256
G1 X134.621 Y105.732 E1.8047
G1 X134.654 Y105.927 E1.81128
G1 X134.702 Y106.24 E1.82181
G1 X134.791 Y106.877 E1.84321
G1 X134.836 Y107.242 E1.85544
G1 X134.858 Y107.45 E1.8624
G1 X134.887 Y107.767 E1.87298
G1 X134.936 Y108.407 E1.89433
G1 X134.957 Y108.763 E1.90619
G1 X134.97 Y109.058 E1.91601
G1 X134.98 Y109.366 E1.92626
G1 X134.988 Y109.867 E1.94293
G1 X134.988 Y110.185 E1.95351
G1 X134.985 Y110.417 E1.96122
G1 X134.975 Y110.759 E1.9726
G1 X134.946 Y111.418 E1.99454
G1 X134.927 Y111.75 E2.0056
G1 X134.909 Y111.992 E2.01367
G1 X134.879 Y112.319 E2.0246
G1 X134.816 Y112.922 E2.04476
G1 X134.772 Y113.288 E2.05702
G1 X134.745 Y113.483 E2.06357
G1 X134.697 Y113.798 E2.07417
G1 X134.584 Y114.47 E2.09683
G1 X134.508 Y114.884 E2.11083
G1 X134.41 Y115.347 E2.12657
G1 X134.259 Y115.991 E2.14857
G1 X134.178 Y116.311 E2.15955
G1 X134.121 Y116.525 E2.16692
G1 X134.032 Y116.841 E2.17784
G1 X133.84 Y117.484 E2.20016
G1 X133.716 Y117.874 E2.21377
G1 X133.582 Y118.256 E2.22723
G1 X133.293 Y119.038 E2.25496
G1 X133.179 Y119.333 E2.26548
G1 X133.084 Y119.569 E2.27394
G1 X132.936 Y119.92 E2.28661
G1 X132.744 Y120.353 E2.30236
G1 X132.611 Y120.642 E2.31295
G1 X132.522 Y120.828 E2.3198
G1 X132.374 Y121.125 E2.33084
G1 X132.038 Y121.776 E2.35521
G1 X131.814 Y122.19 E2.37086
G1 X131.621 Y122.526 E2.38375
G1 X131.284 Y123.089 E2.40557
G1 X131.102 Y123.382 E2.41705
G1 X130.98 Y123.572 E2.42456
G1 X130.803 Y123.839 E2.43521
G1 X130.435 Y124.377 E2.45689
G1 X130.237 Y124.657 E2.4683
G1 X130.104 Y124.839 E2.47579
G1 X129.9 Y125.11 E2.48708
G1 X129.519 Y125.599 E2.50769
G1 X129.3 Y125.871 E2.51931
G1 X129.147 Y126.055 E2.52727
G1 X128.946 Y126.29 E2.53755
G1 X128.527 Y126.766 E2.55865
G1 X128.282 Y127.035 E2.57075
G1 X128.139 Y127.187 E2.57769
G1 X127.905 Y127.428 E2.58886
G1 X127.437 Y127.896 E2.61087
G1 X127.224 Y128.103 E2.62075
G1 X127.053 Y128.265 E2.62859
G1 X126.758 Y128.535 E2.64189
G1 X126.297 Y128.941 E2.66232
G1 X126.057 Y129.147 E2.67284
G1 X125.921 Y129.26 E2.67872
G1 X125.67 Y129.462 E2.68944
G1 X125.1 Y129.908 E2.71351
G1 X124.785 Y130.146 E2.72664
G1 X124.617 Y130.268 E2.73355
G1 X124.381 Y130.434 E2.74314
G1 X123.902 Y130.763 E2.76247
G1 X123.606 Y130.96 E2.7743
G1 X123.378 Y131.106 E2.7833
G1 X123.103 Y131.276 E2.79405
G1 X122.596 Y131.58 E2.81372
G1 X122.26 Y131.774 E2.82662
G1 X122.108 Y131.858 E2.8324
G1 X121.865 Y131.988 E2.84156
G1 X121.204 Y132.332 E2.86635
G1 X120.901 Y132.484 E2.87762
G1 X120.708 Y132.577 E2.88475
G1 X120.364 Y132.735 E2.89734
G1 X119.771 Y132.996 E2.91889
G1 X119.49 Y133.115 E2.92904
G1 X119.301 Y133.192 E2.93582
G1 X118.946 Y133.33 E2.94849
G1 X118.304 Y133.566 E2.97124
G1 X118.004 Y133.671 E2.98181
G1 X117.816 Y133.734 E2.98841
G1 X117.491 Y133.837 E2.99975
G1 X116.883 Y134.02 E3.02087
G1 X116.522 Y134.122 E3.03334
G1 X116.31 Y134.178 E3.04064
G1 X116.017 Y134.251 E3.05068
G1 X115.417 Y134.392 E3.07118
G1 X115.118 Y134.458 E3.08136
G1 X114.909 Y134.501 E3.08846
G1 X114.547 Y134.569 E3.10071
G1 X113.91 Y134.678 E3.12221
G1 X113.587 Y134.729 E3.13308
G1 X113.324 Y134.766 E3.14191
G1 X112.984 Y134.808 E3.15331
G1 X112.415 Y134.87 E3.17235
G1 X112.108 Y134.899 E3.1826
G1 X111.885 Y134.917 E3.19004
G1 X111.508 Y134.941 E3.20261
G1 X110.837 Y134.972 E3.22495
G1 X110.512 Y134.982 E3.23576
G1 X110.272 Y134.986 E3.24375
G1 X109.926 Y134.987 E3.25526
G1 X109.318 Y134.978 E3.27548
G1 X108.993 Y134.968 E3.28629
G1 X108.813 Y134.96 E3.29229
G1 X108.479 Y134.94 E3.30342
G1 X107.758 Y134.886 E3.32746
G1 X107.38 Y134.851 E3.34009
G1 X107.216 Y134.833 E3.34558
G1 X106.896 Y134.793 E3.3563
G1 X106.251 Y134.703 E3.37796
G1 X105.931 Y134.654 E3.38873
G1 X105.707 Y134.616 E3.39629
G1 X105.362 Y134.552 E3.40796
G1 X104.681 Y134.414 E3.43107
G1 X104.339 Y134.339 E3.44271
G1 X104.089 Y134.28 E3.45126
G1 X103.76 Y134.197 E3.46254
G1 X103.269 Y134.065 E3.47945
G1 X102.976 Y133.982 E3.48958
G1 X102.735 Y133.91 E3.49795
G1 X102.416 Y133.809 E3.50908
G1 X101.814 Y133.609 E3.53018
G1 X101.473 Y133.489 E3.5422
G1 X101.022 Y133.318 E3.55824
G1 X100.337 Y133.042 E3.58281
G1 X99.97 Y132.886 E3.59607
G1 X99.525 Y132.684 E3.61232
G1 X98.907 Y132.389 E3.6351
G1 X98.62 Y132.247 E3.64575
G1 X98.437 Y132.153 E3.65259
G1 X98.107 Y131.976 E3.66505
G1 X97.594 Y131.69 E3.68458
G1 X97.302 Y131.521 E3.6958
G1 X97.063 Y131.378 E3.70507
G1 X96.812 Y131.223 E3.71488
G1 X96.354 Y130.932 E3.73293
G1 X96.037 Y130.723 E3.74556
G1 X95.837 Y130.586 E3.75362
G1 X95.584 Y130.408 E3.76391
G1 X95.016 Y129.995 E3.78726
G1 X94.756 Y129.8 E3.79807
G1 X94.584 Y129.667 E3.80531
G1 X94.292 Y129.433 E3.81775
G1 X93.818 Y129.04 E3.83823
G1 X93.546 Y128.807 E3.85014
G1 X93.38 Y128.66 E3.85752
G1 X93.164 Y128.463 E3.86724
G1 X92.708 Y128.037 E3.888
G1 X92.417 Y127.755 E3.90147
G1 X92.239 Y127.576 E3.90987
G1 X92.042 Y127.373 E3.91928
G1 X91.6 Y126.905 E3.94069
G1 X91.347 Y126.628 E3.95317
G1 X91.205 Y126.467 E3.96031
G1 X91.012 Y126.242 E3.97017
G1 X90.612 Y125.763 E3.99092
G1 X90.405 Y125.508 E4.00185
G1 X90.306 Y125.382 E4.00718
G1 X90.091 Y125.098 E4.01902
G1 X89.64 Y124.484 E4.04436
G1 X89.388 Y124.126 E4.05892
G1 X89.171 Y123.8 E4.07195
G1 X88.786 Y123.201 E4.09563
G1 X88.573 Y122.857 E4.10909
G1 X88.454 Y122.656 E4.11686
G1 X88.318 Y122.418 E4.12598
G1 X88.033 Y121.908 E4.14541
G1 X87.865 Y121.596 E4.15719
G1 X87.76 Y121.393 E4.16479
G1 X87.613 Y121.098 E4.17576
G1 X87.339 Y120.527 E4.19682
G1 X87.174 Y120.168 E4.20996
G1 X87.095 Y119.987 E4.21653
G1 X86.99 Y119.738 E4.22552
G1 X86.728 Y119.095 E4.24861
G1 X86.609 Y118.788 E4.25956
G1 X86.515 Y118.536 E4.26851
G1 X86.392 Y118.189 E4.28075
G1 X86.226 Y117.694 E4.29812
G1 X86.131 Y117.397 E4.30849
G1 X86.079 Y117.226 E4.31444
G1 X85.977 Y116.868 E4.32682
G1 X85.759 Y116.053 E4.35488
G1 X85.609 Y115.421 E4.37648
G1 X85.447 Y114.631 E4.4033
G1 X85.376 Y114.249 E4.41623
G1 X85.345 Y114.065 E4.42243
G1 X85.298 Y113.761 E4.43266
G1 X85.209 Y113.125 E4.45402
G1 X85.163 Y112.753 E4.46649
G1 X85.141 Y112.544 E4.47348
G1 X85.113 Y112.233 E4.48387
G1 X85.064 Y111.594 E4.50518
G1 X85.043 Y111.234 E4.51718
G1 X85.03 Y110.937 E4.52706
G1 X85.02 Y110.632 E4.53721
G1 X85.012 Y110.133 E4.55381
G1 X85.012 Y109.815 E4.56439
G1 X85.015 Y109.583 E4.57211
G1 X85.025 Y109.241 E4.58349
G1 X85.054 Y108.582 E4.60542
G1 X85.073 Y108.25 E4.61649
G1 X85.091 Y108.008 E4.62456
G1 X85.121 Y107.681 E4.63548
G1 X85.184 Y107.078 E4.65564
G1 X85.228 Y106.712 E4.6679
G1 X85.255 Y106.517 E4.67445
G1 X85.303 Y106.202 E4.68505
G1 X85.416 Y105.53 E4.70771
G1 X85.501 Y105.074 E4.72314
G1 X85.591 Y104.652 E4.73749
G1 X85.743 Y104.002 E4.7597
G1 X85.83 Y103.654 E4.77163
G1 X85.877 Y103.479 E4.77765
G1 X85.961 Y103.184 E4.78785
G1 X86.165 Y102.501 E4.81156
G1 X86.264 Y102.188 E4.82248
G1 X86.324 Y102.007 E4.82882
G1 X86.441 Y101.67 E4.84069
G1 X86.661 Y101.072 E4.86188
G1 X86.784 Y100.754 E4.87322
G1 X86.876 Y100.526 E4.8814
G1 X87.003 Y100.225 E4.89227
G1 X87.245 Y99.673 E4.91231
G1 X87.404 Y99.326 E4.92501
G1 X87.478 Y99.172 E4.93069
G1 X87.618 Y98.891 E4.94113
G1 X87.969 Y98.211 E4.96658
G1 X88.145 Y97.883 E4.97896
G1 X88.234 Y97.724 E4.98503
G1 X88.384 Y97.465 E4.99498
G1 X88.688 Y96.955 E5.01473
G1 X88.866 Y96.667 E5.02599
G1 X88.972 Y96.501 E5.03254
G1 X89.155 Y96.224 E5.04358
G1 X89.558 Y95.633 E5.06737
G1 X89.769 Y95.334 E5.07954
G1 X89.9 Y95.155 E5.08692
G1 X90.099 Y94.892 E5.09789
G1 X90.483 Y94.399 E5.11868
G1 X90.711 Y94.116 E5.13076
G1 X90.861 Y93.936 E5.13856
G1 X91.054 Y93.71 E5.14844
G1 X91.473 Y93.234 E5.16953
G1 X91.718 Y92.965 E5.18163
G1 X91.861 Y92.813 E5.18858
G1 X92.095 Y92.572 E5.19975
G1 X92.563 Y92.104 E5.22176
G0 F6000 X92.846 Y92.387
G1 F1200 X93.051 Y92.187 E5.23129
G1 X93.222 Y92.025 E5.23912
G1 X93.506 Y91.765 E5.25193
G1 X93.967 Y91.359 E5.27236
G1 X94.199 Y91.161 E5.2825
G1 X94.335 Y91.048 E5.28839
G1 X94.577 Y90.853 E5.29872
G1 X95.147 Y90.407 E5.32279
G1 X95.456 Y90.174 E5.33567
G1 X95.627 Y90.05 E5.34269
G1 X95.848 Y89.894 E5.35169
G1 X96.308 Y89.578 E5.37025
G1 X96.576 Y89.4 E5.38095
G1 X96.803 Y89.254 E5.38993
G1 X97.088 Y89.077 E5.40109
G1 X97.642 Y88.745 E5.42257
G1 X97.913 Y88.588 E5.43298
G1 X98.097 Y88.485 E5.44
G1 X98.375 Y88.334 E5.45052
G1 X98.916 Y88.052 E5.47081
G1 X99.252 Y87.885 E5.48329
G1 X99.426 Y87.802 E5.4897
G1 X99.682 Y87.684 E5.49908
G1 X100.325 Y87.398 E5.52249
G1 X100.612 Y87.275 E5.53287
G1 X100.812 Y87.193 E5.54006
G1 X101.144 Y87.064 E5.55191
G1 X101.707 Y86.855 E5.57188
G1 X101.986 Y86.755 E5.58174
G1 X102.195 Y86.684 E5.58908
G1 X102.537 Y86.575 E5.60102
G1 X103.205 Y86.373 E5.62423
G1 X103.528 Y86.281 E5.6354
G1 X103.763 Y86.218 E5.64349
G1 X104.065 Y86.141 E5.65386
G1 X104.656 Y86.001 E5.67406
G1 X104.977 Y85.931 E5.68499
G1 X105.163 Y85.893 E5.6913
G1 X105.49 Y85.831 E5.70237
G1 X106.165 Y85.715 E5.72515
G1 X106.479 Y85.666 E5.73572
G1 X106.727 Y85.631 E5.74405
G1 X107.06 Y85.589 E5.75521
G1 X107.629 Y85.527 E5.77425
G1 X107.924 Y85.499 E5.78411
G1 X108.147 Y85.481 E5.79155
G1 X108.511 Y85.458 E5.80368
G1 X109.182 Y85.427 E5.82602
G1 X109.494 Y85.417 E5.8364
G1 X109.734 Y85.413 E5.84439
G1 X110.068 Y85.413 E5.8555
G1 X110.676 Y85.422 E5.87572
G1 X110.99 Y85.431 E5.88617
G1 X111.17 Y85.439 E5.89216
G1 X111.491 Y85.459 E5.90286
G1 X112.212 Y85.513 E5.92691
G1 X112.604 Y85.549 E5.94
G1 X113.044 Y85.602 E5.95474
G1 X113.672 Y85.689 E5.97583
G1 X113.992 Y85.739 E5.9866
G1 X114.251 Y85.783 E5.99534
G1 X114.578 Y85.843 E6.00639
G1 X115.191 Y85.967 E6.02719
G1 X115.485 Y86.031 E6.0372
G1 X115.735 Y86.089 E6.04574
G1 X116.058 Y86.17 E6.05681
G1 X116.563 Y86.304 E6.07419
G1 X116.878 Y86.393 E6.08508
G1 X117.119 Y86.465 E6.09344
G1 X117.423 Y86.56 E6.10404
G1 X118.065 Y86.773 E6.12653
G1 X118.379 Y86.883 E6.1376
G1 X118.567 Y86.952 E6.14426
G1 X118.863 Y87.066 E6.15481
G1 X119.451 Y87.302 E6.17589
G1 X119.778 Y87.439 E6.18768
G1 X119.93 Y87.506 E6.1932
G1 X120.208 Y87.634 E6.20338
G1 X120.885 Y87.956 E6.22832
G1 X121.192 Y88.108 E6.23971
G1 X121.349 Y88.189 E6.24559
G1 X121.637 Y88.343 E6.25645
G1 X122.258 Y88.688 E6.28008
G1 X122.564 Y88.865 E6.29183
G1 X122.764 Y88.985 E6.29959
G1 X123.017 Y89.141 E6.30948
G1 X123.485 Y89.44 E6.32795
G1 X123.87 Y89.697 E6.34334
G1 X124.184 Y89.916 E6.35608
G1 X124.759 Y90.335 E6.37974
G1 X125.017 Y90.53 E6.3905
G1 X125.187 Y90.662 E6.39766
G1 X125.453 Y90.875 E6.40899
G1 X125.928 Y91.269 E6.42952
G1 X126.188 Y91.492 E6.44091
G1 X126.354 Y91.639 E6.44828
G1 X126.568 Y91.834 E6.45791
G1 X127.017 Y92.254 E6.47836
G1 X127.271 Y92.5 E6.49012
G1 X127.455 Y92.684 E6.49878
G1 X127.666 Y92.9 E6.50882
G1 X128.109 Y93.369 E6.53028
G1 X128.348 Y93.631 E6.54207
G1 X128.484 Y93.785 E6.54891
G1 X128.671 Y94.003 E6.55846
